;FLAVOR:RepRap
;TIME:486
;Generated with Cura_SteamEngine 2.3.1
M104 S190
M109 S190
G21 ;metric values
G90 ;absolute positioning
M82 ;set extruder to absolute mode
M107 ;start with the fan off
G28 X0 Y0 ;move X/Y to min endstops
G28 Z0 ;move Z to min endstops
G1 Z15.0 F9000 ;move the platform down 15mm
G92 E0 ;zero the extruded length
G1 F200 E3 ;extrude 3mm of feed stock
G92 E0 ;zero the extruded length again
G1 F9000
;Put printing message on LCD screen
M117 Printing...
;LAYER_COUNT:18
;LAYER:0
M107
G1 F1500 E-6.5
G0 F3857.1 X81.434 Y63.474 Z.25
G0 X81.835 Y63.067
;TYPE:SKIRT
G1 F1500 E0
G1 F1800 X83.339 Y61.721 E0.02498
G1 X83.815 Y61.348 E0.03247
G1 X84.336 Y61.042 E0.03995
G1 X84.768 Y60.852 E0.04579
G1 X85.472 Y60.585 E0.05511
G1 X86.05 Y60.409 E0.06259
G1 X86.646 Y60.31 E0.07007
G1 X87.096 Y60.288 E0.07565
G1 X90.982 Y60.29 E0.12375
G1 X91.372 Y60.307 E0.12858
G1 X94.418 Y60.569 E0.16643
G1 X99.837 Y60.797 E0.23357
G1 X105.268 Y60.718 E0.3008
G1 X108.922 Y60.496 E0.34612
G1 X109.198 Y60.488 E0.34954
G1 X112.967 Y60.487 E0.39619
G1 X113.57 Y60.527 E0.40367
G1 X114.163 Y60.646 E0.41116
G1 X114.735 Y60.842 E0.41864
G1 X115.374 Y61.171 E0.42754
G1 X115.869 Y61.477 E0.43475
G1 X116.493 Y61.94 E0.44436
G1 X117.862 Y63.15 E0.46698
G1 X118.287 Y63.58 E0.47446
G1 X118.653 Y64.061 E0.48195
G1 X119.013 Y64.72 E0.49124
G1 X120.011 Y66.966 E0.52167
G1 X120.219 Y67.534 E0.52915
G1 X120.351 Y68.124 E0.53664
G1 X120.402 Y68.669 E0.54341
G1 X120.502 Y71.627 E0.58005
G1 X120.491 Y72.141 E0.58641
G1 X120.285 Y74.749 E0.6188
G1 X120.085 Y80.172 E0.68597
G1 X120.256 Y86.789 E0.76791
G1 X120.337 Y88.157 E0.78488
G1 X120.345 Y88.43 E0.78826
G1 X120.344 Y92.218 E0.83515
G1 X120.335 Y92.497 E0.8386
G1 X120.086 Y96.563 E0.88903
G1 X120.008 Y102.011 E0.95647
G1 X120.36 Y110.443 E1.06094
G1 X120.358 Y110.867 E1.06619
G1 X120.102 Y115.894 E1.1285
G1 X120.037 Y121.329 E1.19578
G1 X120.354 Y127.8 E1.27598
G1 X120.358 Y128.132 E1.28009
G1 X120.26 Y132.271 E1.33134
G1 X120.205 Y132.874 E1.33884
G1 X120.072 Y133.463 E1.34631
G1 X119.863 Y134.03 E1.35379
G1 X119.55 Y134.612 E1.36197
G1 X118.673 Y135.996 E1.38225
G1 X118.317 Y136.484 E1.38973
G1 X117.899 Y136.921 E1.39722
G1 X117.427 Y137.299 E1.4047
G1 X117.096 Y137.509 E1.40956
G1 X115.715 Y138.306 E1.42929
G1 X115.172 Y138.573 E1.43678
G1 X114.59 Y138.769 E1.44439
G1 X112.347 Y139.358 E1.47309
G1 X111.753 Y139.473 E1.48058
G1 X111.087 Y139.507 E1.48884
G1 X108.707 Y139.456 E1.5183
G1 X108.508 Y139.447 E1.52077
G1 X104.479 Y139.185 E1.57075
G1 X99.053 Y139.111 E1.63792
G1 X93.625 Y139.344 E1.70518
G1 X89.048 Y139.709 E1.76201
G1 X88.623 Y139.723 E1.76728
G1 X87.35 Y139.706 E1.78304
G1 X86.747 Y139.658 E1.79053
G1 X86.156 Y139.531 E1.79801
G1 X85.587 Y139.327 E1.80549
G1 X85.049 Y139.049 E1.81299
G1 X84.553 Y138.704 E1.82047
G1 X83.99 Y138.168 E1.83009
G1 X80.643 Y134.398 E1.89249
G1 X80.272 Y133.921 E1.89997
G1 X79.968 Y133.398 E1.90746
G1 X79.735 Y132.84 E1.91495
G1 X79.577 Y132.256 E1.92244
G1 X79.489 Y131.373 E1.93342
G1 X79.482 Y128.732 E1.96611
G1 X79.489 Y128.471 E1.96935
G1 X79.79 Y122.956 E2.03772
G1 X79.778 Y117.549 E2.10465
G1 X79.452 Y111.955 E2.17401
G1 X79.444 Y111.689 E2.17731
G1 X79.444 Y108.759 E2.21358
G1 X79.452 Y108.486 E2.21696
G1 X79.656 Y105.061 E2.25943
G1 X79.733 Y99.643 E2.3265
G1 X79.358 Y92.291 E2.41763
G1 X79.353 Y91.946 E2.4219
G1 X79.458 Y87.673 E2.47481
G1 X79.464 Y87.532 E2.47656
G1 X79.648 Y84.208 E2.51777
G1 X79.705 Y78.749 E2.58535
G1 X79.619 Y76.09 E2.61828
G1 X79.296 Y71.246 E2.67838
G1 X79.286 Y70.922 E2.68239
G1 X79.296 Y68.551 E2.71174
G1 X79.339 Y67.948 E2.71922
G1 X79.46 Y67.355 E2.72671
G1 X79.754 Y66.574 E2.73704
G1 X80.769 Y64.48 E2.76585
G1 X81.068 Y63.955 E2.77333
G1 X81.434 Y63.474 E2.78081
G1 X81.835 Y63.067 E2.78788
G0 F3857.1 X82.068 Y63.328
G1 F1800 X83.572 Y61.982 E2.81287
G1 X84.031 Y61.625 E2.82007
G1 X84.534 Y61.334 E2.82726
G1 X84.892 Y61.18 E2.83208
G1 X85.596 Y60.913 E2.8414
G1 X86.152 Y60.744 E2.8486
G1 X86.726 Y60.654 E2.85579
G1 X87.096 Y60.638 E2.86037
G1 X90.982 Y60.64 E2.90848
G1 X91.342 Y60.656 E2.91294
G1 X94.396 Y60.919 E2.95088
G1 X99.828 Y61.147 E3.01818
G1 X105.294 Y61.067 E3.08585
G1 X108.943 Y60.846 E3.1311
G1 X109.198 Y60.838 E3.13426
G1 X112.967 Y60.837 E3.18092
G1 X113.547 Y60.877 E3.18811
G1 X114.115 Y60.996 E3.1953
G1 X114.662 Y61.192 E3.20249
G1 X115.19 Y61.468 E3.20987
G1 X115.685 Y61.774 E3.21707
G1 X116.261 Y62.202 E3.22595
G1 X117.63 Y63.412 E3.24857
G1 X118.038 Y63.826 E3.25577
G1 X118.385 Y64.292 E3.26296
G1 X118.693 Y64.862 E3.27098
G1 X119.691 Y67.108 E3.3014
G1 X119.89 Y67.654 E3.3086
G1 X120.012 Y68.222 E3.31579
G1 X120.053 Y68.681 E3.32149
G1 X120.153 Y71.639 E3.35813
G1 X120.142 Y72.114 E3.36401
G1 X119.936 Y74.734 E3.39654
G1 X119.735 Y80.152 E3.46366
G1 X119.907 Y86.819 E3.54621
G1 X119.988 Y88.178 E3.56306
G1 X119.995 Y88.43 E3.56619
G1 X119.994 Y92.218 E3.61308
G1 X119.986 Y92.476 E3.61627
G1 X119.736 Y96.558 E3.6669
G1 X119.658 Y102.021 E3.73453
G1 X120.01 Y110.458 E3.83906
G1 X120.009 Y110.849 E3.8439
G1 X119.752 Y115.897 E3.90647
G1 X119.687 Y121.342 E3.97387
G1 X120.004 Y127.817 E4.05412
G1 X120.008 Y128.124 E4.05792
G1 X119.91 Y132.263 E4.10917
G1 X119.856 Y132.842 E4.11637
G1 X119.724 Y133.407 E4.12355
G1 X119.515 Y133.949 E4.13074
G1 X119.255 Y134.424 E4.13745
G1 X118.378 Y135.808 E4.15773
G1 X118.034 Y136.277 E4.16493
G1 X117.629 Y136.693 E4.17212
G1 X117.17 Y137.05 E4.17931
G1 X116.921 Y137.206 E4.18295
G1 X115.54 Y138.003 E4.20269
G1 X115.018 Y138.258 E4.20988
G1 X114.501 Y138.43 E4.21662
G1 X112.258 Y139.019 E4.24533
G1 X111.687 Y139.128 E4.25253
G1 X111.094 Y139.157 E4.25988
G1 X108.714 Y139.106 E4.28935
G1 X108.53 Y139.098 E4.29162
G1 X104.486 Y138.835 E4.34179
G1 X99.043 Y138.761 E4.40917
G1 X93.609 Y138.994 E4.4765
G1 X89.02 Y139.36 E4.53349
G1 X88.628 Y139.373 E4.53834
G1 X87.355 Y139.356 E4.5541
G1 X86.776 Y139.308 E4.56129
G1 X86.208 Y139.181 E4.5685
G1 X85.664 Y138.978 E4.57569
G1 X85.153 Y138.702 E4.58288
G1 X84.684 Y138.358 E4.59008
G1 X84.251 Y137.936 E4.59756
G1 X80.904 Y134.166 E4.65997
G1 X80.55 Y133.706 E4.66715
G1 X80.261 Y133.202 E4.67434
G1 X80.044 Y132.662 E4.68155
G1 X79.904 Y132.099 E4.68873
G1 X79.839 Y131.372 E4.69776
G1 X79.832 Y128.731 E4.73046
G1 X79.838 Y128.49 E4.73344
G1 X80.14 Y122.957 E4.80203
G1 X80.128 Y117.546 E4.86901
G1 X79.801 Y111.935 E4.93859
G1 X79.794 Y111.689 E4.94164
G1 X79.794 Y108.759 E4.97791
G1 X79.802 Y108.507 E4.98103
G1 X80.006 Y105.087 E5.02344
G1 X80.083 Y99.646 E5.0908
G1 X79.707 Y92.273 E5.18218
G1 X79.703 Y91.954 E5.18613
G1 X79.808 Y87.681 E5.23904
G1 X79.813 Y87.551 E5.24065
G1 X79.998 Y84.208 E5.2821
G1 X80.055 Y78.742 E5.34976
G1 X79.969 Y76.083 E5.3827
G1 X79.645 Y71.222 E5.443
G1 X79.636 Y70.923 E5.44671
G1 X79.646 Y68.552 E5.47606
G1 X79.688 Y67.973 E5.48324
G1 X79.81 Y67.405 E5.49043
G1 X80.069 Y66.727 E5.49942
G1 X81.084 Y64.633 E5.52822
G1 X81.373 Y64.129 E5.53542
G1 X81.728 Y63.669 E5.54261
G1 X82.068 Y63.328 E5.54857
G0 F3857.1 X82.302 Y63.588
G1 F1800 X83.806 Y62.242 E5.57355
G1 X84.246 Y61.902 E5.58044
G1 X84.73 Y61.628 E5.58732
G1 X85.016 Y61.507 E5.59117
G1 X85.72 Y61.24 E5.60049
G1 X86.253 Y61.08 E5.60737
G1 X86.803 Y60.999 E5.61426
G1 X87.096 Y60.988 E5.61789
G1 X90.982 Y60.99 E5.66599
G1 X91.312 Y61.004 E5.67008
G1 X94.375 Y61.267 E5.70813
G1 X99.835 Y61.497 E5.77578
G1 X105.3 Y61.417 E5.84344
G1 X108.965 Y61.195 E5.88889
G1 X109.198 Y61.188 E5.89178
G1 X112.967 Y61.187 E5.93843
G1 X113.522 Y61.227 E5.94532
G1 X114.066 Y61.346 E5.95221
G1 X114.586 Y61.541 E5.95909
G1 X115.006 Y61.766 E5.96498
G1 X115.501 Y62.072 E5.97219
G1 X116.029 Y62.465 E5.98034
G1 X117.398 Y63.675 E6.00295
G1 X117.788 Y64.072 E6.00984
G1 X118.116 Y64.521 E6.01673
G1 X118.373 Y65.005 E6.02351
G1 X119.371 Y67.251 E6.05393
G1 X119.56 Y67.774 E6.06082
G1 X119.672 Y68.319 E6.0677
G1 X119.703 Y68.693 E6.07235
G1 X119.803 Y71.651 E6.10899
G1 X119.793 Y72.086 E6.11437
G1 X119.586 Y74.716 E6.14703
G1 X119.385 Y80.137 E6.21418
G1 X119.558 Y86.849 E6.29729
G1 X119.638 Y88.199 E6.31403
G1 X119.645 Y88.43 E6.3169
G1 X119.644 Y92.218 E6.36379
G1 X119.637 Y92.454 E6.36671
G1 X119.386 Y96.552 E6.41753
G1 X119.308 Y102.012 E6.48513
G1 X119.661 Y110.472 E6.58994
G1 X119.659 Y110.831 E6.59439
G1 X119.402 Y115.875 E6.6569
G1 X119.336 Y121.355 E6.72474
G1 X119.654 Y127.834 E6.80504
G1 X119.658 Y128.116 E6.80853
G1 X119.56 Y132.255 E6.85978
G1 X119.507 Y132.809 E6.86667
G1 X119.375 Y133.349 E6.87355
G1 X119.167 Y133.865 E6.88044
G1 X118.959 Y134.237 E6.88572
G1 X118.082 Y135.621 E6.906
G1 X117.751 Y136.069 E6.91289
G1 X117.36 Y136.464 E6.91977
G1 X116.746 Y136.903 E6.92912
G1 X115.365 Y137.7 E6.94886
G1 X114.864 Y137.943 E6.95575
G1 X114.412 Y138.092 E6.96164
G1 X112.169 Y138.681 E6.99035
G1 X111.622 Y138.783 E6.99723
G1 X111.102 Y138.807 E7.00368
G1 X108.722 Y138.756 E7.03315
G1 X108.553 Y138.749 E7.03524
G1 X104.495 Y138.485 E7.08558
G1 X99.032 Y138.41 E7.15321
G1 X93.594 Y138.644 E7.22059
G1 X88.992 Y139.011 E7.27774
G1 X88.632 Y139.023 E7.28219
G1 X87.359 Y139.006 E7.29795
G1 X86.805 Y138.958 E7.30484
G1 X86.263 Y138.832 E7.31173
G1 X85.745 Y138.629 E7.31861
G1 X85.261 Y138.355 E7.3255
G1 X84.821 Y138.014 E7.33239
G1 X84.513 Y137.704 E7.3378
G1 X81.166 Y133.934 E7.4002
G1 X80.828 Y133.492 E7.40709
G1 X80.556 Y133.007 E7.41397
G1 X80.356 Y132.487 E7.42087
G1 X80.233 Y131.945 E7.42775
G1 X80.189 Y131.371 E7.43488
G1 X80.182 Y128.73 E7.46757
G1 X80.188 Y128.509 E7.47031
G1 X80.49 Y122.975 E7.53891
G1 X80.478 Y117.526 E7.60636
G1 X80.151 Y111.915 E7.67594
G1 X80.144 Y111.689 E7.67874
G1 X80.144 Y108.759 E7.71501
G1 X80.151 Y108.528 E7.71787
G1 X80.356 Y105.091 E7.76049
G1 X80.433 Y99.633 E7.82806
G1 X80.057 Y92.255 E7.91951
G1 X80.053 Y91.963 E7.92312
G1 X80.158 Y87.69 E7.97603
G1 X80.163 Y87.571 E7.97751
G1 X80.348 Y84.232 E8.0189
G1 X80.405 Y78.735 E8.08695
G1 X80.319 Y76.048 E8.12023
G1 X79.995 Y71.199 E8.18039
G1 X79.986 Y70.925 E8.18378
G1 X79.996 Y68.554 E8.21313
G1 X80.038 Y67.999 E8.22002
G1 X80.16 Y67.456 E8.22691
G1 X80.384 Y66.88 E8.23456
G1 X81.399 Y64.786 E8.26337
G1 X81.677 Y64.304 E8.27026
G1 X82.021 Y63.867 E8.27714
G1 X82.302 Y63.588 E8.28204
G0 F3857.1 X82.535 Y63.849
G1 F1800 X84.039 Y62.503 E8.30703
G1 X84.46 Y62.18 E8.3136
G1 X85.14 Y61.834 E8.32304
G1 X85.844 Y61.567 E8.33236
G1 X86.353 Y61.417 E8.33893
G1 X87.096 Y61.338 E8.34818
G1 X90.982 Y61.34 E8.39628
G1 X91.282 Y61.353 E8.4
G1 X94.353 Y61.617 E8.43815
G1 X99.825 Y61.848 E8.50595
G1 X105.304 Y61.767 E8.57378
G1 X108.986 Y61.544 E8.61944
G1 X109.198 Y61.538 E8.62207
G1 X112.967 Y61.537 E8.66872
G1 X113.496 Y61.577 E8.67529
G1 X114.013 Y61.696 E8.68186
G1 X114.507 Y61.891 E8.68843
G1 X114.822 Y62.064 E8.69288
G1 X115.317 Y62.37 E8.70009
G1 X115.797 Y62.727 E8.70749
G1 X117.166 Y63.937 E8.73011
G1 X117.536 Y64.317 E8.73667
G1 X117.845 Y64.749 E8.74325
G1 X118.053 Y65.147 E8.74881
G1 X119.051 Y67.393 E8.77923
G1 X119.23 Y67.892 E8.78579
G1 X119.331 Y68.413 E8.79236
G1 X119.353 Y68.705 E8.79599
G1 X119.453 Y71.663 E8.83262
G1 X119.444 Y72.059 E8.83753
G1 X119.238 Y74.677 E8.87003
G1 X119.035 Y80.16 E8.93795
G1 X119.207 Y86.85 E9.02079
G1 X119.289 Y88.22 E9.03778
G1 X119.295 Y88.43 E9.04038
G1 X119.294 Y92.218 E9.08728
G1 X119.287 Y92.433 E9.08994
G1 X119.036 Y96.527 E9.14071
G1 X118.957 Y102.022 E9.20874
G1 X119.311 Y110.487 E9.31362
G1 X119.309 Y110.813 E9.31765
G1 X119.052 Y115.853 E9.38012
G1 X118.986 Y121.351 E9.44819
G1 X119.305 Y127.851 E9.52874
G1 X119.308 Y128.107 E9.53191
G1 X119.21 Y132.246 E9.58316
G1 X119.158 Y132.774 E9.58973
G1 X119.026 Y133.289 E9.59631
G1 X118.82 Y133.777 E9.60287
G1 X118.664 Y134.05 E9.60676
G1 X117.787 Y135.434 E9.62704
G1 X117.47 Y135.859 E9.63361
G1 X117.092 Y136.233 E9.64019
G1 X116.571 Y136.6 E9.64808
G1 X115.19 Y137.397 E9.66782
G1 X114.712 Y137.627 E9.67438
G1 X114.323 Y137.753 E9.67944
G1 X112.08 Y138.342 E9.70815
G1 X111.558 Y138.438 E9.71472
G1 X111.109 Y138.457 E9.72028
G1 X108.729 Y138.406 E9.74975
G1 X108.576 Y138.4 E9.75165
G1 X104.503 Y138.135 E9.80217
G1 X99.039 Y138.06 E9.86982
G1 X93.551 Y138.296 E9.93781
G1 X88.964 Y138.662 E9.99477
G1 X88.637 Y138.673 E9.99882
G1 X87.364 Y138.656 E10.01458
G1 X86.835 Y138.609 E10.02116
G1 X86.32 Y138.483 E10.02772
G1 X85.829 Y138.281 E10.03429
G1 X85.374 Y138.008 E10.04086
G1 X84.965 Y137.67 E10.04743
G1 X84.775 Y137.471 E10.05084
G1 X81.428 Y133.701 E10.11324
G1 X81.107 Y133.279 E10.1198
G1 X80.852 Y132.813 E10.12638
G1 X80.67 Y132.315 E10.13294
G1 X80.566 Y131.795 E10.13951
G1 X80.539 Y131.37 E10.14478
G1 X80.532 Y128.729 E10.17747
G1 X80.537 Y128.528 E10.17996
G1 X80.84 Y122.976 E10.24879
G1 X80.828 Y117.522 E10.3163
G1 X80.5 Y111.894 E10.38609
G1 X80.494 Y111.689 E10.38863
G1 X80.494 Y108.759 E10.4249
G1 X80.5 Y108.549 E10.4275
G1 X80.706 Y105.095 E10.47033
G1 X80.784 Y99.62 E10.53811
G1 X80.407 Y92.238 E10.62961
G1 X80.403 Y91.971 E10.63291
G1 X80.508 Y87.698 E10.68582
G1 X80.512 Y87.59 E10.68716
G1 X80.698 Y84.233 E10.72878
G1 X80.755 Y78.726 E10.79695
G1 X80.669 Y76.044 E10.83017
G1 X80.344 Y71.176 E10.89057
G1 X80.336 Y70.926 E10.89366
G1 X80.346 Y68.555 E10.92301
G1 X80.388 Y68.026 E10.92958
G1 X80.509 Y67.509 E10.93615
G1 X80.699 Y67.032 E10.94251
G1 X81.714 Y64.938 E10.97131
G1 X81.981 Y64.48 E10.97788
G1 X82.313 Y64.066 E10.98445
G1 X82.535 Y63.849 E10.98829
G0 F3857.1 X82.769 Y64.11
G1 F1800 X84.273 Y62.764 E11.01327
G1 X84.673 Y62.459 E11.0195
G1 X85.264 Y62.161 E11.02769
G1 X85.968 Y61.894 E11.03701
G1 X86.452 Y61.754 E11.04325
G1 X87.096 Y61.688 E11.05126
G1 X90.982 Y61.69 E11.09937
G1 X91.252 Y61.702 E11.10271
G1 X94.33 Y61.967 E11.14096
G1 X99.816 Y62.198 E11.20893
G1 X105.33 Y62.117 E11.27719
G1 X109.007 Y61.894 E11.32279
G1 X109.198 Y61.888 E11.32516
G1 X112.967 Y61.887 E11.37181
G1 X113.469 Y61.927 E11.37805
G1 X113.959 Y62.045 E11.38428
G1 X114.637 Y62.361 E11.39354
G1 X115.132 Y62.667 E11.40075
G1 X115.566 Y62.989 E11.40744
G1 X116.935 Y64.199 E11.43005
G1 X117.284 Y64.561 E11.43628
G1 X117.572 Y64.975 E11.44252
G1 X117.733 Y65.289 E11.44689
G1 X118.731 Y67.535 E11.47731
G1 X118.899 Y68.01 E11.48355
G1 X119.003 Y68.717 E11.4924
G1 X119.103 Y71.675 E11.52903
G1 X119.095 Y72.031 E11.53344
G1 X118.888 Y74.659 E11.56607
G1 X118.685 Y80.156 E11.63417
G1 X118.858 Y86.878 E11.7174
G1 X118.939 Y88.24 E11.73429
G1 X118.945 Y88.43 E11.73665
G1 X118.944 Y92.218 E11.78354
G1 X118.938 Y92.411 E11.78593
G1 X118.686 Y96.521 E11.8369
G1 X118.607 Y102.031 E11.90511
G1 X118.961 Y110.501 E12.01005
G1 X118.96 Y110.795 E12.01369
G1 X118.702 Y115.856 E12.07642
G1 X118.636 Y121.365 E12.14462
G1 X118.955 Y127.869 E12.22523
G1 X118.958 Y128.099 E12.22808
G1 X118.86 Y132.238 E12.27932
G1 X118.808 Y132.739 E12.28556
G1 X118.678 Y133.225 E12.29179
G1 X118.368 Y133.862 E12.30056
G1 X117.491 Y135.246 E12.32084
G1 X117.188 Y135.649 E12.32708
G1 X116.826 Y135.999 E12.33331
G1 X116.396 Y136.297 E12.33979
G1 X115.015 Y137.094 E12.35953
G1 X114.56 Y137.31 E12.36576
G1 X114.234 Y137.415 E12.37
G1 X111.991 Y138.004 E12.39871
G1 X111.496 Y138.093 E12.40493
G1 X111.117 Y138.107 E12.40963
G1 X108.737 Y138.056 E12.4391
G1 X108.599 Y138.05 E12.44081
G1 X104.531 Y137.785 E12.49127
G1 X99.029 Y137.71 E12.55938
G1 X93.535 Y137.946 E12.62746
G1 X88.936 Y138.313 E12.68457
G1 X88.642 Y138.323 E12.68821
G1 X87.369 Y138.306 E12.70397
G1 X86.867 Y138.259 E12.71021
G1 X86.379 Y138.134 E12.71644
G1 X85.918 Y137.933 E12.72267
G1 X85.493 Y137.662 E12.72891
G1 X85.037 Y137.239 E12.73661
G1 X81.69 Y133.469 E12.79901
G1 X81.386 Y133.067 E12.80525
G1 X81.15 Y132.622 E12.81149
G1 X80.987 Y132.146 E12.81772
G1 X80.902 Y131.649 E12.82396
G1 X80.889 Y131.369 E12.82743
G1 X80.882 Y128.728 E12.86012
G1 X80.887 Y128.547 E12.86236
G1 X81.19 Y122.994 E12.9312
G1 X81.178 Y117.519 E12.99898
G1 X80.849 Y111.874 E13.06897
G1 X80.844 Y111.689 E13.07126
G1 X80.844 Y108.759 E13.10753
G1 X80.85 Y108.57 E13.10987
G1 X81.056 Y105.121 E13.15264
G1 X81.134 Y99.623 E13.22071
G1 X80.756 Y92.22 E13.31247
G1 X80.753 Y91.98 E13.31544
G1 X80.858 Y87.707 E13.36835
G1 X80.862 Y87.609 E13.36956
G1 X81.048 Y84.255 E13.41115
