;FLAVOR:RepRap
;TIME:8984
;Generated with Cura_SteamEngine 2.3.1
M190 S60
M104 S210
M109 S210
G21 ;metric values
G90 ;absolute positioning
M82 ;set extruder to absolute mode
M107 ;start with the fan off
G28 X0 Y0 ;move X/Y to min endstops
G28 Z0 ;move Z to min endstops
G1 Z15.0 F9000 ;move the platform down 15mm
G92 E0 ;zero the extruded length
G1 F200 E3 ;extrude 3mm of feed stock
G92 E0 ;zero the extruded length again
G1 F9000
;Put printing message on LCD screen
M117 Printing...
;LAYER_COUNT:201
;LAYER:0
M107
G1 F1500 E-6.5
G0 F2700 X62.969 Y23.17 Z.3
;TYPE:SKIRT
G1 F1500 E0
G1 F1800 X63.319 Y22.357 E0.01503
G1 X63.741 Y21.578 E0.03007
G1 X64.232 Y20.842 E0.04509
G1 X64.787 Y20.152 E0.06012
G1 X65.402 Y19.515 E0.07515
G1 X66.072 Y18.937 E0.09017
G1 X66.791 Y18.421 E0.1052
G1 X67.554 Y17.972 E0.12023
G1 X68.355 Y17.594 E0.13526
G1 X69.186 Y17.29 E0.15029
G1 X70.041 Y17.062 E0.16531
G1 X70.914 Y16.912 E0.18034
G1 X72.136 Y16.835 E0.20113
G1 X121.31 Y16.835 E1.03594
G1 X121.642 Y16.778 E1.04165
G1 X122.864 Y16.701 E1.06244
G1 X127.864 Y16.701 E1.14732
G1 X128.748 Y16.741 E1.16235
G1 X129.625 Y16.861 E1.17737
G1 X130.488 Y17.059 E1.1924
G1 X131.329 Y17.334 E1.20743
G1 X132.142 Y17.684 E1.22245
G1 X132.921 Y18.106 E1.23749
G1 X133.657 Y18.597 E1.25251
G1 X134.347 Y19.152 E1.26755
G1 X134.984 Y19.767 E1.28258
G1 X135.562 Y20.437 E1.2976
G1 X136.078 Y21.156 E1.31262
G1 X136.527 Y21.919 E1.32765
G1 X136.905 Y22.72 E1.34269
G1 X137.209 Y23.551 E1.35771
G1 X137.437 Y24.406 E1.37273
G1 X137.587 Y25.279 E1.38777
G1 X137.664 Y26.501 E1.40856
G1 X137.664 Y173.499 E3.90407
G1 X137.624 Y174.383 E3.91909
G1 X137.504 Y175.26 E3.93412
G1 X137.306 Y176.123 E3.94915
G1 X137.031 Y176.964 E3.96417
G1 X136.681 Y177.777 E3.9792
G1 X136.259 Y178.556 E3.99424
G1 X135.768 Y179.292 E4.00926
G1 X135.213 Y179.982 E4.02429
G1 X134.598 Y180.619 E4.03933
G1 X133.928 Y181.197 E4.05435
G1 X133.209 Y181.713 E4.06937
G1 X132.446 Y182.162 E4.0844
G1 X131.645 Y182.54 E4.09944
G1 X130.814 Y182.844 E4.11446
G1 X129.959 Y183.072 E4.12948
G1 X129.086 Y183.222 E4.14452
G1 X127.864 Y183.299 E4.16531
G1 X122.864 Y183.299 E4.25019
G1 X121.98 Y183.259 E4.26521
G1 X121.432 Y183.184 E4.2746
G1 X72.136 Y183.184 E5.11148
G1 X71.252 Y183.144 E5.1265
G1 X70.375 Y183.024 E5.14153
G1 X69.512 Y182.826 E5.15656
G1 X68.671 Y182.551 E5.17158
G1 X67.858 Y182.201 E5.1866
G1 X67.079 Y181.779 E5.20165
G1 X66.343 Y181.288 E5.21667
G1 X65.653 Y180.733 E5.2317
G1 X65.016 Y180.118 E5.24673
G1 X64.438 Y179.448 E5.26175
G1 X63.922 Y178.729 E5.27678
G1 X63.473 Y177.966 E5.29181
G1 X63.095 Y177.165 E5.30684
G1 X62.791 Y176.334 E5.32186
G1 X62.563 Y175.479 E5.33689
G1 X62.413 Y174.606 E5.35192
G1 X62.336 Y173.384 E5.37271
G1 X62.336 Y146.11 E5.83573
G1 X62.376 Y145.226 E5.85075
G1 X62.496 Y144.349 E5.86578
G1 X62.694 Y143.486 E5.88081
G1 X62.969 Y142.645 E5.89583
G1 X63.319 Y141.832 E5.91086
G1 X63.741 Y141.053 E5.9259
G1 X64.232 Y140.317 E5.94092
G1 X64.787 Y139.627 E5.95595
G1 X65.402 Y138.99 E5.97098
G1 X66.072 Y138.412 E5.986
G1 X66.791 Y137.896 E6.00103
G1 X67.238 Y137.622 E6.00993
G1 X69.283 Y136.442 E6.05001
G1 X67.237 Y135.261 E6.09012
G1 X66.491 Y134.784 E6.10515
G1 X65.791 Y134.242 E6.12018
G1 X65.143 Y133.639 E6.1352
G1 X64.552 Y132.98 E6.15023
G1 X64.023 Y132.27 E6.16526
G1 X63.56 Y131.516 E6.18028
G1 X63.167 Y130.722 E6.19532
G1 X62.847 Y129.897 E6.21035
G1 X62.603 Y129.046 E6.22537
G1 X62.437 Y128.177 E6.24039
G1 X62.35 Y127.296 E6.25542
G1 X62.336 Y126.773 E6.26431
G1 X62.336 Y110.11 E6.54719
G1 X62.376 Y109.226 E6.56221
G1 X62.496 Y108.349 E6.57723
G1 X62.694 Y107.486 E6.59227
G1 X62.969 Y106.645 E6.60729
G1 X63.319 Y105.832 E6.62231
G1 X63.741 Y105.053 E6.63735
G1 X64.232 Y104.317 E6.65237
G1 X64.787 Y103.627 E6.66741
G1 X65.402 Y102.99 E6.68244
G1 X66.072 Y102.412 E6.69746
G1 X66.791 Y101.896 E6.71248
G1 X67.238 Y101.622 E6.72139
G1 X69.282 Y100.442 E6.76145
G1 X67.237 Y99.262 E6.80153
G1 X66.491 Y98.785 E6.81657
G1 X65.791 Y98.243 E6.8316
G1 X65.143 Y97.64 E6.84662
G1 X64.552 Y96.981 E6.86165
G1 X64.023 Y96.271 E6.87668
G1 X63.56 Y95.517 E6.8917
G1 X63.167 Y94.723 E6.90674
G1 X62.847 Y93.898 E6.92177
G1 X62.603 Y93.047 E6.93679
G1 X62.437 Y92.178 E6.95181
G1 X62.35 Y91.297 E6.96684
G1 X62.336 Y90.774 E6.97572
G1 X62.336 Y74.111 E7.2586
G1 X62.376 Y73.227 E7.27363
G1 X62.496 Y72.35 E7.28865
G1 X62.694 Y71.487 E7.30369
G1 X62.969 Y70.646 E7.31871
G1 X63.319 Y69.833 E7.33373
G1 X63.741 Y69.054 E7.34877
G1 X64.232 Y68.318 E7.36379
G1 X64.787 Y67.628 E7.37883
G1 X65.402 Y66.991 E7.39386
G1 X66.072 Y66.413 E7.40888
G1 X66.791 Y65.897 E7.4239
G1 X67.238 Y65.623 E7.43281
G1 X69.283 Y64.443 E7.47289
G1 X67.237 Y63.262 E7.51299
G1 X66.491 Y62.785 E7.52802
G1 X65.791 Y62.243 E7.54305
G1 X65.143 Y61.64 E7.55808
G1 X64.552 Y60.981 E7.57311
G1 X64.023 Y60.271 E7.58814
G1 X63.56 Y59.517 E7.60316
G1 X63.167 Y58.723 E7.6182
G1 X62.847 Y57.898 E7.63322
G1 X62.603 Y57.047 E7.64825
G1 X62.437 Y56.178 E7.66327
G1 X62.35 Y55.297 E7.6783
G1 X62.336 Y54.774 E7.68718
G1 X62.336 Y26.635 E8.16488
G1 X62.376 Y25.751 E8.17991
G1 X62.496 Y24.874 E8.19493
G1 X62.694 Y24.011 E8.20997
G1 X62.969 Y23.17 E8.22499
G0 F2700 X63.369 Y23.244
G1 F1800 X63.719 Y22.451 E8.2397
G1 X64.14 Y21.693 E8.25442
G1 X64.629 Y20.978 E8.26913
G1 X65.182 Y20.31 E8.28385
G1 X65.795 Y19.696 E8.29858
G1 X66.461 Y19.141 E8.3133
G1 X67.175 Y18.651 E8.328
G1 X67.932 Y18.227 E8.34273
G1 X68.725 Y17.876 E8.35745
G1 X69.546 Y17.599 E8.37216
G1 X70.39 Y17.399 E8.38688
G1 X71.248 Y17.277 E8.4016
G1 X72.136 Y17.235 E8.41669
G1 X121.329 Y17.235 E9.25181
G1 X121.976 Y17.143 E9.26291
G1 X122.864 Y17.101 E9.278
G1 X127.864 Y17.101 E9.36288
G1 X128.73 Y17.141 E9.3776
G1 X129.589 Y17.261 E9.39233
G1 X130.433 Y17.459 E9.40704
G1 X131.255 Y17.734 E9.42176
G1 X132.048 Y18.084 E9.43647
G1 X132.806 Y18.505 E9.45119
G1 X133.521 Y18.994 E9.4659
G1 X134.189 Y19.547 E9.48062
G1 X134.803 Y20.16 E9.49535
G1 X135.358 Y20.826 E9.51007
G1 X135.848 Y21.54 E9.52477
G1 X136.272 Y22.297 E9.5395
G1 X136.623 Y23.09 E9.55422
G1 X136.9 Y23.911 E9.56893
G1 X137.1 Y24.755 E9.58365
G1 X137.222 Y25.613 E9.59837
G1 X137.264 Y26.501 E9.61346
G1 X137.264 Y173.499 E12.10897
G1 X137.224 Y174.365 E12.12369
G1 X137.104 Y175.224 E12.13842
G1 X136.906 Y176.068 E12.15313
G1 X136.631 Y176.89 E12.16785
G1 X136.281 Y177.683 E12.18256
G1 X135.86 Y178.441 E12.19728
G1 X135.371 Y179.156 E12.21199
G1 X134.818 Y179.824 E12.22671
G1 X134.205 Y180.438 E12.24144
G1 X133.539 Y180.993 E12.25616
G1 X132.825 Y181.483 E12.27086
G1 X132.068 Y181.907 E12.28559
G1 X131.275 Y182.258 E12.30031
G1 X130.454 Y182.535 E12.31502
G1 X129.61 Y182.735 E12.32975
G1 X128.752 Y182.857 E12.34446
G1 X127.864 Y182.899 E12.35955
G1 X122.864 Y182.899 E12.44443
G1 X121.998 Y182.859 E12.45915
G1 X121.461 Y182.784 E12.46835
G1 X72.136 Y182.784 E13.30572
G1 X71.27 Y182.744 E13.32044
G1 X70.411 Y182.624 E13.33516
G1 X69.567 Y182.426 E13.34988
G1 X68.745 Y182.151 E13.3646
G1 X67.952 Y181.801 E13.37931
G1 X67.194 Y181.38 E13.39403
G1 X66.479 Y180.891 E13.40874
G1 X65.811 Y180.338 E13.42346
G1 X65.197 Y179.725 E13.43819
G1 X64.642 Y179.059 E13.45291
G1 X64.152 Y178.345 E13.46761
G1 X63.728 Y177.588 E13.48234
G1 X63.377 Y176.795 E13.49706
G1 X63.1 Y175.974 E13.51177
G1 X62.9 Y175.13 E13.52649
G1 X62.778 Y174.272 E13.54121
G1 X62.736 Y173.384 E13.5563
G1 X62.736 Y146.11 E14.01932
G1 X62.776 Y145.244 E14.03403
G1 X62.896 Y144.385 E14.04876
G1 X63.094 Y143.541 E14.06347
G1 X63.369 Y142.719 E14.07819
G1 X63.719 Y141.926 E14.0929
G1 X64.14 Y141.168 E14.10762
G1 X64.629 Y140.453 E14.12233
G1 X65.182 Y139.785 E14.13705
G1 X65.795 Y139.171 E14.15178
G1 X66.461 Y138.616 E14.1665
G1 X67.438 Y137.968 E14.1864
G1 X70.083 Y136.441 E14.23825
G1 X67.437 Y134.914 E14.29011
G1 X66.707 Y134.447 E14.30482
G1 X66.023 Y133.914 E14.31955
G1 X65.391 Y133.32 E14.33427
G1 X64.816 Y132.671 E14.34899
G1 X64.304 Y131.971 E14.36371
G1 X63.859 Y131.228 E14.37842
G1 X63.483 Y130.446 E14.39315
G1 X63.182 Y129.633 E14.40786
G1 X62.956 Y128.796 E14.42258
G1 X62.809 Y127.942 E14.43729
G1 X62.736 Y126.773 E14.45718
G1 X62.736 Y110.11 E14.74006
G1 X62.776 Y109.244 E14.75477
G1 X62.896 Y108.385 E14.7695
G1 X63.094 Y107.541 E14.78422
G1 X63.369 Y106.719 E14.79893
G1 X63.719 Y105.926 E14.81365
G1 X64.14 Y105.168 E14.82837
G1 X64.629 Y104.453 E14.84307
G1 X65.182 Y103.785 E14.85779
G1 X65.795 Y103.171 E14.87252
G1 X66.461 Y102.616 E14.88724
G1 X67.438 Y101.968 E14.90714
G1 X70.082 Y100.442 E14.95897
G1 X67.437 Y98.915 E15.01082
G1 X66.707 Y98.448 E15.02553
G1 X66.023 Y97.915 E15.04025
G1 X65.391 Y97.321 E15.05497
G1 X64.816 Y96.672 E15.06969
G1 X64.304 Y95.972 E15.08442
G1 X63.859 Y95.229 E15.09912
G1 X63.483 Y94.447 E15.11385
G1 X63.182 Y93.634 E15.12857
G1 X62.956 Y92.797 E15.14329
G1 X62.809 Y91.943 E15.158
G1 X62.736 Y90.774 E15.17788
G1 X62.736 Y74.111 E15.46076
G1 X62.776 Y73.245 E15.47548
G1 X62.896 Y72.386 E15.4902
G1 X63.094 Y71.542 E15.50492
G1 X63.369 Y70.72 E15.51964
G1 X63.719 Y69.927 E15.53435
G1 X64.14 Y69.169 E15.54907
G1 X64.629 Y68.454 E15.56378
G1 X65.182 Y67.786 E15.5785
G1 X65.795 Y67.172 E15.59323
G1 X66.461 Y66.617 E15.60795
G1 X67.438 Y65.969 E15.62785
G1 X70.083 Y64.442 E15.6797
G1 X67.437 Y62.915 E15.73156
G1 X66.707 Y62.448 E15.74627
G1 X66.023 Y61.915 E15.76099
G1 X65.391 Y61.321 E15.77572
G1 X64.816 Y60.672 E15.79044
G1 X64.304 Y59.972 E15.80516
G1 X63.859 Y59.229 E15.81986
G1 X63.483 Y58.447 E15.83459
G1 X63.182 Y57.634 E15.84931
G1 X62.956 Y56.797 E15.86403
G1 X62.809 Y55.943 E15.87874
G1 X62.736 Y54.774 E15.89862
G1 X62.736 Y26.635 E16.37633
G1 X62.776 Y25.769 E16.39104
G1 X62.896 Y24.91 E16.40577
G1 X63.094 Y24.066 E16.42049
G1 X63.369 Y23.244 E16.4352
G0 F2700 X63.769 Y23.32
G1 F1800 X64.118 Y22.547 E16.4496
G1 X64.538 Y21.811 E16.46399
G1 X65.026 Y21.117 E16.47839
G1 X65.577 Y20.472 E16.49279
G1 X66.187 Y19.882 E16.5072
G1 X66.849 Y19.352 E16.52159
G1 X67.558 Y18.886 E16.536
G1 X68.308 Y18.49 E16.55039
G1 X69.092 Y18.165 E16.5648
G1 X69.903 Y17.916 E16.57921
G1 X70.734 Y17.745 E16.59361
G1 X71.577 Y17.652 E16.60801
G1 X72.136 Y17.635 E16.6175
G1 X121.345 Y17.635 E17.4529
G1 X121.462 Y17.611 E17.45493
G1 X122.305 Y17.518 E17.46932
G1 X122.864 Y17.501 E17.47882
G1 X127.864 Y17.501 E17.5637
G1 X128.711 Y17.541 E17.5781
G1 X129.551 Y17.661 E17.5925
G1 X130.376 Y17.859 E17.6069
G1 X131.179 Y18.134 E17.62131
G1 X131.952 Y18.483 E17.63571
G1 X132.688 Y18.903 E17.6501
G1 X133.382 Y19.391 E17.6645
G1 X134.027 Y19.942 E17.6789
G1 X134.617 Y20.552 E17.69331
G1 X135.147 Y21.214 E17.70771
G1 X135.613 Y21.923 E17.72211
G1 X136.009 Y22.673 E17.73651
G1 X136.334 Y23.457 E17.75092
G1 X136.583 Y24.268 E17.76532
G1 X136.754 Y25.099 E17.77972
G1 X136.847 Y25.942 E17.79412
G1 X136.864 Y26.501 E17.80361
G1 X136.864 Y173.499 E20.29913
G1 X136.824 Y174.346 E20.31352
G1 X136.704 Y175.186 E20.32793
G1 X136.506 Y176.011 E20.34233
G1 X136.231 Y176.814 E20.35674
G1 X135.882 Y177.587 E20.37114
G1 X135.462 Y178.323 E20.38553
G1 X134.974 Y179.017 E20.39993
G1 X134.423 Y179.662 E20.41433
G1 X133.813 Y180.252 E20.42874
G1 X133.151 Y180.782 E20.44313
G1 X132.442 Y181.248 E20.45754
G1 X131.692 Y181.644 E20.47194
G1 X130.908 Y181.969 E20.48634
G1 X130.097 Y182.218 E20.50075
G1 X129.266 Y182.389 E20.51515
G1 X128.423 Y182.482 E20.52955
G1 X127.864 Y182.499 E20.53904
G1 X122.864 Y182.499 E20.62392
G1 X122.017 Y182.459 E20.63832
G1 X121.492 Y182.384 E20.64732
G1 X72.136 Y182.384 E21.48522
G1 X71.289 Y182.344 E21.49961
G1 X70.449 Y182.224 E21.51402
G1 X69.624 Y182.026 E21.52842
G1 X68.821 Y181.751 E21.54283
G1 X68.048 Y181.402 E21.55723
G1 X67.312 Y180.982 E21.57161
G1 X66.618 Y180.494 E21.58602
G1 X65.973 Y179.943 E21.60042
G1 X65.383 Y179.333 E21.61482
G1 X64.853 Y178.671 E21.62922
G1 X64.387 Y177.962 E21.64362
G1 X63.991 Y177.212 E21.65802
G1 X63.666 Y176.428 E21.67243
G1 X63.417 Y175.617 E21.68683
G1 X63.246 Y174.786 E21.70124
G1 X63.153 Y173.943 E21.71563
G1 X63.136 Y173.384 E21.72513
G1 X63.136 Y146.11 E22.18815
G1 X63.176 Y145.263 E22.20254
G1 X63.296 Y144.423 E22.21695
G1 X63.494 Y143.598 E22.23135
G1 X63.769 Y142.795 E22.24576
G1 X64.118 Y142.022 E22.26016
G1 X64.538 Y141.286 E22.27454
G1 X65.026 Y140.592 E22.28895
G1 X65.577 Y139.947 E22.30335
G1 X66.187 Y139.357 E22.31775
G1 X66.849 Y138.827 E22.33215
G1 X67.637 Y138.315 E22.3481
G1 X70.883 Y136.442 E22.41173
G1 X67.637 Y134.568 E22.47536
G1 X66.923 Y134.109 E22.48977
G1 X66.255 Y133.586 E22.50417
G1 X65.64 Y133.002 E22.51857
G1 X65.082 Y132.363 E22.53297
G1 X64.587 Y131.674 E22.54737
G1 X64.16 Y130.941 E22.56177
G1 X63.802 Y130.172 E22.57617
G1 X63.52 Y129.372 E22.59057
G1 X63.313 Y128.549 E22.60498
G1 X63.185 Y127.711 E22.61937
G1 X63.136 Y126.773 E22.63532
G1 X63.136 Y110.11 E22.9182
G1 X63.176 Y109.263 E22.93259
G1 X63.296 Y108.423 E22.947
G1 X63.494 Y107.598 E22.9614
G1 X63.769 Y106.795 E22.97581
G1 X64.118 Y106.022 E22.99021
G1 X64.538 Y105.286 E23.00459
G1 X65.026 Y104.592 E23.019
G1 X65.577 Y103.947 E23.0334
G1 X66.187 Y103.357 E23.0478
G1 X66.849 Y102.827 E23.0622
G1 X67.637 Y102.315 E23.07815
G1 X70.882 Y100.442 E23.14176
G1 X67.637 Y98.569 E23.20537
G1 X66.923 Y98.11 E23.21978
G1 X66.255 Y97.587 E23.23418
G1 X65.64 Y97.003 E23.24858
G1 X65.082 Y96.364 E23.26298
G1 X64.587 Y95.675 E23.27738
G1 X64.16 Y94.942 E23.29178
G1 X63.802 Y94.173 E23.30618
G1 X63.52 Y93.373 E23.32058
G1 X63.313 Y92.55 E23.33499
G1 X63.185 Y91.712 E23.34938
G1 X63.136 Y90.774 E23.36533
G1 X63.136 Y74.111 E23.64821
G1 X63.176 Y73.264 E23.6626
G1 X63.296 Y72.424 E23.67701
G1 X63.494 Y71.599 E23.69141
G1 X63.769 Y70.796 E23.70582
G1 X64.118 Y70.023 E23.72022
G1 X64.538 Y69.287 E23.73461
G1 X65.026 Y68.593 E23.74901
G1 X65.577 Y67.948 E23.76341
G1 X66.187 Y67.358 E23.77782
G1 X66.849 Y66.828 E23.79221
G1 X67.637 Y66.316 E23.80817
G1 X70.883 Y64.443 E23.87179
G1 X67.637 Y62.569 E23.93542
G1 X66.923 Y62.11 E23.94983
G1 X66.255 Y61.587 E23.96423
G1 X65.64 Y61.003 E23.97863
G1 X65.082 Y60.364 E23.99303
G1 X64.587 Y59.675 E24.00743
G1 X64.16 Y58.942 E24.02183
G1 X63.802 Y58.173 E24.03623
G1 X63.52 Y57.373 E24.05063
G1 X63.313 Y56.55 E24.06504
G1 X63.185 Y55.712 E24.07943
G1 X63.136 Y54.774 E24.09538
G1 X63.136 Y26.635 E24.57308
G1 X63.176 Y25.788 E24.58748
G1 X63.296 Y24.948 E24.60188
G1 X63.494 Y24.123 E24.61628
G1 X63.769 Y23.32 E24.63069
G0 F2700 X64.168 Y23.399
G1 F1800 X64.517 Y22.646 E24.64478
G1 X64.937 Y21.931 E24.65886
G1 X65.423 Y21.26 E24.67293
G1 X65.972 Y20.638 E24.68701
G1 X66.578 Y20.072 E24.70109
G1 X67.236 Y19.567 E24.71517
G1 X67.939 Y19.128 E24.72924
G1 X68.682 Y18.759 E24.74332
G1 X69.457 Y18.463 E24.75741
G1 X70.256 Y18.243 E24.77148
G1 X71.073 Y18.101 E24.78555
G1 X72.136 Y18.035 E24.80363
G1 X121.41 Y18.035 E25.64014
G1 X121.801 Y17.967 E25.64687
G1 X122.864 Y17.901 E25.66495
G1 X127.864 Y17.901 E25.74984
G1 X128.692 Y17.941 E25.76391
G1 X129.513 Y18.061 E25.778
G1 X130.318 Y18.259 E25.79207
G1 X131.1 Y18.533 E25.80614
G1 X131.853 Y18.882 E25.82023
G1 X132.568 Y19.302 E25.8343
G1 X133.239 Y19.788 E25.84837
G1 X133.861 Y20.337 E25.86245
G1 X134.427 Y20.943 E25.87653
G1 X134.932 Y21.601 E25.89061
G1 X135.371 Y22.304 E25.90468
G1 X135.74 Y23.047 E25.91876
G1 X136.036 Y23.822 E25.93285
G1 X136.256 Y24.621 E25.94692
G1 X136.398 Y25.438 E25.96099
G1 X136.464 Y26.501 E25.97908
G1 X136.464 Y173.499 E28.47459
G1 X136.424 Y174.327 E28.48866
G1 X136.304 Y175.148 E28.50275
G1 X136.106 Y175.953 E28.51682
G1 X135.832 Y176.735 E28.53089
G1 X135.483 Y177.488 E28.54498
G1 X135.063 Y178.203 E28.55906
G1 X134.577 Y178.874 E28.57312
G1 X134.028 Y179.496 E28.58721
G1 X133.422 Y180.062 E28.60128
G1 X132.764 Y180.567 E28.61537
G1 X132.061 Y181.006 E28.62944
G1 X131.318 Y181.375 E28.64352
G1 X130.543 Y181.671 E28.6576
G1 X129.744 Y181.891 E28.67167
G1 X128.927 Y182.033 E28.68575
G1 X127.864 Y182.099 E28.70383
G1 X122.864 Y182.099 E28.78871
G1 X122.036 Y182.059 E28.80279
G1 X121.523 Y181.984 E28.81159
G1 X72.136 Y181.984 E29.65001
G1 X71.308 Y181.944 E29.66408
G1 X70.487 Y181.824 E29.67817
G1 X69.682 Y181.626 E29.69224
G1 X68.9 Y181.352 E29.70631
G1 X68.147 Y181.003 E29.7204
G1 X67.432 Y180.583 E29.73447
