;FLAVOR:RepRap
;TIME:9568
;Generated with Cura_SteamEngine 2.3.1
M190 S60
M104 S210
M109 S210
G21 ;metric values
G90 ;absolute positioning
M82 ;set extruder to absolute mode
M107 ;start with the fan off
G28 X0 Y0 ;move X/Y to min endstops
G28 Z0 ;move Z to min endstops
G1 Z15.0 F9000 ;move the platform down 15mm
G92 E0 ;zero the extruded length
G1 F200 E3 ;extrude 3mm of feed stock
G92 E0 ;zero the extruded length again
G1 F9000
;Put printing message on LCD screen
M117 Printing...
;LAYER_COUNT:201
;LAYER:0
M107
G1 F1500 E-6.5
G0 F2700 X61.835 Y23.15 Z.3
;TYPE:SKIRT
G1 F1500 E0
G1 F1800 X62.185 Y22.337 E0.01503
G1 X62.607 Y21.558 E0.03007
G1 X63.098 Y20.822 E0.04509
G1 X63.653 Y20.132 E0.06012
G1 X64.268 Y19.495 E0.07515
G1 X64.938 Y18.917 E0.09017
G1 X65.657 Y18.401 E0.1052
G1 X66.42 Y17.952 E0.12023
G1 X67.221 Y17.574 E0.13526
G1 X68.052 Y17.27 E0.15029
G1 X68.907 Y17.042 E0.16531
G1 X69.78 Y16.892 E0.18034
G1 X71.002 Y16.815 E0.20113
G1 X73.502 Y16.815 E0.24357
G1 X74.386 Y16.855 E0.2586
G1 X74.671 Y16.894 E0.26348
G1 X120.438 Y16.894 E1.04044
G1 X120.776 Y16.836 E1.04627
G1 X121.998 Y16.759 E1.06705
G1 X126.998 Y16.759 E1.15193
G1 X127.882 Y16.799 E1.16696
G1 X128.759 Y16.919 E1.18198
G1 X129.622 Y17.117 E1.19702
G1 X130.463 Y17.392 E1.21204
G1 X131.276 Y17.742 E1.22706
G1 X132.055 Y18.164 E1.2421
G1 X132.791 Y18.655 E1.25712
G1 X133.481 Y19.21 E1.27216
G1 X134.118 Y19.825 E1.28719
G1 X134.696 Y20.495 E1.30221
G1 X135.212 Y21.214 E1.31723
G1 X135.661 Y21.977 E1.33226
G1 X136.039 Y22.778 E1.3473
G1 X136.343 Y23.609 E1.36232
G1 X136.571 Y24.464 E1.37734
G1 X136.721 Y25.337 E1.39238
G1 X136.798 Y26.559 E1.41317
G1 X136.798 Y79.358 E2.30951
G1 X137.212 Y79.935 E2.32157
G1 X137.661 Y80.698 E2.3366
G1 X138.039 Y81.499 E2.35163
G1 X138.343 Y82.33 E2.36666
G1 X138.571 Y83.185 E2.38168
G1 X138.721 Y84.058 E2.39672
G1 X138.798 Y85.28 E2.4175
G1 X138.798 Y115.279 E2.92678
G1 X138.758 Y116.163 E2.9418
G1 X138.638 Y117.04 E2.95683
G1 X138.44 Y117.903 E2.97186
G1 X138.165 Y118.744 E2.98688
G1 X137.815 Y119.557 E3.00191
G1 X137.393 Y120.336 E3.01695
G1 X136.902 Y121.072 E3.03197
G1 X136.798 Y121.201 E3.03478
G1 X136.798 Y173.441 E3.92164
G1 X136.758 Y174.325 E3.93666
G1 X136.638 Y175.202 E3.95169
G1 X136.44 Y176.065 E3.96672
G1 X136.165 Y176.906 E3.98174
G1 X135.815 Y177.719 E3.99677
G1 X135.393 Y178.498 E4.01181
G1 X134.902 Y179.234 E4.02683
G1 X134.347 Y179.924 E4.04186
G1 X133.732 Y180.561 E4.05689
G1 X133.062 Y181.139 E4.07191
G1 X132.343 Y181.655 E4.08694
G1 X131.58 Y182.104 E4.10197
G1 X130.779 Y182.482 E4.117
G1 X129.948 Y182.786 E4.13202
G1 X129.093 Y183.014 E4.14705
G1 X128.22 Y183.164 E4.16208
G1 X126.998 Y183.241 E4.18287
G1 X121.998 Y183.241 E4.26775
G1 X121.114 Y183.201 E4.28278
G1 X120.42 Y183.106 E4.29467
G1 X74.736 Y183.106 E5.07022
G1 X74.724 Y183.108 E5.07043
G1 X73.502 Y183.185 E5.09122
G1 X71.002 Y183.185 E5.13366
G1 X70.118 Y183.145 E5.14868
G1 X69.241 Y183.025 E5.16371
G1 X68.378 Y182.827 E5.17874
G1 X67.537 Y182.552 E5.19376
G1 X66.724 Y182.202 E5.20879
G1 X65.945 Y181.78 E5.22383
G1 X65.209 Y181.289 E5.23885
G1 X64.519 Y180.734 E5.25388
G1 X63.882 Y180.119 E5.26891
G1 X63.304 Y179.449 E5.28393
G1 X62.788 Y178.73 E5.29896
G1 X62.339 Y177.967 E5.31399
G1 X61.961 Y177.166 E5.32902
G1 X61.657 Y176.335 E5.34404
G1 X61.429 Y175.48 E5.35907
G1 X61.279 Y174.607 E5.3741
G1 X61.202 Y173.385 E5.39489
G1 X61.202 Y26.615 E7.88654
G1 X61.242 Y25.731 E7.90156
G1 X61.362 Y24.854 E7.91659
G1 X61.56 Y23.991 E7.93162
G1 X61.835 Y23.15 E7.94664
G0 F2700 X62.235 Y23.224
G1 F1800 X62.585 Y22.431 E7.96135
G1 X63.006 Y21.673 E7.97607
G1 X63.495 Y20.958 E7.99078
G1 X64.048 Y20.29 E8.0055
G1 X64.661 Y19.676 E8.02023
G1 X65.327 Y19.121 E8.03495
G1 X66.041 Y18.631 E8.04965
G1 X66.798 Y18.207 E8.06438
G1 X67.591 Y17.856 E8.0791
G1 X68.412 Y17.579 E8.09381
G1 X69.256 Y17.379 E8.10854
G1 X70.114 Y17.257 E8.12325
G1 X71.002 Y17.215 E8.13834
G1 X73.502 Y17.215 E8.18078
G1 X74.368 Y17.255 E8.1955
G1 X74.647 Y17.294 E8.20028
G1 X120.456 Y17.294 E8.97796
G1 X121.11 Y17.201 E8.98917
G1 X121.998 Y17.159 E9.00427
G1 X126.998 Y17.159 E9.08915
G1 X127.864 Y17.199 E9.10387
G1 X128.723 Y17.319 E9.11859
G1 X129.567 Y17.517 E9.13331
G1 X130.389 Y17.792 E9.14802
G1 X131.182 Y18.142 E9.16274
G1 X131.94 Y18.563 E9.17746
G1 X132.655 Y19.052 E9.19216
G1 X133.323 Y19.605 E9.20688
G1 X133.937 Y20.218 E9.22161
G1 X134.492 Y20.884 E9.23633
G1 X134.982 Y21.598 E9.25103
G1 X135.406 Y22.355 E9.26576
G1 X135.757 Y23.148 E9.28048
G1 X136.034 Y23.969 E9.29519
G1 X136.234 Y24.813 E9.30992
G1 X136.356 Y25.671 E9.32463
G1 X136.398 Y26.559 E9.33972
G1 X136.398 Y79.492 E10.23834
G1 X136.492 Y79.605 E10.24084
G1 X136.982 Y80.319 E10.25554
G1 X137.406 Y81.076 E10.27027
G1 X137.757 Y81.869 E10.28499
G1 X138.034 Y82.69 E10.2997
G1 X138.234 Y83.534 E10.31442
G1 X138.356 Y84.392 E10.32914
G1 X138.398 Y85.28 E10.34423
G1 X138.398 Y115.279 E10.85351
G1 X138.358 Y116.145 E10.86823
G1 X138.238 Y117.004 E10.88295
G1 X138.04 Y117.848 E10.89767
G1 X137.765 Y118.67 E10.91238
G1 X137.415 Y119.463 E10.9271
G1 X136.994 Y120.221 E10.94182
G1 X136.505 Y120.936 E10.95652
G1 X136.398 Y121.065 E10.95937
G1 X136.398 Y173.441 E11.84853
G1 X136.358 Y174.307 E11.86325
G1 X136.238 Y175.166 E11.87797
G1 X136.04 Y176.01 E11.89269
G1 X135.765 Y176.832 E11.9074
G1 X135.415 Y177.625 E11.92212
G1 X134.994 Y178.383 E11.93684
G1 X134.505 Y179.098 E11.95154
G1 X133.952 Y179.766 E11.96627
G1 X133.339 Y180.38 E11.981
G1 X132.673 Y180.935 E11.99571
G1 X131.959 Y181.425 E12.01041
G1 X131.202 Y181.849 E12.02514
G1 X130.409 Y182.2 E12.03987
G1 X129.588 Y182.477 E12.05458
G1 X128.744 Y182.677 E12.0693
G1 X127.886 Y182.799 E12.08401
G1 X126.998 Y182.841 E12.09911
G1 X121.998 Y182.841 E12.18399
G1 X121.132 Y182.801 E12.19871
G1 X120.452 Y182.706 E12.21036
G1 X74.65 Y182.706 E12.98792
G1 X74.39 Y182.743 E12.99238
G1 X73.502 Y182.785 E13.00747
G1 X71.002 Y182.785 E13.04991
G1 X70.136 Y182.745 E13.06463
G1 X69.277 Y182.625 E13.07935
G1 X68.433 Y182.427 E13.09407
G1 X67.611 Y182.152 E13.10879
G1 X66.818 Y181.802 E13.1235
G1 X66.06 Y181.381 E13.13822
G1 X65.345 Y180.892 E13.15293
G1 X64.677 Y180.339 E13.16765
G1 X64.063 Y179.726 E13.18238
G1 X63.508 Y179.06 E13.1971
G1 X63.018 Y178.346 E13.2118
G1 X62.594 Y177.589 E13.22653
G1 X62.243 Y176.796 E13.24125
G1 X61.966 Y175.975 E13.25596
G1 X61.766 Y175.131 E13.27068
G1 X61.644 Y174.273 E13.2854
G1 X61.602 Y173.385 E13.30049
G1 X61.602 Y26.615 E15.79213
G1 X61.642 Y25.749 E15.80685
G1 X61.762 Y24.89 E15.82157
G1 X61.96 Y24.046 E15.83629
G1 X62.235 Y23.224 E15.85101
G0 F2700 X62.635 Y23.3
G1 F1800 X62.984 Y22.527 E15.8654
G1 X63.404 Y21.791 E15.87979
G1 X63.892 Y21.097 E15.89419
G1 X64.443 Y20.452 E15.90859
G1 X65.053 Y19.862 E15.923
G1 X65.715 Y19.332 E15.9374
G1 X66.424 Y18.866 E15.9518
G1 X67.174 Y18.47 E15.9662
G1 X67.958 Y18.145 E15.98061
G1 X68.769 Y17.896 E15.99501
G1 X69.6 Y17.725 E16.00941
G1 X70.443 Y17.632 E16.02381
G1 X71.002 Y17.615 E16.03331
G1 X73.502 Y17.615 E16.07575
G1 X74.349 Y17.655 E16.09014
G1 X74.622 Y17.694 E16.09482
G1 X120.475 Y17.694 E16.87325
G1 X120.596 Y17.669 E16.87535
G1 X121.439 Y17.576 E16.88974
G1 X121.998 Y17.559 E16.89924
G1 X126.998 Y17.559 E16.98412
G1 X127.845 Y17.599 E16.99852
G1 X128.685 Y17.719 E17.01292
G1 X129.51 Y17.917 E17.02732
G1 X130.313 Y18.192 E17.04173
G1 X131.086 Y18.541 E17.05613
G1 X131.822 Y18.961 E17.07052
G1 X132.516 Y19.449 E17.08492
G1 X133.161 Y20 E17.09932
G1 X133.751 Y20.61 E17.11373
G1 X134.281 Y21.272 E17.12813
G1 X134.747 Y21.981 E17.14253
G1 X135.143 Y22.731 E17.15693
G1 X135.468 Y23.515 E17.17134
G1 X135.717 Y24.326 E17.18574
G1 X135.888 Y25.157 E17.20014
G1 X135.981 Y26 E17.21454
G1 X135.998 Y26.559 E17.22403
G1 X135.998 Y79.64 E18.12516
G1 X136.281 Y79.993 E18.13285
G1 X136.747 Y80.702 E18.14725
G1 X137.143 Y81.452 E18.16165
G1 X137.468 Y82.236 E18.17605
G1 X137.717 Y83.047 E18.19046
G1 X137.888 Y83.878 E18.20486
G1 X137.981 Y84.721 E18.21926
G1 X137.998 Y85.28 E18.22875
G1 X137.998 Y115.279 E18.73803
G1 X137.958 Y116.126 E18.75243
G1 X137.838 Y116.966 E18.76683
G1 X137.64 Y117.791 E18.78123
G1 X137.365 Y118.594 E18.79564
G1 X137.016 Y119.367 E18.81004
G1 X136.596 Y120.103 E18.82443
G1 X136.108 Y120.797 E18.83883
G1 X135.998 Y120.926 E18.84171
G1 X135.998 Y173.441 E19.73323
G1 X135.958 Y174.288 E19.74763
G1 X135.838 Y175.128 E19.76203
G1 X135.64 Y175.953 E19.77644
G1 X135.365 Y176.756 E19.79084
G1 X135.016 Y177.529 E19.80524
G1 X134.596 Y178.265 E19.81963
G1 X134.108 Y178.959 E19.83403
G1 X133.557 Y179.604 E19.84843
G1 X132.947 Y180.194 E19.86284
G1 X132.285 Y180.724 E19.87724
G1 X131.576 Y181.19 E19.89164
G1 X130.826 Y181.586 E19.90604
G1 X130.042 Y181.911 E19.92045
G1 X129.231 Y182.16 E19.93485
G1 X128.4 Y182.331 E19.94925
G1 X127.557 Y182.424 E19.96365
G1 X126.998 Y182.441 E19.97314
G1 X121.998 Y182.441 E20.05803
G1 X121.151 Y182.401 E20.07242
G1 X120.486 Y182.306 E20.08383
G1 X74.623 Y182.306 E20.86242
G1 X74.061 Y182.368 E20.87202
G1 X73.502 Y182.385 E20.88151
G1 X71.002 Y182.385 E20.92395
G1 X70.155 Y182.345 E20.93835
G1 X69.315 Y182.225 E20.95275
G1 X68.49 Y182.027 E20.96716
G1 X67.687 Y181.752 E20.98157
G1 X66.914 Y181.403 E20.99597
G1 X66.178 Y180.983 E21.01035
G1 X65.484 Y180.495 E21.02475
G1 X64.839 Y179.944 E21.03916
G1 X64.249 Y179.334 E21.05356
G1 X63.719 Y178.672 E21.06796
G1 X63.253 Y177.963 E21.08236
G1 X62.857 Y177.213 E21.09676
G1 X62.532 Y176.429 E21.11117
G1 X62.283 Y175.618 E21.12557
G1 X62.112 Y174.787 E21.13997
G1 X62.019 Y173.944 E21.15437
G1 X62.002 Y173.385 E21.16387
G1 X62.002 Y26.615 E23.65551
G1 X62.042 Y25.768 E23.66991
G1 X62.162 Y24.928 E23.68431
G1 X62.36 Y24.103 E23.69872
G1 X62.635 Y23.3 E23.71312
G0 F2700 X63.034 Y23.379
G1 F1800 X63.383 Y22.626 E23.72721
G1 X63.803 Y21.911 E23.74129
G1 X64.289 Y21.24 E23.75536
G1 X64.838 Y20.618 E23.76944
G1 X65.444 Y20.052 E23.78352
G1 X66.102 Y19.547 E23.7976
G1 X66.805 Y19.108 E23.81167
G1 X67.548 Y18.739 E23.82575
G1 X68.323 Y18.443 E23.83984
G1 X69.122 Y18.223 E23.85391
G1 X69.939 Y18.081 E23.86798
G1 X71.002 Y18.015 E23.88606
G1 X73.502 Y18.015 E23.92851
G1 X74.33 Y18.055 E23.94258
G1 X74.597 Y18.094 E23.94716
G1 X120.538 Y18.094 E24.72708
G1 X120.935 Y18.025 E24.73392
G1 X121.998 Y17.959 E24.752
G1 X126.998 Y17.959 E24.83688
G1 X127.826 Y17.999 E24.85096
G1 X128.647 Y18.119 E24.86504
G1 X129.452 Y18.317 E24.87911
G1 X130.234 Y18.591 E24.89318
G1 X130.987 Y18.94 E24.90727
G1 X131.702 Y19.36 E24.92135
G1 X132.373 Y19.846 E24.93541
G1 X132.995 Y20.395 E24.9495
G1 X133.561 Y21.001 E24.96358
G1 X134.066 Y21.659 E24.97766
G1 X134.505 Y22.362 E24.99173
G1 X134.874 Y23.105 E25.00581
G1 X135.17 Y23.88 E25.01989
G1 X135.39 Y24.679 E25.03396
G1 X135.532 Y25.496 E25.04804
G1 X135.598 Y26.559 E25.06612
G1 X135.598 Y79.77 E25.96946
G1 X136.066 Y80.38 E25.98251
G1 X136.505 Y81.083 E25.99658
G1 X136.874 Y81.826 E26.01067
G1 X137.17 Y82.601 E26.02475
G1 X137.39 Y83.4 E26.03882
G1 X137.532 Y84.217 E26.0529
G1 X137.598 Y85.28 E26.07098
G1 X137.598 Y115.279 E26.58026
G1 X137.558 Y116.107 E26.59433
G1 X137.438 Y116.928 E26.60841
G1 X137.24 Y117.733 E26.62249
G1 X136.966 Y118.515 E26.63656
G1 X136.617 Y119.268 E26.65064
G1 X136.197 Y119.983 E26.66472
G1 X135.711 Y120.654 E26.67879
G1 X135.598 Y120.782 E26.68169
G1 X135.598 Y173.441 E27.57565
G1 X135.558 Y174.269 E27.58973
G1 X135.438 Y175.09 E27.60381
G1 X135.24 Y175.895 E27.61789
G1 X134.966 Y176.677 E27.63195
G1 X134.617 Y177.43 E27.64604
G1 X134.197 Y178.145 E27.66012
G1 X133.711 Y178.816 E27.67418
G1 X133.162 Y179.438 E27.68827
G1 X132.556 Y180.004 E27.70235
G1 X131.898 Y180.509 E27.71643
G1 X131.195 Y180.948 E27.7305
G1 X130.452 Y181.317 E27.74458
G1 X129.677 Y181.613 E27.75867
G1 X128.878 Y181.833 E27.77273
G1 X128.061 Y181.975 E27.78681
G1 X126.998 Y182.041 E27.80489
G1 X121.998 Y182.041 E27.88978
G1 X121.17 Y182.001 E27.90385
G1 X120.52 Y181.906 E27.915
G1 X74.64 Y181.906 E28.69388
G1 X74.565 Y181.919 E28.69518
G1 X73.502 Y181.985 E28.71326
G1 X71.002 Y181.985 E28.7557
G1 X70.174 Y181.945 E28.76977
G1 X69.353 Y181.825 E28.78386
G1 X68.548 Y181.627 E28.79793
G1 X67.766 Y181.353 E28.812
G1 X67.013 Y181.004 E28.82609
G1 X66.298 Y180.584 E28.84016
G1 X65.627 Y180.098 E28.85423
G1 X65.005 Y179.549 E28.86831
G1 X64.439 Y178.943 E28.88239
G1 X63.934 Y178.285 E28.89647
G1 X63.495 Y177.582 E28.91054
G1 X63.126 Y176.839 E28.92463
G1 X62.83 Y176.064 E28.93871
G1 X62.61 Y175.265 E28.95278
G1 X62.468 Y174.448 E28.96686
G1 X62.402 Y173.385 E28.98494
G1 X62.402 Y26.615 E31.47658
G1 X62.442 Y25.787 E31.49065
G1 X62.562 Y24.966 E31.50474
G1 X62.76 Y24.161 E31.51881
G1 X63.034 Y23.379 E31.53288
G0 F2700 X63.434 Y23.459
G1 F1800 X63.782 Y22.728 E31.54663
G1 X64.201 Y22.034 E31.56039
G1 X64.686 Y21.386 E31.57413
G1 X65.232 Y20.789 E31.58786
G1 X65.835 Y20.248 E31.60162
G1 X66.488 Y19.769 E31.61536
G1 X67.185 Y19.358 E31.6291
G1 X67.919 Y19.016 E31.64285
G1 X68.684 Y18.75 E31.6566
G1 X69.471 Y18.559 E31.67035
G1 X70.273 Y18.447 E31.68409
G1 X71.002 Y18.415 E31.69648
G1 X73.502 Y18.415 E31.73892
G1 X74.311 Y18.455 E31.75267
G1 X74.571 Y18.494 E31.75714
G1 X120.531 Y18.494 E32.53738
G1 X121.269 Y18.391 E32.55003
G1 X121.998 Y18.359 E32.56242
G1 X126.998 Y18.359 E32.6473
G1 X127.807 Y18.399 E32.66105
G1 X128.608 Y18.519 E32.6748
G1 X129.393 Y18.716 E32.68854
G1 X130.154 Y18.991 E32.70228
G1 X130.885 Y19.339 E32.71602
G1 X131.579 Y19.758 E32.72978
G1 X132.227 Y20.243 E32.74352
G1 X132.824 Y20.789 E32.75726
G1 X133.365 Y21.392 E32.77101
G1 X133.844 Y22.045 E32.78476
G1 X134.255 Y22.742 E32.7985
G1 X134.597 Y23.476 E32.81224
G1 X134.863 Y24.241 E32.82599
G1 X135.054 Y25.028 E32.83974
G1 X135.166 Y25.83 E32.85349
G1 X135.198 Y26.559 E32.86588
G1 X135.198 Y79.927 E33.77188
G1 X135.365 Y80.113 E33.77612
G1 X135.844 Y80.766 E33.78987
G1 X136.255 Y81.463 E33.80361
G1 X136.597 Y82.197 E33.81735
G1 X136.863 Y82.962 E33.8311
G1 X137.054 Y83.749 E33.84485
G1 X137.166 Y84.551 E33.8586
G1 X137.198 Y85.28 E33.87099
G1 X137.198 Y115.279 E34.38027
G1 X137.158 Y116.088 E34.39402
G1 X137.038 Y116.889 E34.40777
G1 X136.841 Y117.674 E34.42151
G1 X136.566 Y118.435 E34.43524
G1 X136.218 Y119.166 E34.44899
G1 X135.799 Y119.86 E34.46275
G1 X135.314 Y120.508 E34.47649
G1 X135.198 Y120.635 E34.47941
G1 X135.198 Y173.441 E35.37587
G1 X135.158 Y174.25 E35.38963
G1 X135.038 Y175.051 E35.40338
G1 X134.841 Y175.836 E35.41711
G1 X134.566 Y176.597 E35.43085
G1 X134.218 Y177.328 E35.4446
G1 X133.799 Y178.022 E35.45836
G1 X133.314 Y178.67 E35.4721
G1 X132.768 Y179.267 E35.48583
G1 X132.165 Y179.808 E35.49959
G1 X131.512 Y180.287 E35.51334
G1 X130.815 Y180.698 E35.52707
G1 X130.081 Y181.04 E35.54082
G1 X129.316 Y181.306 E35.55457
G1 X128.529 Y181.497 E35.56832
G1 X127.727 Y181.609 E35.58206
G1 X126.998 Y181.641 E35.59445
G1 X121.998 Y181.641 E35.67933
G1 X121.189 Y181.601 E35.69309
G1 X120.555 Y181.506 E35.70397
G1 X74.568 Y181.506 E36.48467
G1 X74.231 Y181.553 E36.49044
G1 X73.502 Y181.585 E36.50283
G1 X71.002 Y181.585 E36.54527
G1 X70.193 Y181.545 E36.55902
G1 X69.392 Y181.425 E36.57277
G1 X68.607 Y181.228 E36.58651
G1 X67.846 Y180.953 E36.60025
G1 X67.115 Y180.605 E36.614
G1 X66.421 Y180.186 E36.62776
G1 X65.773 Y179.701 E36.6415
G1 X65.176 Y179.155 E36.65523
G1 X64.635 Y178.552 E36.66899
G1 X64.156 Y177.899 E36.68273
G1 X63.745 Y177.202 E36.69647
G1 X63.403 Y176.468 E36.71022
G1 X63.137 Y175.703 E36.72397
G1 X62.946 Y174.916 E36.73772
G1 X62.834 Y174.114 E36.75146
G1 X62.802 Y173.385 E36.76385
G1 X62.802 Y26.615 E39.2555
G1 X62.842 Y25.806 E39.26925
G1 X62.962 Y25.005 E39.283
G1 X63.159 Y24.22 E39.29674
G1 X63.434 Y23.459 E39.31047
G0 F2700 X63.833 Y23.541
G1 F1800 X64.181 Y22.832 E39.32388
G1 X64.599 Y22.161 E39.3373
G1 X65.082 Y21.537 E39.3507
G1 X65.625 Y20.964 E39.3641
G1 X66.224 Y20.449 E39.37751
G1 X66.872 Y19.998 E39.39091
G1 X67.563 Y19.614 E39.40433
G1 X68.288 Y19.302 E39.41773
G1 X69.041 Y19.065 E39.43113
G1 X69.815 Y18.906 E39.44455
G1 X70.6 Y18.825 E39.45795
G1 X71.002 Y18.815 E39.46477
G1 X73.502 Y18.815 E39.50721
G1 X74.291 Y18.855 E39.52063
G1 X74.547 Y18.894 E39.52502
G1 X120.597 Y18.894 E40.30679
