;FLAVOR:RepRap
;TIME:17840
;Generated with Cura_SteamEngine 2.3.1
M190 S60
M104 S210
M109 S210
G21 ;metric values
G90 ;absolute positioning
M82 ;set extruder to absolute mode
M107 ;start with the fan off
G28 X0 Y0 ;move X/Y to min endstops
G28 Z0 ;move Z to min endstops
G1 Z15.0 F9000 ;move the platform down 15mm
G92 E0 ;zero the extruded length
G1 F200 E3 ;extrude 3mm of feed stock
G92 E0 ;zero the extruded length again
G1 F9000
;Put printing message on LCD screen
M117 Printing...
;LAYER_COUNT:201
;LAYER:0
M107
G1 F1500 E-6.5
G0 F2700 X22.394 Y20.152 Z.3
;TYPE:SKIRT
G1 F1500 E0
G1 F1800 X23.009 Y19.515 E0.01503
G1 X23.679 Y18.937 E0.03005
G1 X24.398 Y18.421 E0.04508
G1 X25.161 Y17.972 E0.06011
G1 X25.962 Y17.594 E0.07514
G1 X26.793 Y17.29 E0.09017
G1 X27.648 Y17.062 E0.10519
G1 X28.521 Y16.912 E0.12023
G1 X29.743 Y16.835 E0.14101
G1 X163.703 Y16.835 E2.41519
G1 X164.035 Y16.778 E2.42091
G1 X165.257 Y16.701 E2.44169
G1 X170.257 Y16.701 E2.52657
G1 X171.141 Y16.741 E2.5416
G1 X172.018 Y16.861 E2.55662
G1 X172.881 Y17.059 E2.57166
G1 X173.722 Y17.334 E2.58668
G1 X174.535 Y17.684 E2.6017
G1 X175.314 Y18.106 E2.61674
G1 X176.05 Y18.597 E2.63176
G1 X176.74 Y19.152 E2.6468
G1 X177.377 Y19.767 E2.66183
G1 X177.955 Y20.437 E2.67685
G1 X178.471 Y21.156 E2.69187
G1 X178.92 Y21.919 E2.7069
G1 X179.298 Y22.72 E2.72194
G1 X179.602 Y23.551 E2.73696
G1 X179.83 Y24.406 E2.75198
G1 X179.98 Y25.279 E2.76702
G1 X180.057 Y26.501 E2.78781
G1 X180.057 Y173.499 E5.28332
G1 X180.017 Y174.383 E5.29835
G1 X179.897 Y175.26 E5.31337
G1 X179.699 Y176.123 E5.32841
G1 X179.424 Y176.964 E5.34343
G1 X179.074 Y177.777 E5.35845
G1 X178.652 Y178.556 E5.37349
G1 X178.161 Y179.292 E5.38851
G1 X177.606 Y179.982 E5.40355
G1 X176.991 Y180.619 E5.41858
G1 X176.321 Y181.197 E5.4336
G1 X175.602 Y181.713 E5.44862
G1 X174.839 Y182.162 E5.46365
G1 X174.038 Y182.54 E5.47869
G1 X173.207 Y182.844 E5.49371
G1 X172.352 Y183.072 E5.50873
G1 X171.479 Y183.222 E5.52377
G1 X170.257 Y183.299 E5.54456
G1 X165.257 Y183.299 E5.62944
G1 X164.373 Y183.259 E5.64446
G1 X163.825 Y183.184 E5.65385
G1 X29.743 Y183.184 E7.9301
G1 X28.859 Y183.144 E7.94512
G1 X27.982 Y183.024 E7.96015
G1 X27.119 Y182.826 E7.97518
G1 X26.278 Y182.551 E7.9902
G1 X25.465 Y182.201 E8.00523
G1 X24.686 Y181.779 E8.02027
G1 X23.95 Y181.288 E8.03529
G1 X23.26 Y180.733 E8.05032
G1 X22.623 Y180.118 E8.06535
G1 X22.045 Y179.448 E8.08038
G1 X21.529 Y178.729 E8.0954
G1 X21.08 Y177.966 E8.11043
G1 X20.702 Y177.165 E8.12547
G1 X20.398 Y176.334 E8.14049
G1 X20.17 Y175.479 E8.15551
G1 X20.02 Y174.606 E8.17055
G1 X19.943 Y173.384 E8.19133
G1 X19.943 Y26.635 E10.68262
G1 X19.983 Y25.751 E10.69764
G1 X20.103 Y24.874 E10.71267
G1 X20.301 Y24.011 E10.7277
G1 X20.576 Y23.17 E10.74272
G1 X20.926 Y22.357 E10.75775
G1 X21.348 Y21.578 E10.77279
G1 X21.839 Y20.842 E10.78781
G1 X22.394 Y20.152 E10.80284
G0 F2700 X22.789 Y20.31
G1 F1800 X23.402 Y19.696 E10.81757
G1 X24.068 Y19.141 E10.83229
G1 X24.782 Y18.651 E10.84699
G1 X25.539 Y18.227 E10.86172
G1 X26.332 Y17.876 E10.87644
G1 X27.153 Y17.599 E10.89115
G1 X27.997 Y17.399 E10.90588
G1 X28.855 Y17.277 E10.92059
G1 X29.743 Y17.235 E10.93568
G1 X163.722 Y17.235 E13.21018
G1 X164.369 Y17.143 E13.22128
G1 X165.257 Y17.101 E13.23637
G1 X170.257 Y17.101 E13.32125
G1 X171.123 Y17.141 E13.33597
G1 X171.982 Y17.261 E13.35069
G1 X172.826 Y17.459 E13.36541
G1 X173.648 Y17.734 E13.38012
G1 X174.441 Y18.084 E13.39484
G1 X175.199 Y18.505 E13.40956
G1 X175.914 Y18.994 E13.42426
G1 X176.582 Y19.547 E13.43899
G1 X177.196 Y20.16 E13.45372
G1 X177.751 Y20.826 E13.46843
G1 X178.241 Y21.54 E13.48313
G1 X178.665 Y22.297 E13.49786
G1 X179.016 Y23.09 E13.51259
G1 X179.293 Y23.911 E13.5273
G1 X179.493 Y24.755 E13.54202
G1 X179.615 Y25.613 E13.55673
G1 X179.657 Y26.501 E13.57183
G1 X179.657 Y173.499 E16.06734
G1 X179.617 Y174.365 E16.08206
G1 X179.497 Y175.224 E16.09678
G1 X179.299 Y176.068 E16.1115
G1 X179.024 Y176.89 E16.12621
G1 X178.674 Y177.683 E16.14093
G1 X178.253 Y178.441 E16.15565
G1 X177.764 Y179.156 E16.17036
G1 X177.211 Y179.824 E16.18508
G1 X176.598 Y180.438 E16.19981
G1 X175.932 Y180.993 E16.21452
G1 X175.218 Y181.483 E16.22923
G1 X174.461 Y181.907 E16.24396
G1 X173.668 Y182.258 E16.25868
G1 X172.847 Y182.535 E16.27339
G1 X172.003 Y182.735 E16.28811
G1 X171.145 Y182.857 E16.30282
G1 X170.257 Y182.899 E16.31792
G1 X165.257 Y182.899 E16.4028
G1 X164.391 Y182.859 E16.41752
G1 X163.854 Y182.784 E16.42672
G1 X29.743 Y182.784 E18.70346
G1 X28.877 Y182.744 E18.71818
G1 X28.018 Y182.624 E18.7329
G1 X27.174 Y182.426 E18.74762
G1 X26.352 Y182.151 E18.76233
G1 X25.559 Y181.801 E18.77705
G1 X24.801 Y181.38 E18.79177
G1 X24.086 Y180.891 E18.80647
G1 X23.418 Y180.338 E18.8212
G1 X22.804 Y179.725 E18.83593
G1 X22.249 Y179.059 E18.85064
G1 X21.759 Y178.345 E18.86534
G1 X21.335 Y177.588 E18.88007
G1 X20.984 Y176.795 E18.8948
G1 X20.707 Y175.974 E18.90951
G1 X20.507 Y175.13 E18.92423
G1 X20.385 Y174.272 E18.93894
G1 X20.343 Y173.384 E18.95404
G1 X20.343 Y26.635 E21.44532
G1 X20.383 Y25.769 E21.46004
G1 X20.503 Y24.91 E21.47477
G1 X20.701 Y24.066 E21.48948
G1 X20.976 Y23.244 E21.5042
G1 X21.326 Y22.451 E21.51891
G1 X21.747 Y21.693 E21.53363
G1 X22.236 Y20.978 E21.54834
G1 X22.789 Y20.31 E21.56306
G0 F2700 X23.184 Y20.472
G1 F1800 X23.794 Y19.882 E21.57747
G1 X24.456 Y19.352 E21.59186
G1 X25.165 Y18.886 E21.60627
G1 X25.915 Y18.49 E21.62067
G1 X26.699 Y18.165 E21.63507
G1 X27.51 Y17.916 E21.64948
G1 X28.341 Y17.745 E21.66388
G1 X29.184 Y17.652 E21.67828
G1 X29.743 Y17.635 E21.68777
G1 X163.738 Y17.635 E23.96254
G1 X163.855 Y17.611 E23.96457
G1 X164.698 Y17.518 E23.97897
G1 X165.257 Y17.501 E23.98846
G1 X170.257 Y17.501 E24.07334
G1 X171.104 Y17.541 E24.08774
G1 X171.944 Y17.661 E24.10214
G1 X172.769 Y17.859 E24.11655
G1 X173.572 Y18.134 E24.13096
G1 X174.345 Y18.483 E24.14535
G1 X175.081 Y18.903 E24.15974
G1 X175.775 Y19.391 E24.17414
G1 X176.42 Y19.942 E24.18855
G1 X177.01 Y20.552 E24.20295
G1 X177.54 Y21.214 E24.21735
G1 X178.006 Y21.923 E24.23175
G1 X178.402 Y22.673 E24.24615
G1 X178.727 Y23.457 E24.26056
G1 X178.976 Y24.268 E24.27496
G1 X179.147 Y25.099 E24.28936
G1 X179.24 Y25.942 E24.30376
G1 X179.257 Y26.501 E24.31326
G1 X179.257 Y173.499 E26.80877
G1 X179.217 Y174.346 E26.82317
G1 X179.097 Y175.186 E26.83757
G1 X178.899 Y176.011 E26.85197
G1 X178.624 Y176.814 E26.86638
G1 X178.275 Y177.587 E26.88078
G1 X177.855 Y178.323 E26.89517
G1 X177.367 Y179.017 E26.90957
G1 X176.816 Y179.662 E26.92397
G1 X176.206 Y180.252 E26.93838
G1 X175.544 Y180.782 E26.95278
G1 X174.835 Y181.248 E26.96718
G1 X174.085 Y181.644 E26.98158
G1 X173.301 Y181.969 E26.99599
G1 X172.49 Y182.218 E27.01039
G1 X171.659 Y182.389 E27.02479
G1 X170.816 Y182.482 E27.03919
G1 X170.257 Y182.499 E27.04868
G1 X165.257 Y182.499 E27.13357
G1 X164.41 Y182.459 E27.14796
G1 X163.885 Y182.384 E27.15696
G1 X29.743 Y182.384 E29.43423
G1 X28.896 Y182.344 E29.44863
G1 X28.056 Y182.224 E29.46303
G1 X27.231 Y182.026 E29.47743
G1 X26.428 Y181.751 E29.49184
G1 X25.655 Y181.402 E29.50624
G1 X24.919 Y180.982 E29.52063
G1 X24.225 Y180.494 E29.53503
G1 X23.58 Y179.943 E29.54943
G1 X22.99 Y179.333 E29.56384
G1 X22.46 Y178.671 E29.57823
G1 X21.994 Y177.962 E29.59264
G1 X21.598 Y177.212 E29.60704
G1 X21.273 Y176.428 E29.62144
G1 X21.024 Y175.617 E29.63585
G1 X20.853 Y174.786 E29.65025
G1 X20.76 Y173.943 E29.66465
G1 X20.743 Y173.384 E29.67414
G1 X20.743 Y26.635 E32.16543
G1 X20.783 Y25.788 E32.17983
G1 X20.903 Y24.948 E32.19423
G1 X21.101 Y24.123 E32.20863
G1 X21.376 Y23.32 E32.22304
G1 X21.725 Y22.547 E32.23744
G1 X22.145 Y21.811 E32.25183
G1 X22.633 Y21.117 E32.26623
G1 X23.184 Y20.472 E32.28063
G0 F2700 X23.579 Y20.638
G1 F1800 X24.185 Y20.072 E32.29471
G1 X24.843 Y19.567 E32.30879
G1 X25.546 Y19.128 E32.32286
G1 X26.289 Y18.759 E32.33694
G1 X27.064 Y18.463 E32.35103
G1 X27.863 Y18.243 E32.3651
G1 X28.68 Y18.101 E32.37917
G1 X29.743 Y18.035 E32.39726
G1 X163.803 Y18.035 E34.67313
G1 X164.194 Y17.967 E34.67987
G1 X165.257 Y17.901 E34.69795
G1 X170.257 Y17.901 E34.78283
G1 X171.085 Y17.941 E34.7969
G1 X171.906 Y18.061 E34.81099
G1 X172.711 Y18.259 E34.82506
G1 X173.493 Y18.533 E34.83913
G1 X174.246 Y18.882 E34.85322
G1 X174.961 Y19.302 E34.8673
G1 X175.632 Y19.788 E34.88136
G1 X176.254 Y20.337 E34.89545
G1 X176.82 Y20.943 E34.90952
G1 X177.325 Y21.601 E34.9236
G1 X177.764 Y22.304 E34.93767
G1 X178.133 Y23.047 E34.95176
G1 X178.429 Y23.822 E34.96584
G1 X178.649 Y24.621 E34.97991
G1 X178.791 Y25.438 E34.99399
G1 X178.857 Y26.501 E35.01207
G1 X178.857 Y173.499 E37.50758
G1 X178.817 Y174.327 E37.52166
G1 X178.697 Y175.148 E37.53574
G1 X178.499 Y175.953 E37.54982
G1 X178.225 Y176.735 E37.56388
G1 X177.876 Y177.488 E37.57797
G1 X177.456 Y178.203 E37.59205
G1 X176.97 Y178.874 E37.60612
G1 X176.421 Y179.496 E37.6202
G1 X175.815 Y180.062 E37.63428
G1 X175.157 Y180.567 E37.64836
G1 X174.454 Y181.006 E37.66243
G1 X173.711 Y181.375 E37.67651
G1 X172.936 Y181.671 E37.6906
G1 X172.137 Y181.891 E37.70467
G1 X171.32 Y182.033 E37.71874
G1 X170.257 Y182.099 E37.73682
G1 X165.257 Y182.099 E37.82171
G1 X164.429 Y182.059 E37.83578
G1 X163.916 Y181.984 E37.84458
G1 X29.743 Y181.984 E40.12237
G1 X28.915 Y181.944 E40.13645
G1 X28.094 Y181.824 E40.15053
G1 X27.289 Y181.626 E40.1646
G1 X26.507 Y181.352 E40.17867
G1 X25.754 Y181.003 E40.19276
G1 X25.039 Y180.583 E40.20684
G1 X24.368 Y180.097 E40.2209
G1 X23.746 Y179.548 E40.23499
G1 X23.18 Y178.942 E40.24907
G1 X22.675 Y178.284 E40.26315
G1 X22.236 Y177.581 E40.27722
G1 X21.867 Y176.838 E40.2913
G1 X21.571 Y176.063 E40.30538
G1 X21.351 Y175.264 E40.31945
G1 X21.209 Y174.447 E40.33353
G1 X21.143 Y173.384 E40.35161
G1 X21.143 Y26.635 E42.8429
G1 X21.183 Y25.807 E42.85697
G1 X21.303 Y24.986 E42.87106
G1 X21.501 Y24.181 E42.88513
G1 X21.775 Y23.399 E42.8992
G1 X22.124 Y22.646 E42.91329
G1 X22.544 Y21.931 E42.92737
G1 X23.03 Y21.26 E42.94143
G1 X23.579 Y20.638 E42.95552
G0 F2700 X23.973 Y20.809
G1 F1800 X24.576 Y20.268 E42.96927
G1 X25.229 Y19.789 E42.98302
G1 X25.926 Y19.378 E42.99675
G1 X26.66 Y19.036 E43.0105
G1 X27.425 Y18.77 E43.02425
G1 X28.212 Y18.579 E43.038
G1 X29.014 Y18.467 E43.05175
G1 X29.743 Y18.435 E43.06413
G1 X163.798 Y18.435 E45.33992
G1 X164.528 Y18.333 E45.35244
G1 X165.257 Y18.301 E45.36482
G1 X170.257 Y18.301 E45.44971
G1 X171.066 Y18.341 E45.46346
G1 X171.867 Y18.461 E45.47721
G1 X172.652 Y18.658 E45.49095
G1 X173.413 Y18.933 E45.50468
G1 X174.144 Y19.281 E45.51843
G1 X174.838 Y19.7 E45.53219
G1 X175.486 Y20.185 E45.54593
G1 X176.083 Y20.731 E45.55967
G1 X176.624 Y21.334 E45.57342
G1 X177.103 Y21.987 E45.58717
G1 X177.514 Y22.684 E45.6009
G1 X177.856 Y23.418 E45.61465
G1 X178.122 Y24.183 E45.6284
G1 X178.313 Y24.97 E45.64215
G1 X178.425 Y25.772 E45.6559
G1 X178.457 Y26.501 E45.66828
G1 X178.457 Y173.499 E48.1638
G1 X178.417 Y174.308 E48.17755
G1 X178.297 Y175.109 E48.1913
G1 X178.1 Y175.894 E48.20504
G1 X177.825 Y176.655 E48.21878
G1 X177.477 Y177.386 E48.23252
G1 X177.058 Y178.08 E48.24628
G1 X176.573 Y178.728 E48.26002
G1 X176.027 Y179.325 E48.27376
G1 X175.424 Y179.866 E48.28751
G1 X174.771 Y180.345 E48.30126
G1 X174.074 Y180.756 E48.315
G1 X173.34 Y181.098 E48.32874
G1 X172.575 Y181.364 E48.34249
G1 X171.788 Y181.555 E48.35624
G1 X170.986 Y181.667 E48.36999
G1 X170.257 Y181.699 E48.38238
G1 X165.257 Y181.699 E48.46726
G1 X164.448 Y181.659 E48.48101
G1 X163.947 Y181.584 E48.48961
G1 X29.743 Y181.584 E50.76793
G1 X28.934 Y181.544 E50.78168
G1 X28.133 Y181.424 E50.79543
G1 X27.348 Y181.227 E50.80917
G1 X26.587 Y180.952 E50.82291
G1 X25.856 Y180.604 E50.83665
G1 X25.162 Y180.185 E50.85041
G1 X24.514 Y179.7 E50.86415
G1 X23.917 Y179.154 E50.87789
G1 X23.376 Y178.551 E50.89164
G1 X22.897 Y177.898 E50.90539
G1 X22.486 Y177.201 E50.91913
G1 X22.144 Y176.467 E50.93287
G1 X21.878 Y175.702 E50.94662
G1 X21.687 Y174.915 E50.96037
G1 X21.575 Y174.113 E50.97412
G1 X21.543 Y173.384 E50.98651
G1 X21.543 Y26.635 E53.47779
G1 X21.583 Y25.826 E53.49155
G1 X21.703 Y25.025 E53.5053
G1 X21.9 Y24.24 E53.51903
G1 X22.175 Y23.479 E53.53277
G1 X22.523 Y22.748 E53.54652
G1 X22.942 Y22.054 E53.56028
G1 X23.427 Y21.406 E53.57402
G1 X23.973 Y20.809 E53.58775
G0 F2700 X24.366 Y20.984
G1 F1800 X24.965 Y20.469 E53.60116
G1 X25.613 Y20.018 E53.61457
G1 X26.304 Y19.634 E53.62799
G1 X27.029 Y19.322 E53.64139
G1 X27.782 Y19.085 E53.65479
G1 X28.556 Y18.926 E53.6682
G1 X29.341 Y18.845 E53.6816
G1 X29.743 Y18.835 E53.68843
G1 X163.861 Y18.835 E55.96528
G1 X164.07 Y18.792 E55.96891
G1 X164.855 Y18.711 E55.9823
G1 X165.257 Y18.701 E55.98913
G1 X170.257 Y18.701 E56.07401
G1 X171.046 Y18.741 E56.08743
G1 X171.826 Y18.86 E56.10082
G1 X172.591 Y19.058 E56.11424
G1 X173.331 Y19.332 E56.12763
G1 X174.04 Y19.68 E56.14104
G1 X174.711 Y20.098 E56.15446
G1 X175.335 Y20.581 E56.16786
G1 X175.908 Y21.124 E56.18126
G1 X176.423 Y21.723 E56.19467
G1 X176.874 Y22.371 E56.20807
G1 X177.258 Y23.062 E56.22149
G1 X177.57 Y23.787 E56.23489
G1 X177.807 Y24.54 E56.24829
G1 X177.966 Y25.314 E56.26171
G1 X178.047 Y26.099 E56.2751
G1 X178.057 Y26.501 E56.28193
G1 X178.057 Y173.499 E58.77745
G1 X178.017 Y174.288 E58.79086
G1 X177.898 Y175.068 E58.80425
G1 X177.7 Y175.833 E58.81767
G1 X177.426 Y176.573 E58.83106
G1 X177.078 Y177.282 E58.84447
G1 X176.66 Y177.953 E58.85789
G1 X176.177 Y178.577 E58.87129
G1 X175.634 Y179.15 E58.88469
G1 X175.035 Y179.665 E58.8981
G1 X174.387 Y180.116 E58.9115
G1 X173.696 Y180.5 E58.92492
G1 X172.971 Y180.812 E58.93832
G1 X172.218 Y181.049 E58.95173
G1 X171.444 Y181.208 E58.96514
G1 X170.659 Y181.289 E58.97854
G1 X170.257 Y181.299 E58.98536
G1 X165.257 Y181.299 E59.07025
G1 X164.468 Y181.259 E59.08366
G1 X163.976 Y181.184 E59.09211
G1 X29.743 Y181.184 E61.37092
G1 X28.954 Y181.144 E61.38433
G1 X28.174 Y181.025 E61.39772
G1 X27.409 Y180.827 E61.41114
G1 X26.669 Y180.553 E61.42453
G1 X25.96 Y180.205 E61.43794
G1 X25.289 Y179.787 E61.45136
G1 X24.665 Y179.304 E61.46476
G1 X24.092 Y178.761 E61.47816
G1 X23.577 Y178.162 E61.49157
G1 X23.126 Y177.514 E61.50497
G1 X22.742 Y176.823 E61.5184
G1 X22.43 Y176.098 E61.53179
G1 X22.193 Y175.345 E61.5452
G1 X22.034 Y174.571 E61.55861
G1 X21.953 Y173.786 E61.57201
G1 X21.943 Y173.384 E61.57883
G1 X21.943 Y26.635 E64.07012
G1 X21.983 Y25.846 E64.08353
G1 X22.102 Y25.066 E64.09693
G1 X22.3 Y24.301 E64.11034
G1 X22.574 Y23.561 E64.12374
G1 X22.922 Y22.852 E64.13715
G1 X23.34 Y22.181 E64.15057
G1 X23.823 Y21.557 E64.16397
G1 X24.366 Y20.984 E64.17737
G0 F2700 X24.759 Y21.165
G1 F1800 X25.354 Y20.677 E64.19043
G1 X25.996 Y20.254 E64.20348
G1 X26.679 Y19.899 E64.21655
G1 X27.394 Y19.618 E64.22959
G1 X28.136 Y19.412 E64.24267
G1 X28.894 Y19.284 E64.25572
G1 X29.743 Y19.235 E64.27015
G1 X163.905 Y19.235 E66.54776
G1 X164.408 Y19.15 E66.55642
G1 X165.257 Y19.101 E66.57086
G1 X170.257 Y19.101 E66.65574
G1 X171.025 Y19.141 E66.66879
G1 X171.785 Y19.26 E66.68185
G1 X172.528 Y19.458 E66.69491
G1 X173.247 Y19.732 E66.70797
G1 X173.933 Y20.079 E66.72102
G1 X174.58 Y20.495 E66.73408
G1 X175.18 Y20.976 E66.74713
G1 X175.727 Y21.517 E66.76019
G1 X176.215 Y22.112 E66.77326
G1 X176.638 Y22.754 E66.78631
G1 X176.993 Y23.437 E66.79938
G1 X177.274 Y24.152 E66.81242
G1 X177.48 Y24.894 E66.82549
G1 X177.608 Y25.652 E66.83854
G1 X177.657 Y26.501 E66.85298
G1 X177.657 Y173.499 E69.3485
G1 X177.617 Y174.267 E69.36155
G1 X177.498 Y175.027 E69.37461
G1 X177.3 Y175.77 E69.38766
G1 X177.026 Y176.489 E69.40073
G1 X176.679 Y177.175 E69.41378
G1 X176.263 Y177.822 E69.42684
G1 X175.782 Y178.422 E69.43989
G1 X175.241 Y178.969 E69.45295
G1 X174.646 Y179.457 E69.46602
G1 X174.004 Y179.88 E69.47907
G1 X173.321 Y180.235 E69.49214
G1 X172.606 Y180.516 E69.50518
G1 X171.864 Y180.722 E69.51825
G1 X171.106 Y180.85 E69.5313
G1 X170.257 Y180.899 E69.54574
G1 X165.257 Y180.899 E69.63062
G1 X164.489 Y180.859 E69.64368
G1 X164.01 Y180.784 E69.65191
G1 X29.743 Y180.784 E71.93129
G1 X28.975 Y180.744 E71.94435
G1 X28.215 Y180.625 E71.95741
G1 X27.472 Y180.427 E71.97046
G1 X26.753 Y180.153 E71.98353
G1 X26.067 Y179.806 E71.99658
G1 X25.42 Y179.39 E72.00963
G1 X24.82 Y178.909 E72.02269
G1 X24.273 Y178.368 E72.03575
G1 X23.785 Y177.773 E72.04881
