;FLAVOR:RepRap
;TIME:4495
;Generated with Cura_SteamEngine 2.3.1
M190 S60
M104 S210
M109 S210
G21 ;metric values
G90 ;absolute positioning
M82 ;set extruder to absolute mode
M107 ;start with the fan off
G28 X0 Y0 ;move X/Y to min endstops
G28 Z0 ;move Z to min endstops
G1 Z15.0 F9000 ;move the platform down 15mm
G92 E0 ;zero the extruded length
G1 F200 E3 ;extrude 3mm of feed stock
G92 E0 ;zero the extruded length again
G1 F9000
;Put printing message on LCD screen
M117 Printing...
;LAYER_COUNT:175
;LAYER:0
M107
G1 F1500 E-6.5
G0 F2700 X63.348 Y64.085 Z.3
;TYPE:SKIRT
G1 F1500 E0
G1 F1800 X64.018 Y63.507 E0.01502
G1 X64.737 Y62.991 E0.03005
G1 X65.5 Y62.542 E0.04508
G1 X66.301 Y62.164 E0.06011
G1 X67.132 Y61.86 E0.07513
G1 X67.987 Y61.632 E0.09016
G1 X68.86 Y61.482 E0.10519
G1 X70.082 Y61.405 E0.12598
G1 X145.511 Y61.405 E1.4065
G1 X146.395 Y61.445 E1.42153
G1 X147.272 Y61.565 E1.43655
G1 X148.135 Y61.763 E1.45158
G1 X148.976 Y62.038 E1.4666
G1 X149.789 Y62.388 E1.48163
G1 X150.568 Y62.81 E1.49667
G1 X151.304 Y63.301 E1.51169
G1 X151.994 Y63.856 E1.52672
G1 X152.631 Y64.471 E1.54176
G1 X153.209 Y65.141 E1.55678
G1 X153.725 Y65.86 E1.5718
G1 X154.174 Y66.623 E1.58683
G1 X154.552 Y67.424 E1.60187
G1 X154.856 Y68.255 E1.61689
G1 X155.084 Y69.11 E1.63191
G1 X155.234 Y69.983 E1.64695
G1 X155.311 Y71.205 E1.66774
G1 X155.311 Y74.205 E1.71867
G1 X155.271 Y75.089 E1.73369
G1 X155.151 Y75.966 E1.74872
G1 X154.953 Y76.829 E1.76375
G1 X154.678 Y77.67 E1.77877
G1 X154.392 Y78.349 E1.79128
G1 X130.793 Y128.923 E2.73872
G1 X130.4 Y129.677 E2.75315
G1 X129.79 Y130.734 E2.77387
G1 X129.313 Y131.48 E2.7889
G1 X128.804 Y132.141 E2.80307
G1 X128.019 Y133.075 E2.82378
G1 X127.42 Y133.727 E2.83881
G1 X126.823 Y134.272 E2.85253
G1 X125.888 Y135.058 E2.87327
G1 X125.185 Y135.596 E2.8883
G1 X124.478 Y136.045 E2.90252
G1 X123.422 Y136.654 E2.92321
G1 X122.636 Y137.062 E2.93824
G1 X121.872 Y137.376 E2.95227
G1 X120.724 Y137.793 E2.973
G1 X119.879 Y138.057 E2.98803
G1 X119.088 Y138.232 E3.00178
G1 X117.886 Y138.445 E3.02251
G1 X117.008 Y138.56 E3.03754
G1 X116.176 Y138.595 E3.05168
G1 X114.958 Y138.595 E3.07236
G1 X114.074 Y138.555 E3.08738
G1 X113.249 Y138.445 E3.10151
G1 X112.046 Y138.232 E3.12225
G1 X111.183 Y138.038 E3.13726
G1 X110.409 Y137.793 E3.15105
G1 X109.261 Y137.376 E3.17178
G1 X108.444 Y137.037 E3.1868
G1 X107.708 Y136.652 E3.2009
G1 X106.653 Y136.043 E3.22158
G1 X105.907 Y135.567 E3.2366
G1 X105.25 Y135.061 E3.25068
G1 X104.314 Y134.275 E3.27143
G1 X103.662 Y133.676 E3.28646
G1 X103.11 Y133.071 E3.30036
G1 X102.326 Y132.137 E3.32107
G1 X101.804 Y131.457 E3.33562
G1 X71.825 Y88.64 E4.22296
G1 X63.29 Y94.617 E4.39985
G1 X62.542 Y95.092 E4.4149
G1 X61.755 Y95.497 E4.42992
G1 X60.935 Y95.829 E4.44494
G1 X60.088 Y96.087 E4.45997
G1 X59.221 Y96.266 E4.475
G1 X58.341 Y96.367 E4.49004
G1 X57.456 Y96.388 E4.50507
G1 X56.573 Y96.329 E4.52009
G1 X55.699 Y96.19 E4.53511
G1 X54.841 Y95.973 E4.55014
G1 X54.006 Y95.68 E4.56516
G1 X53.2 Y95.312 E4.5802
G1 X52.431 Y94.874 E4.59523
G1 X51.705 Y94.367 E4.61026
G1 X51.028 Y93.798 E4.62527
G1 X50.405 Y93.169 E4.6403
G1 X49.641 Y92.211 E4.66111
G1 X47.919 Y89.752 E4.71207
G1 X47.444 Y89.005 E4.7271
G1 X47.039 Y88.218 E4.74212
G1 X46.706 Y87.398 E4.75715
G1 X46.449 Y86.551 E4.77217
G1 X46.27 Y85.684 E4.7872
G1 X46.169 Y84.804 E4.80224
G1 X46.148 Y83.919 E4.81727
G1 X46.207 Y83.036 E4.83229
G1 X46.346 Y82.162 E4.84732
G1 X46.563 Y81.304 E4.86234
G1 X46.856 Y80.468 E4.87738
G1 X47.224 Y79.663 E4.89241
G1 X47.662 Y78.894 E4.90743
G1 X48.169 Y78.168 E4.92246
G1 X48.739 Y77.491 E4.93749
G1 X49.367 Y76.867 E4.95252
G1 X50.314 Y76.111 E4.97309
G1 X60.564 Y68.914 E5.18571
G1 X60.64 Y68.581 E5.19151
G1 X60.915 Y67.74 E5.20653
G1 X61.265 Y66.927 E5.22155
G1 X61.687 Y66.148 E5.23659
G1 X62.178 Y65.412 E5.25161
G1 X62.733 Y64.722 E5.26665
G1 X63.348 Y64.085 E5.28168
G0 F2700 X63.741 Y64.266
G1 F1800 X64.407 Y63.711 E5.2964
G1 X65.121 Y63.221 E5.3111
G1 X65.878 Y62.797 E5.32583
G1 X66.671 Y62.446 E5.34055
G1 X67.492 Y62.169 E5.35526
G1 X68.336 Y61.969 E5.36998
G1 X69.194 Y61.847 E5.3847
G1 X70.082 Y61.805 E5.39979
G1 X145.511 Y61.805 E6.68031
G1 X146.377 Y61.845 E6.69503
G1 X147.236 Y61.965 E6.70975
G1 X148.08 Y62.163 E6.72447
G1 X148.902 Y62.438 E6.73919
G1 X149.695 Y62.788 E6.7539
G1 X150.453 Y63.209 E6.76862
G1 X151.168 Y63.698 E6.78333
G1 X151.836 Y64.251 E6.79805
G1 X152.45 Y64.864 E6.81278
G1 X153.005 Y65.53 E6.82749
G1 X153.495 Y66.244 E6.8422
G1 X153.919 Y67.001 E6.85693
G1 X154.27 Y67.794 E6.87165
G1 X154.547 Y68.615 E6.88636
G1 X154.747 Y69.459 E6.90108
G1 X154.869 Y70.317 E6.91579
G1 X154.911 Y71.205 E6.93089
G1 X154.911 Y74.205 E6.98182
G1 X154.871 Y75.071 E6.99653
G1 X154.751 Y75.93 E7.01126
G1 X154.553 Y76.774 E7.02598
G1 X154.278 Y77.596 E7.04069
G1 X154.029 Y78.18 E7.05147
G1 X130.43 Y128.754 E7.99891
G1 X130.054 Y129.478 E8.01276
G1 X129.444 Y130.535 E8.03348
G1 X128.976 Y131.265 E8.0482
G1 X128.498 Y131.884 E8.06148
G1 X127.713 Y132.818 E8.08219
G1 X127.125 Y133.455 E8.09691
G1 X126.566 Y133.965 E8.10975
G1 X125.631 Y134.751 E8.13049
G1 X124.942 Y135.278 E8.14521
G1 X124.278 Y135.699 E8.15856
G1 X123.222 Y136.308 E8.17926
G1 X122.452 Y136.706 E8.19397
G1 X121.735 Y137 E8.20713
G1 X120.587 Y137.417 E8.22786
G1 X119.76 Y137.675 E8.24257
G1 X119.018 Y137.838 E8.25547
G1 X117.816 Y138.051 E8.27619
G1 X116.956 Y138.163 E8.29091
G1 X116.176 Y138.195 E8.30417
G1 X114.958 Y138.195 E8.32484
G1 X114.092 Y138.155 E8.33956
G1 X113.319 Y138.051 E8.3528
G1 X112.116 Y137.838 E8.37354
G1 X111.27 Y137.648 E8.38826
G1 X110.546 Y137.417 E8.40116
G1 X109.398 Y137 E8.4219
G1 X108.597 Y136.667 E8.43662
G1 X107.908 Y136.306 E8.44983
G1 X106.853 Y135.697 E8.47051
G1 X106.123 Y135.229 E8.48523
G1 X105.507 Y134.755 E8.49843
G1 X104.571 Y133.969 E8.51918
G1 X103.934 Y133.381 E8.53389
G1 X103.416 Y132.813 E8.54694
G1 X102.632 Y131.879 E8.56764
G1 X102.132 Y131.227 E8.58159
G1 X71.924 Y88.083 E9.47571
G1 X63.06 Y94.29 E9.65942
G1 X62.328 Y94.754 E9.67413
G1 X61.556 Y95.148 E9.68885
G1 X60.751 Y95.47 E9.70357
G1 X59.92 Y95.716 E9.71828
G1 X59.069 Y95.885 E9.73301
G1 X58.207 Y95.975 E9.74772
G1 X57.34 Y95.984 E9.76244
G1 X56.476 Y95.914 E9.77716
G1 X55.622 Y95.765 E9.79187
G1 X54.785 Y95.537 E9.8066
G1 X53.973 Y95.233 E9.82132
G1 X53.193 Y94.856 E9.83603
G1 X52.45 Y94.409 E9.85075
G1 X51.752 Y93.895 E9.86546
G1 X51.104 Y93.319 E9.88018
G1 X50.512 Y92.685 E9.89491
G1 X49.968 Y91.982 E9.91
G1 X48.246 Y89.523 E9.96096
G1 X47.782 Y88.791 E9.97567
G1 X47.388 Y88.019 E9.99039
G1 X47.066 Y87.214 E10.00511
G1 X46.82 Y86.382 E10.01984
G1 X46.651 Y85.532 E10.03455
G1 X46.561 Y84.67 E10.04926
G1 X46.552 Y83.803 E10.06398
G1 X46.622 Y82.939 E10.0787
G1 X46.771 Y82.085 E10.09341
G1 X46.999 Y81.248 E10.10814
G1 X47.303 Y80.436 E10.12286
G1 X47.68 Y79.656 E10.13757
G1 X48.127 Y78.913 E10.15229
G1 X48.641 Y78.215 E10.167
G1 X49.217 Y77.567 E10.18172
G1 X49.851 Y76.975 E10.19645
G1 X50.544 Y76.438 E10.21133
G1 X60.919 Y69.153 E10.42655
G1 X61.04 Y68.636 E10.43556
G1 X61.315 Y67.814 E10.45028
G1 X61.665 Y67.021 E10.46499
G1 X62.086 Y66.263 E10.47971
G1 X62.575 Y65.548 E10.49442
G1 X63.128 Y64.88 E10.50914
G1 X63.741 Y64.266 E10.52387
G0 F2700 X64.133 Y64.452
G1 F1800 X64.795 Y63.922 E10.53826
G1 X65.504 Y63.456 E10.55267
G1 X66.254 Y63.06 E10.56707
G1 X67.038 Y62.735 E10.58147
G1 X67.849 Y62.486 E10.59588
G1 X68.68 Y62.315 E10.61028
G1 X69.523 Y62.222 E10.62468
G1 X70.082 Y62.205 E10.63417
G1 X145.511 Y62.205 E11.91469
G1 X146.358 Y62.245 E11.92909
G1 X147.198 Y62.365 E11.94349
G1 X148.023 Y62.563 E11.9579
G1 X148.826 Y62.838 E11.97231
G1 X149.599 Y63.187 E11.98671
G1 X150.335 Y63.607 E12.00109
G1 X151.029 Y64.095 E12.01549
G1 X151.674 Y64.646 E12.0299
G1 X152.264 Y65.256 E12.0443
G1 X152.794 Y65.918 E12.0587
G1 X153.26 Y66.627 E12.0731
G1 X153.656 Y67.377 E12.0875
G1 X153.981 Y68.161 E12.10191
G1 X154.23 Y68.972 E12.11631
G1 X154.401 Y69.803 E12.13071
G1 X154.494 Y70.646 E12.14511
G1 X154.511 Y71.205 E12.15461
G1 X154.511 Y74.205 E12.20554
G1 X154.471 Y75.052 E12.21993
G1 X154.351 Y75.892 E12.23434
G1 X154.153 Y76.717 E12.24874
G1 X153.878 Y77.52 E12.26315
G1 X153.667 Y78.011 E12.27222
G1 X130.068 Y128.585 E13.21966
G1 X129.707 Y129.278 E13.23293
G1 X129.097 Y130.335 E13.25365
G1 X128.639 Y131.048 E13.26803
G1 X128.192 Y131.627 E13.28045
G1 X127.407 Y132.561 E13.30116
G1 X126.831 Y133.184 E13.31557
G1 X126.308 Y133.659 E13.32756
G1 X125.373 Y134.445 E13.3483
G1 X124.699 Y134.96 E13.3627
G1 X124.078 Y135.352 E13.37517
G1 X123.022 Y135.961 E13.39586
G1 X122.268 Y136.35 E13.41026
G1 X121.599 Y136.624 E13.42254
G1 X120.451 Y137.041 E13.44327
G1 X119.641 Y137.293 E13.45767
G1 X118.948 Y137.444 E13.46971
G1 X117.746 Y137.657 E13.49044
G1 X116.905 Y137.765 E13.50483
G1 X116.176 Y137.795 E13.51722
G1 X114.958 Y137.795 E13.5379
G1 X114.111 Y137.755 E13.55229
G1 X113.389 Y137.657 E13.56466
G1 X112.186 Y137.444 E13.5854
G1 X111.358 Y137.257 E13.59981
G1 X110.682 Y137.041 E13.61186
G1 X109.534 Y136.624 E13.63259
G1 X108.751 Y136.297 E13.647
G1 X108.108 Y135.96 E13.65932
G1 X107.053 Y135.351 E13.68
G1 X106.339 Y134.892 E13.69441
G1 X105.764 Y134.448 E13.70675
G1 X104.828 Y133.662 E13.7275
G1 X104.205 Y133.087 E13.74189
G1 X103.723 Y132.556 E13.75406
G1 X102.939 Y131.622 E13.77477
G1 X102.46 Y130.998 E13.78812
G1 X72.022 Y87.526 E14.68904
G1 X62.831 Y93.962 E14.87952
G1 X62.114 Y94.415 E14.89392
G1 X61.357 Y94.799 E14.90833
G1 X60.568 Y95.11 E14.92273
G1 X59.753 Y95.345 E14.93713
G1 X58.919 Y95.503 E14.95154
G1 X58.075 Y95.581 E14.96593
G1 X57.226 Y95.579 E14.98034
G1 X56.382 Y95.498 E14.99474
G1 X55.549 Y95.337 E15.00914
G1 X54.735 Y95.099 E15.02354
G1 X53.947 Y94.785 E15.03794
G1 X53.192 Y94.398 E15.05234
G1 X52.477 Y93.942 E15.06674
G1 X51.807 Y93.42 E15.08116
G1 X51.19 Y92.838 E15.09556
G1 X50.631 Y92.201 E15.10994
G1 X50.296 Y91.753 E15.11944
G1 X48.574 Y89.294 E15.1704
G1 X48.121 Y88.577 E15.1848
G1 X47.737 Y87.82 E15.19921
G1 X47.426 Y87.031 E15.21361
G1 X47.191 Y86.216 E15.22801
G1 X47.033 Y85.382 E15.24242
G1 X46.955 Y84.537 E15.25682
G1 X46.957 Y83.689 E15.27122
G1 X47.038 Y82.845 E15.28561
G1 X47.199 Y82.012 E15.30002
G1 X47.437 Y81.198 E15.31442
G1 X47.751 Y80.41 E15.32882
G1 X48.138 Y79.655 E15.34322
G1 X48.594 Y78.939 E15.35763
G1 X49.116 Y78.27 E15.37204
G1 X49.698 Y77.653 E15.38643
G1 X50.335 Y77.094 E15.40082
G1 X50.774 Y76.765 E15.41014
G1 X61.272 Y69.394 E15.6279
G1 X61.44 Y68.693 E15.64014
G1 X61.715 Y67.89 E15.65455
G1 X62.064 Y67.117 E15.66894
G1 X62.484 Y66.381 E15.68333
G1 X62.972 Y65.687 E15.69773
G1 X63.523 Y65.042 E15.71213
G1 X64.133 Y64.452 E15.72654
G0 F2700 X64.524 Y64.642
G1 F1800 X65.182 Y64.137 E15.74062
G1 X65.885 Y63.698 E15.75469
G1 X66.628 Y63.329 E15.76878
G1 X67.403 Y63.033 E15.78286
G1 X68.202 Y62.813 E15.79693
G1 X69.019 Y62.671 E15.81101
G1 X70.082 Y62.605 E15.82909
G1 X145.511 Y62.605 E17.10961
G1 X146.339 Y62.645 E17.12368
G1 X147.16 Y62.765 E17.13777
G1 X147.965 Y62.963 E17.15184
G1 X148.747 Y63.237 E17.16591
G1 X149.5 Y63.586 E17.18
G1 X150.215 Y64.006 E17.19408
G1 X150.886 Y64.492 E17.20814
G1 X151.508 Y65.041 E17.22223
G1 X152.074 Y65.647 E17.2363
G1 X152.579 Y66.305 E17.25038
G1 X153.018 Y67.008 E17.26445
G1 X153.387 Y67.751 E17.27854
G1 X153.683 Y68.526 E17.29262
G1 X153.903 Y69.325 E17.30669
G1 X154.045 Y70.142 E17.32077
G1 X154.111 Y71.205 E17.33885
G1 X154.111 Y74.205 E17.38978
G1 X154.071 Y75.033 E17.40385
G1 X153.951 Y75.854 E17.41794
G1 X153.753 Y76.659 E17.43201
G1 X153.479 Y77.441 E17.44608
G1 X153.304 Y77.842 E17.45351
G1 X129.705 Y128.416 E18.40095
G1 X129.361 Y129.078 E18.41361
G1 X128.751 Y130.135 E18.43433
G1 X128.302 Y130.832 E18.44841
G1 X127.886 Y131.369 E18.45994
G1 X127.101 Y132.303 E18.48065
G1 X126.537 Y132.912 E18.49474
G1 X126.051 Y133.353 E18.50588
G1 X125.116 Y134.139 E18.52662
G1 X124.456 Y134.641 E18.5407
G1 X123.878 Y135.006 E18.5523
G1 X122.822 Y135.615 E18.573
G1 X122.085 Y135.994 E18.58707
G1 X121.462 Y136.248 E18.59849
G1 X120.314 Y136.665 E18.61922
G1 X119.522 Y136.91 E18.6333
G1 X118.879 Y137.05 E18.64447
G1 X117.677 Y137.263 E18.66519
G1 X116.854 Y137.368 E18.67928
G1 X116.176 Y137.395 E18.6908
G1 X114.958 Y137.395 E18.71147
G1 X114.13 Y137.355 E18.72555
G1 X113.459 Y137.263 E18.73704
G1 X112.256 Y137.05 E18.75778
G1 X111.447 Y136.867 E18.77187
G1 X110.819 Y136.665 E18.78307
G1 X109.671 Y136.248 E18.8038
G1 X108.906 Y135.928 E18.81788
G1 X108.308 Y135.613 E18.82935
G1 X107.253 Y135.004 E18.85003
G1 X106.555 Y134.555 E18.86412
G1 X106.022 Y134.142 E18.87557
G1 X105.086 Y133.356 E18.89632
G1 X104.477 Y132.793 E18.9104
G1 X104.029 Y132.299 E18.92172
G1 X103.245 Y131.365 E18.94242
G1 X102.787 Y130.769 E18.95518
G1 X72.119 Y86.969 E19.8629
G1 X62.601 Y93.634 E20.06016
G1 X61.9 Y94.077 E20.07424
G1 X61.159 Y94.45 E20.08833
G1 X60.386 Y94.749 E20.1024
G1 X59.588 Y94.973 E20.11647
G1 X58.771 Y95.119 E20.13056
G1 X57.945 Y95.186 E20.14463
G1 X57.116 Y95.172 E20.1587
G1 X56.292 Y95.079 E20.17278
G1 X55.48 Y94.907 E20.18687
G1 X54.69 Y94.658 E20.20093
G1 X53.926 Y94.333 E20.21503
G1 X53.198 Y93.937 E20.22909
G1 X52.511 Y93.472 E20.24318
G1 X51.872 Y92.944 E20.25725
G1 X51.287 Y92.356 E20.27133
G1 X50.624 Y91.523 E20.28941
G1 X48.902 Y89.064 E20.34037
G1 X48.459 Y88.363 E20.35445
G1 X48.086 Y87.622 E20.36853
G1 X47.787 Y86.849 E20.3826
G1 X47.563 Y86.05 E20.39669
G1 X47.417 Y85.234 E20.41076
G1 X47.35 Y84.408 E20.42483
G1 X47.364 Y83.579 E20.4389
G1 X47.457 Y82.755 E20.45298
G1 X47.629 Y81.943 E20.46707
G1 X47.878 Y81.153 E20.48113
G1 X48.203 Y80.389 E20.49523
G1 X48.599 Y79.661 E20.5093
G1 X49.064 Y78.974 E20.52338
G1 X49.592 Y78.335 E20.53745
G1 X50.18 Y77.75 E20.55153
G1 X51.004 Y77.093 E20.56943
G1 X61.631 Y69.631 E20.78987
G1 X61.642 Y69.556 E20.79116
G1 X61.84 Y68.751 E20.80523
G1 X62.114 Y67.969 E20.8193
G1 X62.463 Y67.216 E20.83339
G1 X62.883 Y66.501 E20.84746
G1 X63.369 Y65.83 E20.86153
G1 X63.918 Y65.208 E20.87561
G1 X64.524 Y64.642 E20.88969
G0 F2700 X64.915 Y64.838
G1 F1800 X65.568 Y64.359 E20.90344
G1 X66.265 Y63.948 E20.91717
G1 X66.999 Y63.606 E20.93092
G1 X67.764 Y63.34 E20.94467
G1 X68.551 Y63.149 E20.95842
G1 X69.353 Y63.037 E20.97217
G1 X70.082 Y63.005 E20.98455
G1 X145.511 Y63.005 E22.26508
G1 X146.32 Y63.045 E22.27883
G1 X147.121 Y63.165 E22.29258
G1 X147.906 Y63.362 E22.30632
G1 X148.667 Y63.637 E22.32005
G1 X149.398 Y63.985 E22.3338
G1 X150.092 Y64.404 E22.34756
G1 X150.74 Y64.889 E22.3613
G1 X151.337 Y65.435 E22.37504
G1 X151.878 Y66.038 E22.38879
G1 X152.357 Y66.691 E22.40254
G1 X152.768 Y67.388 E22.41627
G1 X153.11 Y68.122 E22.43002
G1 X153.376 Y68.887 E22.44377
G1 X153.567 Y69.674 E22.45752
G1 X153.679 Y70.476 E22.47127
G1 X153.711 Y71.205 E22.48365
G1 X153.711 Y74.205 E22.53458
G1 X153.671 Y75.014 E22.54834
G1 X153.551 Y75.815 E22.56209
G1 X153.354 Y76.6 E22.57583
G1 X152.942 Y77.672 E22.59532
G1 X129.343 Y128.246 E23.54276
G1 X129.014 Y128.878 E23.55486
G1 X128.404 Y129.935 E23.57558
G1 X127.965 Y130.615 E23.58932
G1 X127.579 Y131.112 E23.6
G1 X126.794 Y132.046 E23.62071
G1 X126.243 Y132.639 E23.63446
G1 X125.794 Y133.047 E23.64476
G1 X124.859 Y133.833 E23.66549
G1 X124.214 Y134.323 E23.67924
G1 X123.679 Y134.659 E23.68997
G1 X122.623 Y135.268 E23.71066
G1 X121.902 Y135.638 E23.72442
G1 X121.326 Y135.872 E23.73498
G1 X120.178 Y136.289 E23.75571
G1 X119.404 Y136.528 E23.76946
G1 X118.809 Y136.656 E23.7798
G1 X117.607 Y136.869 E23.80052
G1 X116.804 Y136.971 E23.81426
G1 X116.176 Y136.995 E23.82493
G1 X114.958 Y136.995 E23.84561
G1 X114.149 Y136.955 E23.85936
G1 X113.528 Y136.869 E23.87
G1 X112.325 Y136.656 E23.89074
G1 X111.536 Y136.476 E23.90448
G1 X110.955 Y136.289 E23.91484
G1 X109.807 Y135.872 E23.93558
G1 X109.061 Y135.559 E23.94931
G1 X108.508 Y135.267 E23.95993
G1 X107.453 Y134.658 E23.98061
G1 X106.772 Y134.219 E23.99436
G1 X106.279 Y133.836 E24.00496
G1 X105.343 Y133.05 E24.02571
G1 X104.749 Y132.499 E24.03946
G1 X104.335 Y132.042 E24.04993
G1 X103.551 Y131.108 E24.07063
G1 X103.115 Y130.539 E24.0828
G1 X72.218 Y86.412 E24.9973
G1 X62.372 Y93.307 E25.20137
G1 X61.686 Y93.738 E25.21512
G1 X60.962 Y94.099 E25.22885
