;FLAVOR:RepRap
;TIME:1601
;Generated with Cura_SteamEngine 2.3.1
M190 S60
M104 S210
M109 S210
G21 ;metric values
G90 ;absolute positioning
M82 ;set extruder to absolute mode
M107 ;start with the fan off
G28 X0 Y0 ;move X/Y to min endstops
G28 Z0 ;move Z to min endstops
G1 Z15.0 F9000 ;move the platform down 15mm
G92 E0 ;zero the extruded length
G1 F200 E3 ;extrude 3mm of feed stock
G92 E0 ;zero the extruded length again
G1 F9000
;Put printing message on LCD screen
M117 Printing...
;LAYER_COUNT:111
;LAYER:0
M107
G1 F1500 E-6.5
G0 F2700 X63.296 Y77.329 Z.3
;TYPE:SKIRT
G1 F1500 E0
G1 F1800 X63.852 Y76.881 E0.01212
G1 X64.566 Y76.357 E0.02716
G1 X65.324 Y75.9 E0.04218
G1 X66.12 Y75.513 E0.05721
G1 X66.755 Y75.265 E0.06878
G1 X67.094 Y75.146 E0.07488
G1 X67.942 Y74.891 E0.08991
G1 X68.809 Y74.713 E0.10494
G1 X69.689 Y74.615 E0.11997
G1 X70.334 Y74.593 E0.13093
G1 X129.462 Y74.559 E1.13472
G1 X130.347 Y74.598 E1.14975
G1 X131.224 Y74.718 E1.16478
G1 X132.127 Y74.927 E1.18052
G1 X132.645 Y75.073 E1.18965
G1 X133.485 Y75.351 E1.20467
G1 X134.297 Y75.704 E1.21971
G1 X135.073 Y76.129 E1.23473
G1 X136.058 Y76.812 E1.25507
G1 X136.618 Y77.254 E1.26719
G1 X137.287 Y77.834 E1.28222
G1 X137.901 Y78.471 E1.29724
G1 X138.456 Y79.161 E1.31227
G1 X138.946 Y79.898 E1.32729
G1 X139.368 Y80.68 E1.34238
G1 X139.679 Y81.323 E1.35451
G1 X140.028 Y82.136 E1.36953
G1 X140.303 Y82.978 E1.38456
G1 X140.5 Y83.841 E1.39959
G1 X140.618 Y84.718 E1.41461
G1 X140.657 Y85.578 E1.42923
G1 X140.688 Y111.275 E1.86547
G1 X140.649 Y112.16 E1.88051
G1 X140.531 Y113.037 E1.89553
G1 X140.433 Y113.507 E1.90369
G1 X140.27 Y114.208 E1.9159
G1 X140.031 Y115.06 E1.93093
G1 X139.716 Y115.887 E1.94595
G1 X139.327 Y116.682 E1.96097
G1 X139.056 Y117.149 E1.97014
G1 X138.553 Y117.961 E1.98636
G1 X138.053 Y118.691 E2.00138
G1 X137.49 Y119.374 E2.0164
G1 X137.25 Y119.617 E2.0222
G1 X137.116 Y119.927 E2.02794
G1 X136.694 Y120.706 E2.04298
G1 X136.203 Y121.442 E2.058
G1 X135.648 Y122.132 E2.07303
G1 X135.033 Y122.769 E2.08806
G1 X134.363 Y123.347 E2.10308
G1 X133.644 Y123.863 E2.11811
G1 X132.881 Y124.312 E2.13314
G1 X132.08 Y124.69 E2.14817
G1 X131.249 Y124.994 E2.16319
G1 X130.394 Y125.222 E2.17822
G1 X129.521 Y125.372 E2.19325
G1 X128.299 Y125.449 E2.21404
G1 X71.7 Y125.449 E3.17489
G1 X70.816 Y125.409 E3.18992
G1 X69.939 Y125.289 E3.20494
G1 X69.076 Y125.091 E3.21998
G1 X68.235 Y124.816 E3.235
G1 X67.422 Y124.466 E3.25002
G1 X66.643 Y124.044 E3.26506
G1 X65.907 Y123.553 E3.28008
G1 X65.217 Y122.998 E3.29512
G1 X64.58 Y122.383 E3.31015
G1 X64.002 Y121.713 E3.32517
G1 X63.486 Y120.994 E3.34019
G1 X63.037 Y120.231 E3.35522
G1 X62.7 Y119.517 E3.36863
G1 X62.254 Y119.029 E3.37985
G1 X61.687 Y118.349 E3.39488
G1 X61.184 Y117.621 E3.4099
G1 X60.748 Y116.85 E3.42494
G1 X60.352 Y115.96 E3.44148
G1 X60.007 Y115.07 E3.45768
G1 X59.724 Y114.231 E3.47271
G1 X59.519 Y113.37 E3.48774
G1 X59.392 Y112.494 E3.50277
G1 X59.344 Y111.545 E3.5189
G1 X59.3 Y85.968 E3.95311
G1 X59.338 Y85.083 E3.96814
G1 X59.432 Y84.349 E3.98071
G1 X59.518 Y83.83 E3.98964
G1 X59.702 Y82.964 E4.00467
G1 X59.963 Y82.118 E4.0197
G1 X60.3 Y81.3 E4.03472
G1 X60.594 Y80.718 E4.04579
G1 X60.853 Y80.246 E4.05493
G1 X61.314 Y79.49 E4.06996
G1 X61.841 Y78.778 E4.085
G1 X62.43 Y78.117 E4.10003
G1 X63.296 Y77.329 E4.1199
G0 F2700 X63.547 Y77.64
G1 F1800 X64.103 Y77.192 E4.13203
G1 X64.803 Y76.68 E4.14675
G1 X65.546 Y76.235 E4.16145
G1 X66.328 Y75.859 E4.17618
G1 X66.888 Y75.643 E4.18637
G1 X67.227 Y75.524 E4.19247
G1 X68.057 Y75.274 E4.20719
G1 X68.907 Y75.103 E4.22191
G1 X69.769 Y75.01 E4.23663
G1 X70.335 Y74.993 E4.24624
G1 X129.463 Y74.959 E5.25003
G1 X130.329 Y74.998 E5.26474
G1 X131.187 Y75.118 E5.27945
G1 X132.018 Y75.312 E5.29394
G1 X132.536 Y75.458 E5.30307
G1 X133.359 Y75.731 E5.31779
G1 X134.153 Y76.079 E5.33251
G1 X134.911 Y76.499 E5.34722
G1 X135.81 Y77.126 E5.36583
G1 X136.37 Y77.568 E5.37794
G1 X137.025 Y78.136 E5.39266
G1 X137.625 Y78.762 E5.40738
G1 X138.164 Y79.441 E5.4221
G1 X138.639 Y80.166 E5.43681
G1 X139.008 Y80.854 E5.45007
G1 X139.319 Y81.497 E5.46219
G1 X139.66 Y82.294 E5.47691
G1 X139.926 Y83.119 E5.49162
G1 X140.116 Y83.965 E5.50634
G1 X140.226 Y84.825 E5.52106
G1 X140.257 Y85.579 E5.53387
G1 X140.288 Y111.276 E5.97012
G1 X140.249 Y112.142 E5.98484
G1 X140.044 Y113.416 E6.00674
G1 X139.881 Y114.117 E6.01896
G1 X139.646 Y114.951 E6.03367
G1 X139.335 Y115.761 E6.0484
G1 X138.951 Y116.538 E6.06311
G1 X138.716 Y116.938 E6.07099
G1 X138.213 Y117.75 E6.08721
G1 X137.723 Y118.465 E6.10192
G1 X137.169 Y119.132 E6.11664
G1 X136.912 Y119.389 E6.12281
G1 X136.716 Y119.833 E6.13105
G1 X136.295 Y120.591 E6.14577
G1 X135.806 Y121.306 E6.16047
G1 X135.253 Y121.974 E6.1752
G1 X134.64 Y122.588 E6.18993
G1 X133.974 Y123.143 E6.20464
G1 X133.26 Y123.633 E6.21934
G1 X132.503 Y124.057 E6.23407
G1 X131.71 Y124.408 E6.2488
G1 X130.889 Y124.685 E6.26351
G1 X130.045 Y124.885 E6.27823
G1 X129.187 Y125.007 E6.29294
G1 X128.299 Y125.049 E6.30804
G1 X71.7 Y125.049 E7.26889
G1 X70.834 Y125.009 E7.28361
G1 X69.975 Y124.889 E7.29833
G1 X69.131 Y124.691 E7.31305
G1 X68.309 Y124.416 E7.32776
G1 X67.516 Y124.066 E7.34248
G1 X66.758 Y123.645 E7.3572
G1 X66.043 Y123.156 E7.3719
G1 X65.375 Y122.603 E7.38663
G1 X64.761 Y121.99 E7.40136
G1 X64.206 Y121.324 E7.41607
G1 X63.716 Y120.61 E7.43077
G1 X63.292 Y119.853 E7.4455
G1 X63.05 Y119.306 E7.45566
G1 X62.55 Y118.759 E7.46824
G1 X61.995 Y118.092 E7.48297
G1 X61.504 Y117.378 E7.49768
G1 X61.081 Y116.621 E7.5124
G1 X60.724 Y115.815 E7.52737
G1 X60.379 Y114.925 E7.54357
G1 X60.104 Y114.104 E7.55827
G1 X59.905 Y113.26 E7.57299
G1 X59.785 Y112.401 E7.58772
G1 X59.744 Y111.544 E7.60228
G1 X59.7 Y85.967 E8.03649
G1 X59.739 Y85.101 E8.05121
G1 X59.826 Y84.414 E8.06296
G1 X59.912 Y83.895 E8.07189
G1 X60.093 Y83.048 E8.0866
G1 X60.352 Y82.22 E8.10133
G1 X60.685 Y81.42 E8.11604
G1 X60.945 Y80.91 E8.12576
G1 X61.204 Y80.438 E8.1349
G1 X61.656 Y79.698 E8.14962
G1 X62.174 Y79.003 E8.16433
G1 X62.753 Y78.358 E8.17905
G1 X63.547 Y77.64 E8.19722
G0 F2700 X63.798 Y77.952
G1 F1800 X64.354 Y77.504 E8.20934
G1 X65.039 Y77.003 E8.22375
G1 X65.768 Y76.57 E8.23814
G1 X66.535 Y76.206 E8.25256
G1 X67.02 Y76.02 E8.26137
G1 X67.359 Y75.901 E8.26747
G1 X68.172 Y75.658 E8.28188
G1 X69.004 Y75.493 E8.29628
G1 X69.848 Y75.406 E8.31068
G1 X70.335 Y75.393 E8.31895
G1 X129.463 Y75.359 E9.32274
G1 X130.31 Y75.398 E9.33714
G1 X131.15 Y75.518 E9.35154
G1 X131.91 Y75.697 E9.3648
G1 X132.428 Y75.843 E9.37393
G1 X133.232 Y76.111 E9.38832
G1 X134.008 Y76.454 E9.40272
G1 X134.748 Y76.868 E9.41712
G1 X135.562 Y77.44 E9.43401
G1 X136.122 Y77.882 E9.44612
G1 X136.762 Y78.439 E9.46052
G1 X137.347 Y79.053 E9.47492
G1 X137.872 Y79.719 E9.48932
G1 X138.332 Y80.432 E9.50372
G1 X138.648 Y81.028 E9.51517
G1 X138.959 Y81.671 E9.5273
G1 X139.292 Y82.451 E9.5417
G1 X139.55 Y83.26 E9.55611
G1 X139.731 Y84.088 E9.5705
G1 X139.833 Y84.931 E9.58492
G1 X139.857 Y85.579 E9.59593
G1 X139.888 Y111.276 E10.03217
G1 X139.849 Y112.124 E10.04658
G1 X139.654 Y113.325 E10.06724
G1 X139.491 Y114.026 E10.07946
G1 X139.26 Y114.843 E10.09387
G1 X138.954 Y115.634 E10.10827
G1 X138.376 Y116.727 E10.12926
G1 X137.873 Y117.539 E10.14547
G1 X137.393 Y118.239 E10.15988
G1 X136.849 Y118.89 E10.17429
G1 X136.578 Y119.158 E10.18076
G1 X136.317 Y119.737 E10.19154
G1 X135.897 Y120.473 E10.20592
G1 X135.409 Y121.167 E10.22033
G1 X134.858 Y121.812 E10.23473
G1 X134.248 Y122.402 E10.24914
G1 X133.586 Y122.932 E10.26353
G1 X132.877 Y123.398 E10.27794
G1 X132.127 Y123.794 E10.29233
G1 X131.343 Y124.119 E10.30674
G1 X130.532 Y124.368 E10.32114
G1 X129.701 Y124.539 E10.33555
G1 X128.858 Y124.632 E10.34994
G1 X128.299 Y124.649 E10.35944
G1 X71.7 Y124.649 E11.32029
G1 X70.853 Y124.609 E11.33469
G1 X70.013 Y124.489 E11.34909
G1 X69.188 Y124.291 E11.3635
G1 X68.385 Y124.016 E11.37791
G1 X67.612 Y123.667 E11.3923
G1 X66.876 Y123.247 E11.40669
G1 X66.182 Y122.759 E11.42109
G1 X65.537 Y122.208 E11.43549
G1 X64.947 Y121.598 E11.4499
G1 X64.417 Y120.936 E11.4643
G1 X63.951 Y120.227 E11.4787
G1 X63.555 Y119.477 E11.4931
G1 X63.395 Y119.091 E11.50019
G1 X62.845 Y118.489 E11.51404
G1 X62.303 Y117.836 E11.52844
G1 X61.825 Y117.136 E11.54283
G1 X61.414 Y116.393 E11.55725
G1 X61.097 Y115.671 E11.57063
G1 X60.752 Y114.781 E11.58684
G1 X60.483 Y113.976 E11.60125
G1 X60.291 Y113.15 E11.61564
G1 X60.178 Y112.309 E11.63005
G1 X60.144 Y111.543 E11.64307
G1 X60.1 Y85.966 E12.07728
G1 X60.139 Y85.119 E12.09167
G1 X60.221 Y84.48 E12.10261
G1 X60.307 Y83.961 E12.11154
G1 X60.485 Y83.131 E12.12595
G1 X60.74 Y82.322 E12.14035
G1 X61.071 Y81.541 E12.15475
G1 X61.296 Y81.102 E12.16312
G1 X61.555 Y80.63 E12.17226
G1 X61.998 Y79.907 E12.18666
G1 X62.506 Y79.228 E12.20106
G1 X63.077 Y78.6 E12.21546
G1 X63.798 Y77.952 E12.23192
G0 F2700 X64.049 Y78.263
G1 F1800 X64.605 Y77.815 E12.24404
G1 X65.275 Y77.327 E12.25811
G1 X65.989 Y76.905 E12.27219
G1 X66.74 Y76.554 E12.28627
G1 X67.153 Y76.397 E12.29377
G1 X67.492 Y76.278 E12.29987
G1 X68.286 Y76.042 E12.31393
G1 X69.1 Y75.883 E12.32801
G1 X70.335 Y75.793 E12.34903
G1 X129.463 Y75.759 E13.35282
G1 X130.291 Y75.799 E13.36689
G1 X131.112 Y75.918 E13.38098
G1 X131.801 Y76.082 E13.393
G1 X132.319 Y76.228 E13.40214
G1 X133.105 Y76.491 E13.41621
G1 X133.863 Y76.828 E13.43029
G1 X134.584 Y77.237 E13.44436
G1 X135.314 Y77.754 E13.45955
G1 X135.874 Y78.196 E13.47166
G1 X136.5 Y78.741 E13.48575
G1 X137.07 Y79.343 E13.49982
G1 X137.579 Y79.997 E13.51389
G1 X138.023 Y80.698 E13.52798
G1 X138.288 Y81.202 E13.53765
G1 X138.599 Y81.845 E13.54977
G1 X138.924 Y82.608 E13.56385
G1 X139.173 Y83.399 E13.57793
G1 X139.346 Y84.21 E13.59201
G1 X139.439 Y85.034 E13.60609
G1 X139.457 Y85.58 E13.61536
G1 X139.488 Y111.277 E14.05161
G1 X139.449 Y112.105 E14.06568
G1 X139.265 Y113.235 E14.08511
G1 X139.102 Y113.936 E14.09733
G1 X138.875 Y114.733 E14.1114
G1 X138.573 Y115.506 E14.12549
G1 X138.036 Y116.517 E14.14492
G1 X137.533 Y117.329 E14.16114
G1 X137.063 Y118.012 E14.17521
G1 X136.529 Y118.646 E14.18929
G1 X136.252 Y118.918 E14.19588
G1 X135.918 Y119.638 E14.20935
G1 X135.498 Y120.353 E14.22343
G1 X135.012 Y121.024 E14.23749
G1 X134.463 Y121.646 E14.25158
G1 X133.857 Y122.212 E14.26566
G1 X133.199 Y122.717 E14.27974
G1 X132.496 Y123.156 E14.29381
G1 X131.753 Y123.525 E14.30789
G1 X130.978 Y123.821 E14.32197
G1 X130.179 Y124.041 E14.33604
G1 X129.362 Y124.183 E14.35012
G1 X128.299 Y124.249 E14.3682
G1 X71.7 Y124.249 E15.32906
G1 X70.872 Y124.209 E15.34313
G1 X70.051 Y124.089 E15.35721
G1 X69.246 Y123.891 E15.37129
G1 X68.464 Y123.617 E15.38536
G1 X67.711 Y123.268 E15.39944
G1 X66.996 Y122.848 E15.41352
G1 X66.325 Y122.362 E15.42759
G1 X65.703 Y121.813 E15.44167
G1 X65.137 Y121.207 E15.45575
G1 X64.632 Y120.549 E15.46983
G1 X64.193 Y119.846 E15.4839
G1 X63.824 Y119.103 E15.49798
G1 X63.735 Y118.87 E15.50222
G1 X63.14 Y118.219 E15.51719
G1 X62.611 Y117.581 E15.53126
G1 X62.146 Y116.894 E15.54534
G1 X61.749 Y116.166 E15.55942
G1 X61.47 Y115.526 E15.57127
G1 X61.125 Y114.636 E15.58748
G1 X60.863 Y113.85 E15.60154
G1 X60.678 Y113.041 E15.61563
G1 X60.572 Y112.219 E15.6297
G1 X60.544 Y111.543 E15.64119
G1 X60.5 Y85.966 E16.0754
G1 X60.539 Y85.137 E16.08949
G1 X60.616 Y84.545 E16.09962
G1 X60.702 Y84.026 E16.10855
G1 X60.877 Y83.216 E16.12262
G1 X61.129 Y82.426 E16.1367
G1 X61.456 Y81.664 E16.15077
G1 X61.646 Y81.295 E16.15782
G1 X61.905 Y80.823 E16.16696
G1 X62.339 Y80.116 E16.18104
G1 X62.839 Y79.454 E16.19513
G1 X63.4 Y78.843 E16.20921
G1 X64.049 Y78.263 E16.22399
G0 F2700 X64.3 Y78.575
G1 F1800 X64.856 Y78.127 E16.23611
G1 X65.511 Y77.651 E16.24985
G1 X66.21 Y77.241 E16.26361
G1 X67.285 Y76.775 E16.2835
G1 X67.624 Y76.656 E16.2896
G1 X68.4 Y76.426 E16.30334
G1 X69.196 Y76.273 E16.3171
G1 X70.335 Y76.193 E16.33649
G1 X129.463 Y76.159 E17.34027
G1 X130.272 Y76.199 E17.35402
G1 X131.073 Y76.318 E17.36777
G1 X131.693 Y76.467 E17.3786
G1 X132.211 Y76.613 E17.38773
G1 X132.978 Y76.87 E17.40147
G1 X133.716 Y77.203 E17.41521
G1 X134.418 Y77.606 E17.42895
G1 X135.066 Y78.068 E17.44246
G1 X135.626 Y78.51 E17.45457
G1 X136.236 Y79.043 E17.46833
G1 X136.791 Y79.633 E17.48208
G1 X137.285 Y80.275 E17.49583
G1 X137.713 Y80.962 E17.50957
G1 X137.928 Y81.377 E17.51751
G1 X138.239 Y82.02 E17.52963
G1 X138.555 Y82.765 E17.54337
G1 X138.796 Y83.538 E17.55712
G1 X138.96 Y84.331 E17.57086
G1 X139.044 Y85.136 E17.5846
G1 X139.057 Y85.58 E17.59214
G1 X139.088 Y111.277 E18.02839
G1 X139.049 Y112.086 E18.04214
G1 X138.875 Y113.144 E18.06034
G1 X138.712 Y113.845 E18.07256
G1 X138.49 Y114.624 E18.08631
G1 X138.192 Y115.377 E18.10006
G1 X137.696 Y116.306 E18.11794
G1 X137.193 Y117.118 E18.13415
G1 X136.733 Y117.785 E18.14791
G1 X136.21 Y118.402 E18.16164
G1 X135.906 Y118.696 E18.16882
G1 X135.867 Y118.805 E18.17078
G1 X135.519 Y119.536 E18.18453
G1 X135.1 Y120.23 E18.19829
G1 X134.615 Y120.878 E18.21203
G1 X134.069 Y121.475 E18.22577
G1 X133.466 Y122.016 E18.23952
G1 X132.813 Y122.495 E18.25327
G1 X132.116 Y122.906 E18.267
G1 X131.382 Y123.248 E18.28075
G1 X130.617 Y123.514 E18.2945
G1 X129.83 Y123.705 E18.30825
G1 X129.028 Y123.817 E18.322
G1 X128.299 Y123.849 E18.33438
G1 X71.7 Y123.849 E19.29524
G1 X70.891 Y123.809 E19.30899
G1 X70.09 Y123.689 E19.32274
G1 X69.305 Y123.492 E19.33648
G1 X68.544 Y123.217 E19.35022
G1 X67.813 Y122.869 E19.36396
G1 X67.119 Y122.45 E19.37772
G1 X66.471 Y121.965 E19.39146
G1 X65.874 Y121.419 E19.4052
G1 X65.333 Y120.816 E19.41895
G1 X64.854 Y120.163 E19.4327
G1 X64.443 Y119.466 E19.44644
G1 X64.101 Y118.732 E19.46018
G1 X64.071 Y118.645 E19.46175
G1 X63.435 Y117.949 E19.47775
G1 X62.919 Y117.325 E19.4915
G1 X62.468 Y116.653 E19.50524
G1 X62.084 Y115.94 E19.51899
G1 X61.843 Y115.382 E19.5293
G1 X61.498 Y114.492 E19.54551
G1 X61.243 Y113.723 E19.55926
G1 X61.065 Y112.933 E19.57301
G1 X60.966 Y112.13 E19.58675
G1 X60.944 Y111.542 E19.59673
G1 X60.9 Y85.965 E20.03094
G1 X60.939 Y85.156 E20.04469
G1 X61.01 Y84.611 E20.05402
G1 X61.096 Y84.092 E20.06296
G1 X61.268 Y83.3 E20.07671
G1 X61.517 Y82.53 E20.09045
G1 X61.997 Y81.487 E20.10994
G1 X62.256 Y81.015 E20.11908
G1 X62.68 Y80.326 E20.13282
G1 X63.17 Y79.681 E20.14657
G1 X63.722 Y79.088 E20.16032
G1 X64.3 Y78.575 E20.17344
G0 F2700 X64.551 Y78.886
G1 F1800 X65.107 Y78.438 E20.18556
G1 X65.746 Y77.975 E20.19896
G1 X66.429 Y77.578 E20.21237
G1 X67.417 Y77.152 E20.23064
G1 X67.756 Y77.033 E20.23674
G1 X68.514 Y76.81 E20.25015
G1 X69.29 Y76.664 E20.26356
G1 X70.336 Y76.593 E20.28135
G1 X129.464 Y76.559 E21.28514
G1 X130.252 Y76.599 E21.29854
G1 X131.033 Y76.718 E21.31195
G1 X131.584 Y76.852 E21.32158
G1 X132.102 Y76.998 E21.33071
G1 X132.85 Y77.25 E21.34411
G1 X133.569 Y77.577 E21.35752
G1 X134.251 Y77.975 E21.37093
G1 X134.819 Y78.382 E21.38279
G1 X135.379 Y78.824 E21.3949
G1 X135.973 Y79.344 E21.4083
G1 X136.512 Y79.922 E21.42172
G1 X136.989 Y80.551 E21.43512
G1 X137.568 Y81.551 E21.45474
G1 X137.879 Y82.194 E21.46686
G1 X138.186 Y82.921 E21.48026
G1 X138.418 Y83.676 E21.49367
G1 X138.573 Y84.45 E21.50707
G1 X138.657 Y85.581 E21.52632
G1 X138.688 Y111.278 E21.96257
G1 X138.649 Y112.066 E21.97596
G1 X138.485 Y113.054 E21.99297
G1 X138.322 Y113.755 E22.00518
G1 X138.105 Y114.514 E22.01859
G1 X137.812 Y115.247 E22.03199
G1 X137.356 Y116.096 E22.04835
G1 X136.853 Y116.908 E22.06456
G1 X136.404 Y117.557 E22.07796
G1 X135.891 Y118.158 E22.09137
G1 X135.56 Y118.474 E22.09914
G1 X135.468 Y118.723 E22.10365
G1 X135.12 Y119.432 E22.11706
G1 X134.702 Y120.103 E22.13048
G1 X134.219 Y120.727 E22.14387
G1 X133.676 Y121.3 E22.15728
G1 X133.077 Y121.815 E22.17069
G1 X132.429 Y122.266 E22.18409
G1 X131.738 Y122.65 E22.19751
G1 X131.013 Y122.962 E22.21091
G1 X130.26 Y123.199 E22.22431
G1 X129.486 Y123.358 E22.23772
G1 X128.701 Y123.439 E22.25112
G1 X128.299 Y123.449 E22.25795
G1 X71.7 Y123.449 E23.2188
G1 X70.911 Y123.409 E23.23221
G1 X70.131 Y123.29 E23.24561
G1 X69.366 Y123.092 E23.25902
G1 X68.626 Y122.818 E23.27242
G1 X67.917 Y122.47 E23.28583
G1 X67.246 Y122.052 E23.29925
G1 X66.622 Y121.569 E23.31265
G1 X66.049 Y121.026 E23.32605
G1 X65.534 Y120.427 E23.33946
G1 X65.083 Y119.779 E23.35286
G1 X64.699 Y119.088 E23.36628
