;FLAVOR:RepRap
;TIME:10009
;Generated with Cura_SteamEngine 2.3.1
M190 S60
M104 S210
M109 S210
G21 ;metric values
G90 ;absolute positioning
M82 ;set extruder to absolute mode
M107 ;start with the fan off
G28 X0 Y0 ;move X/Y to min endstops
G28 Z0 ;move Z to min endstops
G1 Z15.0 F9000 ;move the platform down 15mm
G92 E0 ;zero the extruded length
G1 F200 E3 ;extrude 3mm of feed stock
G92 E0 ;zero the extruded length again
G1 F9000
;Put printing message on LCD screen
M117 Printing...
;LAYER_COUNT:250
;LAYER:0
M107
G1 F1500 E-6.5
G0 F2700 X44.647 Y35.415 Z.3
;TYPE:SKIRT
G1 F1500 E0
G1 F1800 X45.262 Y34.779 E0.01502
G1 X45.932 Y34.201 E0.03004
G1 X46.652 Y33.685 E0.04508
G1 X47.415 Y33.236 E0.06011
G1 X48.216 Y32.859 E0.07514
G1 X49.047 Y32.555 E0.09016
G1 X49.902 Y32.327 E0.10518
G1 X50.775 Y32.177 E0.12022
G1 X51.994 Y32.101 E0.14095
G1 X147.019 Y32.101 E1.75415
G1 X147.714 Y32.126 E1.76595
G1 X149.134 Y32.227 E1.79012
G1 X150.014 Y32.329 E1.80516
G1 X150.522 Y32.426 E1.81394
G1 X151.924 Y32.731 E1.8383
G1 X152.78 Y32.958 E1.85333
G1 X153.277 Y33.129 E1.86226
G1 X154.615 Y33.63 E1.88651
G1 X155.43 Y33.978 E1.90156
G1 X155.889 Y34.214 E1.91032
G1 X157.148 Y34.904 E1.93469
G1 X157.904 Y35.364 E1.94971
G1 X158.32 Y35.66 E1.95838
G1 X159.466 Y36.52 E1.98271
G1 X160.149 Y37.082 E1.99772
G1 X160.531 Y37.446 E2.00668
G1 X161.54 Y38.46 E2.03096
G1 X162.135 Y39.115 E2.04599
G1 X162.455 Y39.522 E2.05478
G1 X163.31 Y40.671 E2.07909
G1 X163.806 Y41.404 E2.09411
G1 X164.068 Y41.859 E2.10303
G1 X164.751 Y43.122 E2.1274
G1 X165.137 Y43.919 E2.14244
G1 X165.329 Y44.402 E2.15126
G1 X165.822 Y45.743 E2.17552
G1 X166.09 Y46.587 E2.19055
G1 X166.209 Y47.084 E2.19922
G1 X166.508 Y48.488 E2.22359
G1 X166.653 Y49.361 E2.23862
G1 X166.701 Y49.878 E2.24743
G1 X166.796 Y51.305 E2.27171
G1 X166.815 Y52.19 E2.28674
G1 X166.79 Y52.701 E2.29542
G1 X166.681 Y54.13 E2.31975
G1 X166.573 Y55.009 E2.33479
G1 X166.471 Y55.533 E2.34385
G1 X166.157 Y56.931 E2.36818
G1 X165.924 Y57.785 E2.3832
G1 X165.752 Y58.275 E2.39202
G1 X165.241 Y59.615 E2.41637
G1 X164.966 Y60.265 E2.42835
G1 X119.282 Y158.233 E4.26344
G1 X118.88 Y159.002 E4.27818
G1 X118.269 Y160.057 E4.29887
G1 X117.792 Y160.803 E4.3139
G1 X117.287 Y161.456 E4.32792
G1 X116.501 Y162.39 E4.34864
G1 X115.901 Y163.041 E4.36367
G1 X115.288 Y163.599 E4.37774
G1 X114.35 Y164.383 E4.3985
G1 X113.646 Y164.92 E4.41353
G1 X112.958 Y165.355 E4.42735
G1 X111.903 Y165.963 E4.44802
G1 X111.117 Y166.37 E4.46305
G1 X110.346 Y166.687 E4.4772
G1 X109.197 Y167.103 E4.49794
G1 X108.352 Y167.366 E4.51297
G1 X107.555 Y167.54 E4.52682
G1 X106.353 Y167.751 E4.54753
G1 X105.475 Y167.865 E4.56256
G1 X104.643 Y167.899 E4.5767
G1 X103.425 Y167.897 E4.59738
G1 X102.541 Y167.856 E4.6124
G1 X101.725 Y167.746 E4.62638
G1 X100.522 Y167.532 E4.64712
G1 X99.658 Y167.337 E4.66216
G1 X98.875 Y167.088 E4.67611
G1 X97.728 Y166.669 E4.69684
G1 X96.911 Y166.328 E4.71187
G1 X96.176 Y165.942 E4.72596
G1 X95.122 Y165.331 E4.74664
G1 X94.377 Y164.853 E4.76167
G1 X93.732 Y164.356 E4.77549
G1 X92.805 Y163.577 E4.79605
G1 X92.154 Y162.977 E4.81108
G1 X91.605 Y162.375 E4.82491
G1 X90.82 Y161.44 E4.84564
G1 X90.297 Y160.76 E4.8602
G1 X60.317 Y117.944 E5.74754
G1 X51.952 Y123.802 E5.92091
G1 X51.204 Y124.277 E5.93595
G1 X50.417 Y124.682 E5.95098
G1 X49.597 Y125.014 E5.966
G1 X48.75 Y125.272 E5.98103
G1 X47.883 Y125.451 E5.99606
G1 X47.004 Y125.552 E6.01108
G1 X46.119 Y125.573 E6.02611
G1 X45.235 Y125.514 E6.04115
G1 X44.361 Y125.375 E6.05617
G1 X43.503 Y125.158 E6.07119
G1 X42.668 Y124.865 E6.08622
G1 X41.862 Y124.497 E6.10126
G1 X41.094 Y124.059 E6.11627
G1 X40.367 Y123.552 E6.13132
G1 X39.69 Y122.983 E6.14633
G1 X39.067 Y122.354 E6.16136
G1 X38.303 Y121.396 E6.18216
G1 X36.581 Y118.937 E6.23312
G1 X36.106 Y118.19 E6.24815
G1 X35.701 Y117.403 E6.26318
G1 X35.368 Y116.583 E6.2782
G1 X35.111 Y115.736 E6.29323
G1 X34.932 Y114.869 E6.30826
G1 X34.831 Y113.989 E6.3233
G1 X34.81 Y113.104 E6.33832
G1 X34.869 Y112.221 E6.35335
G1 X35.008 Y111.347 E6.36837
G1 X35.225 Y110.489 E6.3834
G1 X35.518 Y109.653 E6.39843
G1 X35.886 Y108.848 E6.41346
G1 X36.324 Y108.079 E6.42849
G1 X36.831 Y107.353 E6.44352
G1 X37.401 Y106.676 E6.45854
G1 X38.029 Y106.052 E6.47357
G1 X38.987 Y105.288 E6.49437
G1 X52.925 Y95.528 E6.78324
G1 X53.661 Y95.061 E6.79803
G1 X54.567 Y94.54 E6.81578
G1 X55.353 Y94.133 E6.8308
G1 X56.104 Y93.824 E6.84459
G1 X57.089 Y93.466 E6.86238
G1 X57.934 Y93.202 E6.87741
G1 X58.735 Y93.026 E6.89133
G1 X59.767 Y92.844 E6.90912
G1 X60.645 Y92.73 E6.92415
G1 X61.478 Y92.695 E6.93831
G1 X62.522 Y92.696 E6.95603
G1 X63.407 Y92.737 E6.97107
G1 X64.226 Y92.847 E6.9851
G1 X65.257 Y93.03 E7.00288
G1 X66.12 Y93.224 E7.01789
G1 X66.9 Y93.471 E7.03178
G1 X67.885 Y93.83 E7.04958
G1 X68.702 Y94.171 E7.06461
G1 X69.438 Y94.556 E7.07871
G1 X70.34 Y95.078 E7.0964
G1 X71.085 Y95.556 E7.11143
G1 X71.741 Y96.061 E7.12548
G1 X72.542 Y96.735 E7.14326
G1 X73.193 Y97.335 E7.15829
G1 X73.733 Y97.927 E7.17189
G1 X74.404 Y98.725 E7.18959
G1 X74.931 Y99.411 E7.20427
G1 X103.049 Y139.569 E8.03652
G1 X119.533 Y104.215 E8.69874
G1 X90.895 Y54.701 E9.66979
G1 X51.993 Y54.701 E10.33021
G1 X51.109 Y54.661 E10.34523
G1 X50.232 Y54.541 E10.36026
G1 X49.369 Y54.343 E10.37529
G1 X48.528 Y54.068 E10.39031
G1 X47.715 Y53.718 E10.40534
G1 X46.936 Y53.296 E10.42038
G1 X46.2 Y52.805 E10.4354
G1 X45.51 Y52.25 E10.45043
G1 X44.873 Y51.635 E10.46546
G1 X44.295 Y50.965 E10.48049
G1 X43.779 Y50.246 E10.49551
G1 X43.33 Y49.483 E10.51054
G1 X42.952 Y48.682 E10.52558
G1 X42.648 Y47.851 E10.5406
G1 X42.42 Y46.996 E10.55562
G1 X42.27 Y46.123 E10.57066
G1 X42.193 Y44.898 E10.59149
G1 X42.194 Y41.898 E10.64242
G1 X42.234 Y41.013 E10.65746
G1 X42.354 Y40.136 E10.67249
G1 X42.553 Y39.274 E10.68751
G1 X42.828 Y38.433 E10.70253
G1 X43.179 Y37.62 E10.71756
G1 X43.601 Y36.842 E10.73259
G1 X44.092 Y36.105 E10.74762
G1 X44.647 Y35.415 E10.76266
G0 F2700 X45.042 Y35.574
G1 F1800 X45.655 Y34.96 E10.77739
G1 X46.321 Y34.406 E10.79209
G1 X47.036 Y33.915 E10.80682
G1 X47.793 Y33.492 E10.82154
G1 X48.585 Y33.141 E10.83625
G1 X49.407 Y32.864 E10.85097
G1 X50.251 Y32.664 E10.8657
G1 X51.109 Y32.543 E10.88041
G1 X51.994 Y32.501 E10.89545
G1 X147.019 Y32.501 E12.50864
G1 X147.686 Y32.525 E12.51997
G1 X149.106 Y32.626 E12.54414
G1 X149.967 Y32.727 E12.55886
G1 X150.437 Y32.817 E12.56698
G1 X151.839 Y33.122 E12.59134
G1 X152.677 Y33.345 E12.60606
G1 X153.137 Y33.504 E12.61432
G1 X154.475 Y34.005 E12.63858
G1 X155.272 Y34.346 E12.65329
G1 X155.697 Y34.565 E12.66141
G1 X156.956 Y35.255 E12.68578
G1 X157.696 Y35.706 E12.7005
G1 X158.08 Y35.98 E12.7085
G1 X159.226 Y36.84 E12.73283
G1 X159.895 Y37.391 E12.74754
G1 X160.247 Y37.728 E12.75581
G1 X161.256 Y38.742 E12.7801
G1 X161.839 Y39.384 E12.79482
G1 X162.134 Y39.76 E12.80293
G1 X162.989 Y40.909 E12.82725
G1 X163.474 Y41.628 E12.84197
G1 X163.716 Y42.05 E12.85023
G1 X164.399 Y43.313 E12.87461
G1 X164.776 Y44.093 E12.88931
G1 X164.954 Y44.54 E12.89748
G1 X165.447 Y45.881 E12.92174
G1 X165.708 Y46.708 E12.93646
G1 X165.818 Y47.167 E12.94447
G1 X166.117 Y48.571 E12.96884
G1 X166.258 Y49.426 E12.98355
G1 X166.302 Y49.905 E12.99172
G1 X166.397 Y51.332 E13.016
G1 X166.415 Y52.198 E13.0307
G1 X166.391 Y52.671 E13.03874
G1 X166.282 Y54.1 E13.06307
G1 X166.176 Y54.96 E13.07778
G1 X166.081 Y55.445 E13.08617
G1 X165.767 Y56.843 E13.1105
G1 X165.538 Y57.679 E13.12521
G1 X165.378 Y58.132 E13.13337
G1 X164.867 Y59.472 E13.15771
G1 X164.603 Y60.096 E13.16922
G1 X118.919 Y158.064 E15.00431
G1 X118.534 Y158.802 E15.01844
G1 X117.923 Y159.857 E15.03914
G1 X117.455 Y160.586 E15.05385
G1 X116.981 Y161.199 E15.067
G1 X116.195 Y162.133 E15.08773
G1 X115.607 Y162.769 E15.10243
G1 X115.031 Y163.292 E15.11564
G1 X114.093 Y164.076 E15.13639
G1 X113.403 Y164.601 E15.15111
G1 X112.759 Y165.008 E15.16404
G1 X111.704 Y165.616 E15.18472
G1 X110.933 Y166.014 E15.19945
G1 X110.21 Y166.311 E15.21271
G1 X109.061 Y166.727 E15.23346
G1 X108.233 Y166.984 E15.24818
G1 X107.486 Y167.146 E15.26115
G1 X106.284 Y167.357 E15.28187
G1 X105.424 Y167.468 E15.29659
G1 X104.644 Y167.499 E15.30985
G1 X103.426 Y167.497 E15.33052
G1 X102.56 Y167.456 E15.34524
G1 X101.795 Y167.352 E15.35835
G1 X100.592 Y167.138 E15.37909
G1 X99.746 Y166.947 E15.39381
G1 X99.013 Y166.712 E15.40688
G1 X97.866 Y166.293 E15.42761
G1 X97.066 Y165.959 E15.44233
G1 X96.377 Y165.596 E15.45555
G1 X95.323 Y164.985 E15.47623
G1 X94.594 Y164.516 E15.49095
G1 X93.99 Y164.049 E15.50391
G1 X93.063 Y163.27 E15.52447
G1 X92.425 Y162.683 E15.53918
G1 X91.911 Y162.118 E15.55215
G1 X91.126 Y161.183 E15.57288
G1 X90.625 Y160.531 E15.58684
G1 X60.415 Y117.387 E16.48098
G1 X51.722 Y123.475 E16.66115
G1 X50.99 Y123.939 E16.67586
G1 X50.218 Y124.333 E16.69057
G1 X49.413 Y124.655 E16.70529
G1 X48.582 Y124.901 E16.72
G1 X47.731 Y125.07 E16.73473
G1 X46.869 Y125.16 E16.74945
G1 X46.002 Y125.169 E16.76417
G1 X45.138 Y125.099 E16.77888
G1 X44.284 Y124.95 E16.7936
G1 X43.447 Y124.722 E16.80833
G1 X42.635 Y124.419 E16.82304
G1 X41.855 Y124.041 E16.83775
G1 X41.112 Y123.594 E16.85247
G1 X40.414 Y123.08 E16.86719
G1 X39.766 Y122.504 E16.88191
G1 X39.174 Y121.871 E16.89662
G1 X38.63 Y121.167 E16.91173
G1 X36.908 Y118.708 E16.96269
G1 X36.444 Y117.976 E16.9774
G1 X36.05 Y117.204 E16.99212
G1 X35.728 Y116.399 E17.00684
G1 X35.482 Y115.567 E17.02156
G1 X35.313 Y114.717 E17.03628
G1 X35.223 Y113.855 E17.05099
G1 X35.214 Y112.988 E17.06571
G1 X35.284 Y112.124 E17.08043
G1 X35.433 Y111.27 E17.09514
G1 X35.661 Y110.433 E17.10987
G1 X35.965 Y109.621 E17.12459
G1 X36.342 Y108.841 E17.1393
G1 X36.789 Y108.098 E17.15402
G1 X37.303 Y107.4 E17.16873
G1 X37.879 Y106.752 E17.18345
G1 X38.513 Y106.16 E17.19818
G1 X39.216 Y105.616 E17.21327
G1 X53.154 Y95.856 E17.50213
G1 X53.86 Y95.407 E17.51633
G1 X54.766 Y94.886 E17.53408
G1 X55.537 Y94.489 E17.5488
G1 X56.241 Y94.2 E17.56172
G1 X57.226 Y93.842 E17.57951
G1 X58.054 Y93.584 E17.59423
G1 X58.804 Y93.42 E17.60727
G1 X59.836 Y93.238 E17.62506
G1 X60.696 Y93.127 E17.63978
G1 X61.478 Y93.095 E17.65306
G1 X62.522 Y93.096 E17.67079
G1 X63.388 Y93.137 E17.68551
G1 X64.156 Y93.241 E17.69866
G1 X65.187 Y93.424 E17.71644
G1 X66.033 Y93.614 E17.73116
G1 X66.763 Y93.847 E17.74417
G1 X67.748 Y94.206 E17.76197
G1 X68.548 Y94.54 E17.77668
G1 X69.237 Y94.902 E17.7899
G1 X70.139 Y95.424 E17.80759
G1 X70.869 Y95.893 E17.82232
G1 X71.483 Y96.368 E17.8355
G1 X72.284 Y97.042 E17.85327
G1 X72.921 Y97.63 E17.86799
G1 X73.427 Y98.184 E17.88072
G1 X74.098 Y98.982 E17.89842
G1 X74.603 Y99.64 E17.9125
G1 X103.119 Y140.366 E18.75653
G1 X119.984 Y104.195 E19.43405
G1 X91.125 Y54.301 E20.41256
G1 X51.993 Y54.301 E21.07689
G1 X51.127 Y54.261 E21.0916
G1 X50.268 Y54.141 E21.10633
G1 X49.424 Y53.943 E21.12104
G1 X48.602 Y53.668 E21.13576
G1 X47.809 Y53.318 E21.15047
G1 X47.051 Y52.897 E21.16519
G1 X46.336 Y52.408 E21.1799
G1 X45.668 Y51.855 E21.19462
G1 X45.054 Y51.242 E21.20935
G1 X44.499 Y50.576 E21.22407
G1 X44.009 Y49.862 E21.23877
G1 X43.585 Y49.105 E21.2535
G1 X43.234 Y48.312 E21.26822
G1 X42.957 Y47.491 E21.28293
G1 X42.757 Y46.647 E21.29766
G1 X42.635 Y45.789 E21.31237
G1 X42.593 Y44.898 E21.32751
G1 X42.594 Y41.898 E21.37844
G1 X42.634 Y41.032 E21.39316
G1 X42.754 Y40.173 E21.40788
G1 X42.953 Y39.329 E21.4226
G1 X43.228 Y38.507 E21.43732
G1 X43.578 Y37.714 E21.45203
G1 X43.999 Y36.957 E21.46674
G1 X44.489 Y36.241 E21.48147
G1 X45.042 Y35.574 E21.49618
G0 F2700 X45.437 Y35.736
G1 F1800 X46.047 Y35.146 E21.51058
G1 X46.709 Y34.616 E21.52498
G1 X47.419 Y34.151 E21.53939
G1 X48.169 Y33.754 E21.5538
G1 X48.953 Y33.43 E21.5682
G1 X49.764 Y33.182 E21.58259
G1 X50.595 Y33.01 E21.597
G1 X51.438 Y32.918 E21.6114
G1 X51.994 Y32.901 E21.62084
G1 X147.019 Y32.901 E23.23403
G1 X147.658 Y32.924 E23.24489
G1 X149.078 Y33.025 E23.26906
G1 X149.92 Y33.125 E23.28345
G1 X150.352 Y33.208 E23.29092
G1 X151.754 Y33.513 E23.31528
G1 X152.574 Y33.732 E23.32969
G1 X152.997 Y33.878 E23.33728
G1 X154.335 Y34.379 E23.36154
G1 X155.114 Y34.714 E23.37593
G1 X155.504 Y34.916 E23.38339
G1 X156.763 Y35.606 E23.40776
G1 X157.487 Y36.048 E23.42216
G1 X157.84 Y36.3 E23.42953
G1 X158.986 Y37.16 E23.45385
G1 X159.64 Y37.7 E23.46825
G1 X159.964 Y38.01 E23.47586
G1 X160.973 Y39.024 E23.50015
G1 X161.542 Y39.653 E23.51454
G1 X161.813 Y39.999 E23.52201
G1 X162.668 Y41.148 E23.54632
G1 X163.142 Y41.852 E23.56073
G1 X163.365 Y42.24 E23.56832
G1 X164.048 Y43.503 E23.5927
G1 X164.415 Y44.267 E23.60709
G1 X164.578 Y44.678 E23.6146
G1 X165.071 Y46.019 E23.63885
G1 X165.326 Y46.829 E23.65327
G1 X165.427 Y47.25 E23.66062
G1 X165.726 Y48.654 E23.68499
G1 X165.863 Y49.491 E23.69939
G1 X165.903 Y49.931 E23.70689
G1 X165.998 Y51.358 E23.73116
G1 X166.015 Y52.206 E23.74556
G1 X165.992 Y52.641 E23.75296
G1 X165.883 Y54.07 E23.77729
G1 X165.779 Y54.911 E23.79167
G1 X165.69 Y55.357 E23.7994
G1 X165.376 Y56.755 E23.82372
G1 X165.152 Y57.573 E23.83812
G1 X165.004 Y57.99 E23.84563
G1 X164.493 Y59.33 E23.86998
G1 X164.241 Y59.927 E23.88098
G1 X118.557 Y157.895 E25.71607
G1 X118.188 Y158.601 E25.7296
G1 X117.577 Y159.656 E25.75029
G1 X117.118 Y160.37 E25.7647
G1 X116.675 Y160.941 E25.77697
G1 X115.889 Y161.875 E25.7977
G1 X115.313 Y162.498 E25.8121
G1 X114.775 Y162.986 E25.82443
G1 X113.837 Y163.77 E25.84518
G1 X113.161 Y164.282 E25.85958
G1 X112.559 Y164.662 E25.87167
G1 X111.504 Y165.27 E25.89234
G1 X110.75 Y165.658 E25.90673
G1 X110.074 Y165.934 E25.91913
G1 X108.925 Y166.35 E25.93987
G1 X108.115 Y166.601 E25.95427
G1 X107.417 Y166.752 E25.96639
G1 X106.215 Y166.963 E25.98711
G1 X105.374 Y167.071 E26.00151
G1 X104.644 Y167.099 E26.01391
G1 X103.426 Y167.097 E26.03459
G1 X102.579 Y167.056 E26.04898
G1 X101.865 Y166.958 E26.06122
G1 X100.662 Y166.744 E26.08196
G1 X99.834 Y166.556 E26.09637
G1 X99.15 Y166.337 E26.10857
G1 X98.003 Y165.918 E26.1293
G1 X97.221 Y165.589 E26.1437
G1 X96.577 Y165.25 E26.15606
G1 X95.523 Y164.639 E26.17674
G1 X94.81 Y164.18 E26.19113
G1 X94.247 Y163.743 E26.20323
G1 X93.32 Y162.964 E26.22379
G1 X92.697 Y162.388 E26.23819
G1 X92.217 Y161.861 E26.25029
G1 X91.432 Y160.926 E26.27102
G1 X90.953 Y160.301 E26.28439
G1 X60.514 Y116.829 E27.18532
G1 X51.493 Y123.147 E27.37229
G1 X50.776 Y123.6 E27.38669
G1 X50.019 Y123.984 E27.4011
G1 X49.23 Y124.295 E27.4155
G1 X48.415 Y124.53 E27.4299
G1 X47.581 Y124.688 E27.44431
G1 X46.737 Y124.766 E27.45869
G1 X45.888 Y124.764 E27.47311
G1 X45.044 Y124.683 E27.4875
G1 X44.211 Y124.522 E27.5019
G1 X43.397 Y124.284 E27.5163
G1 X42.609 Y123.97 E27.5307
G1 X41.854 Y123.583 E27.54511
G1 X41.139 Y123.127 E27.5595
G1 X40.47 Y122.605 E27.57391
G1 X39.853 Y122.023 E27.58831
G1 X39.293 Y121.386 E27.60271
G1 X38.958 Y120.938 E27.6122
G1 X37.236 Y118.479 E27.66317
G1 X36.783 Y117.762 E27.67756
G1 X36.399 Y117.005 E27.69197
G1 X36.088 Y116.216 E27.70637
G1 X35.853 Y115.401 E27.72077
G1 X35.695 Y114.567 E27.73518
G1 X35.617 Y113.722 E27.74959
G1 X35.619 Y112.874 E27.76398
G1 X35.7 Y112.03 E27.77838
G1 X35.861 Y111.197 E27.79278
G1 X36.099 Y110.383 E27.80718
G1 X36.413 Y109.595 E27.82158
G1 X36.8 Y108.84 E27.83598
G1 X37.256 Y108.124 E27.85039
G1 X37.778 Y107.455 E27.8648
G1 X38.36 Y106.838 E27.8792
G1 X38.997 Y106.279 E27.89359
G1 X39.446 Y105.944 E27.9031
G1 X53.384 Y96.184 E28.19196
G1 X54.059 Y95.754 E28.20555
G1 X54.965 Y95.233 E28.22329
G1 X55.72 Y94.845 E28.2377
G1 X56.378 Y94.576 E28.24977
G1 X57.363 Y94.218 E28.26756
G1 X58.173 Y93.966 E28.28196
G1 X58.874 Y93.814 E28.29414
G1 X59.906 Y93.632 E28.31193
G1 X60.747 Y93.524 E28.32632
G1 X61.478 Y93.495 E28.33874
G1 X62.522 Y93.496 E28.35646
G1 X63.369 Y93.537 E28.37086
G1 X64.086 Y93.635 E28.38315
G1 X65.117 Y93.818 E28.40092
G1 X65.944 Y94.005 E28.41532
G1 X66.626 Y94.223 E28.42747
G1 X67.611 Y94.582 E28.44527
G1 X68.393 Y94.91 E28.45967
G1 X69.037 Y95.248 E28.47201
G1 X69.939 Y95.77 E28.4897
G1 X70.652 Y96.229 E28.5041
G1 X71.226 Y96.674 E28.51643
G1 X72.027 Y97.348 E28.5342
G1 X72.649 Y97.924 E28.54859
G1 X73.12 Y98.442 E28.56048
G1 X73.791 Y99.24 E28.57818
G1 X74.275 Y99.87 E28.59167
G1 X103.188 Y141.163 E29.44744
G1 X120.434 Y104.175 E30.14027
G1 X91.356 Y53.901 E31.12622
G1 X51.993 Y53.901 E31.79447
