;FLAVOR:RepRap
;TIME:2503
;Generated with Cura_SteamEngine 2.3.1
M190 S60
M104 S210
M109 S210
G21 ;metric values
G90 ;absolute positioning
M82 ;set extruder to absolute mode
M107 ;start with the fan off
G28 X0 Y0 ;move X/Y to min endstops
G28 Z0 ;move Z to min endstops
G1 Z15.0 F9000 ;move the platform down 15mm
G92 E0 ;zero the extruded length
G1 F200 E3 ;extrude 3mm of feed stock
G92 E0 ;zero the extruded length again
G1 F9000
;Put printing message on LCD screen
M117 Printing...
;LAYER_COUNT:125
;LAYER:0
M107
G1 F1500 E-6.5
G0 F2700 X69.96 Y91.881 Z.3
;TYPE:SKIRT
G1 F1500 E0
G1 F1800 X70.693 Y91.384 E0.01503
G1 X71.467 Y90.956 E0.03005
G1 X71.837 Y90.793 E0.03691
G1 X72.055 Y90.567 E0.04224
G1 X72.725 Y89.989 E0.05727
G1 X73.444 Y89.473 E0.07229
G1 X74.207 Y89.024 E0.08732
G1 X75.008 Y88.646 E0.10236
G1 X75.839 Y88.342 E0.11738
G1 X76.694 Y88.114 E0.1324
G1 X77.567 Y87.964 E0.14744
G1 X78.789 Y87.887 E0.16822
G1 X79.679 Y87.887 E0.18333
G1 X80.563 Y87.927 E0.19836
G1 X81.44 Y88.047 E0.21338
G1 X82.303 Y88.245 E0.22841
G1 X83.144 Y88.52 E0.24344
G1 X83.957 Y88.87 E0.25846
G1 X84.736 Y89.292 E0.2735
G1 X84.831 Y89.355 E0.27544
G1 X84.884 Y89.253 E0.27739
G1 X85.361 Y88.507 E0.29242
G1 X85.903 Y87.807 E0.30745
G1 X86.34 Y87.326 E0.31848
G1 X87.108 Y86.535 E0.3372
G1 X87.919 Y85.789 E0.35591
G1 X89.128 Y84.796 E0.38247
G1 X89.837 Y84.266 E0.39749
G1 X90.59 Y83.801 E0.41252
G1 X91.383 Y83.407 E0.42755
G1 X92.208 Y83.086 E0.44258
G1 X93.058 Y82.84 E0.4576
G1 X93.927 Y82.673 E0.47262
G1 X94.388 Y82.616 E0.48051
G1 X95.018 Y82.554 E0.49126
G1 X95.902 Y82.507 E0.50629
G1 X96.787 Y82.54 E0.52132
G1 X97.337 Y82.602 E0.53072
G1 X97.894 Y82.68 E0.54026
G1 X98.764 Y82.842 E0.55529
G1 X99.279 Y82.987 E0.56437
G1 X99.516 Y82.965 E0.56841
G1 X100.401 Y82.963 E0.58344
G1 X100.696 Y82.989 E0.58846
G1 X101.438 Y82.797 E0.60147
G1 X102.106 Y82.68 E0.61299
G1 X102.663 Y82.602 E0.62254
G1 X103.544 Y82.519 E0.63756
G1 X104.429 Y82.515 E0.65258
G1 X104.996 Y82.555 E0.66223
G1 X105.627 Y82.618 E0.673
G1 X106.503 Y82.746 E0.68803
G1 X107.363 Y82.952 E0.70304
G1 X108.202 Y83.235 E0.71807
G1 X109.012 Y83.593 E0.73311
G1 X109.786 Y84.022 E0.74813
G1 X110.519 Y84.519 E0.76316
G1 X110.872 Y84.796 E0.77078
G1 X112.079 Y85.787 E0.79729
G1 X112.891 Y86.534 E0.81602
G1 X113.662 Y87.328 E0.83481
G1 X114.249 Y87.99 E0.84983
G1 X114.774 Y88.703 E0.86486
G1 X115.171 Y89.358 E0.87787
G1 X115.739 Y89.024 E0.88905
G1 X116.54 Y88.646 E0.90409
G1 X117.371 Y88.342 E0.91911
G1 X118.226 Y88.114 E0.93413
G1 X119.099 Y87.964 E0.94917
G1 X120.321 Y87.887 E0.96996
G1 X121.21 Y87.887 E0.98505
G1 X122.094 Y87.927 E1.00007
G1 X122.971 Y88.047 E1.0151
G1 X123.834 Y88.245 E1.03013
G1 X124.675 Y88.52 E1.04515
G1 X125.488 Y88.87 E1.06018
G1 X126.267 Y89.292 E1.07522
G1 X127.003 Y89.783 E1.09024
G1 X127.693 Y90.338 E1.10527
G1 X127.908 Y90.546 E1.11035
G1 X128.009 Y90.587 E1.1122
G1 X128.794 Y90.994 E1.12721
G1 X129.54 Y91.472 E1.14225
G1 X130.439 Y92.188 E1.16177
G1 X134.045 Y95.427 E1.24405
G1 X134.676 Y96.048 E1.25908
G1 X135.248 Y96.723 E1.2741
G1 X135.967 Y97.791 E1.29596
G1 X137.837 Y101.006 E1.3591
G1 X138.247 Y101.79 E1.37412
G1 X138.585 Y102.609 E1.38916
G1 X138.8 Y103.278 E1.40109
G1 X139.722 Y106.554 E1.45887
G1 X139.923 Y107.416 E1.47389
G1 X140.076 Y108.721 E1.4962
G1 X140.221 Y111.632 E1.54568
G1 X140.225 Y112.518 E1.56072
G1 X140.149 Y113.4 E1.57575
G1 X139.994 Y114.271 E1.59077
G1 X139.761 Y115.125 E1.60579
G1 X139.402 Y116.069 E1.62294
G1 X139.343 Y116.203 E1.62543
G1 X138.95 Y116.996 E1.64045
G1 X138.487 Y117.751 E1.65549
G1 X137.958 Y118.461 E1.67052
G1 X137.367 Y119.12 E1.68554
G1 X136.719 Y119.723 E1.70057
G1 X136.019 Y120.265 E1.7156
G1 X135.273 Y120.741 E1.73062
G1 X134.662 Y121.066 E1.74237
G1 X133.951 Y121.412 E1.7558
G1 X133.139 Y121.763 E1.77081
G1 X132.298 Y122.039 E1.78584
G1 X131.435 Y122.238 E1.80088
G1 X131.075 Y122.288 E1.80705
G1 X130.375 Y122.457 E1.81927
G1 X129.499 Y122.587 E1.83431
G1 X128.615 Y122.636 E1.84934
G1 X128.26 Y122.624 E1.85537
G1 X127.77 Y122.65 E1.8637
G1 X126.885 Y122.617 E1.87873
G1 X126.779 Y122.603 E1.88055
G1 X125.956 Y122.595 E1.89452
G1 X125.342 Y122.533 E1.90499
G1 X125.004 Y122.564 E1.91076
G1 X124.119 Y122.566 E1.92578
G1 X123.237 Y122.487 E1.94081
G1 X123.043 Y122.452 E1.94416
G1 X121.04 Y122.452 E1.97817
G1 X120.156 Y122.412 E1.99319
G1 X119.279 Y122.292 E2.00821
G1 X118.416 Y122.094 E2.02325
G1 X117.575 Y121.819 E2.03827
G1 X116.762 Y121.469 E2.05329
G1 X115.983 Y121.047 E2.06833
G1 X115.247 Y120.556 E2.08335
G1 X115.19 Y120.51 E2.0846
G1 X114.838 Y120.274 E2.09179
G1 X114.496 Y119.996 E2.09927
G1 X114.154 Y120.163 E2.10574
G1 X113.327 Y120.48 E2.12077
G1 X112.475 Y120.72 E2.1358
G1 X111.605 Y120.883 E2.15082
G1 X110.724 Y120.966 E2.16585
G1 X110.242 Y120.978 E2.17403
G1 X103.877 Y120.978 E2.28209
G1 X102.993 Y120.938 E2.29711
G1 X102.116 Y120.818 E2.31214
G1 X101.253 Y120.62 E2.32717
G1 X100.412 Y120.345 E2.34219
G1 X100.012 Y120.173 E2.34958
G1 X99.995 Y120.173 E2.34987
G1 X99.799 Y120.263 E2.35353
G1 X98.964 Y120.557 E2.36856
G1 X98.106 Y120.775 E2.38359
G1 X97.232 Y120.915 E2.39862
G1 X96.123 Y120.978 E2.41747
G1 X89.759 Y120.978 E2.52551
G1 X88.875 Y120.938 E2.54053
G1 X87.998 Y120.818 E2.55556
G1 X87.135 Y120.62 E2.57059
G1 X86.294 Y120.345 E2.58561
G1 X85.503 Y120.005 E2.60023
G1 X85.297 Y120.178 E2.6048
G1 X84.57 Y120.683 E2.61982
G1 X84.509 Y120.718 E2.62102
G1 X84.177 Y120.948 E2.62788
G1 X83.407 Y121.385 E2.64291
G1 X82.601 Y121.75 E2.65793
G1 X81.765 Y122.042 E2.67296
G1 X80.907 Y122.257 E2.68798
G1 X80.032 Y122.393 E2.70301
G1 X78.96 Y122.452 E2.72124
G1 X76.941 Y122.452 E2.75551
G1 X76.688 Y122.496 E2.75987
G1 X75.806 Y122.568 E2.77489
G1 X74.921 Y122.561 E2.78992
G1 X74.675 Y122.536 E2.79412
G1 X74.615 Y122.546 E2.79515
G1 X73.732 Y122.607 E2.81017
G1 X73.257 Y122.597 E2.81824
G1 X72.794 Y122.641 E2.82614
G1 X72.09 Y122.644 E2.83809
G1 X71.431 Y122.671 E2.84928
G1 X70.547 Y122.627 E2.86431
G1 X69.671 Y122.503 E2.87933
G1 X68.809 Y122.3 E2.89436
G1 X68.678 Y122.257 E2.8967
G1 X68.336 Y122.201 E2.90259
G1 X67.479 Y121.98 E2.91761
G1 X66.645 Y121.682 E2.93265
G1 X66.08 Y121.43 E2.94315
G1 X65.349 Y121.076 E2.95694
G1 X64.57 Y120.655 E2.97197
G1 X63.833 Y120.165 E2.987
G1 X63.143 Y119.61 E3.00203
G1 X62.506 Y118.996 E3.01705
G1 X61.927 Y118.326 E3.03208
G1 X61.41 Y117.607 E3.04712
G1 X60.961 Y116.845 E3.06213
G1 X60.705 Y116.326 E3.07195
G1 X60.642 Y116.188 E3.07453
G1 X60.311 Y115.367 E3.08956
G1 X60.056 Y114.519 E3.10459
G1 X59.878 Y113.652 E3.11962
G1 X59.779 Y112.772 E3.13465
G1 X59.768 Y111.652 E3.15366
G1 X59.905 Y108.775 E3.20256
G1 X59.987 Y107.893 E3.2176
G1 X60.148 Y107.023 E3.23262
G1 X60.263 Y106.579 E3.24041
G1 X61.199 Y103.263 E3.2989
G1 X61.477 Y102.423 E3.31392
G1 X61.831 Y101.611 E3.32896
G1 X62.168 Y100.982 E3.34107
G1 X64.049 Y97.762 E3.40438
G1 X64.53 Y97.018 E3.41942
G1 X65.075 Y96.321 E3.43444
G1 X65.966 Y95.411 E3.45606
G1 X69.275 Y92.442 E3.53154
G1 X69.96 Y91.881 E3.54657
G0 F2700 X70.214 Y92.191
G1 F1800 X70.933 Y91.706 E3.56129
G1 X71.693 Y91.29 E3.576
G1 X72.069 Y91.127 E3.58296
G1 X72.448 Y90.748 E3.59206
G1 X73.114 Y90.193 E3.60677
G1 X73.828 Y89.703 E3.62147
G1 X74.585 Y89.279 E3.6362
G1 X75.378 Y88.928 E3.65093
G1 X76.199 Y88.651 E3.66564
G1 X77.043 Y88.451 E3.68036
G1 X77.901 Y88.329 E3.69507
G1 X78.789 Y88.287 E3.71016
G1 X79.679 Y88.287 E3.72527
G1 X80.545 Y88.327 E3.73999
G1 X81.404 Y88.447 E3.75472
G1 X82.248 Y88.645 E3.76943
G1 X83.07 Y88.92 E3.78415
G1 X83.863 Y89.27 E3.79886
G1 X84.621 Y89.691 E3.81358
G1 X84.98 Y89.937 E3.82097
G1 X85.239 Y89.437 E3.83053
G1 X85.708 Y88.708 E3.84525
G1 X86.243 Y88.026 E3.85996
G1 X86.627 Y87.605 E3.86964
G1 X87.395 Y86.814 E3.88835
G1 X88.173 Y86.098 E3.9063
G1 X89.382 Y85.105 E3.93286
G1 X90.076 Y84.586 E3.94757
G1 X90.816 Y84.134 E3.96229
G1 X91.594 Y83.751 E3.97702
G1 X92.404 Y83.442 E3.99173
G1 X93.239 Y83.209 E4.00645
G1 X94.427 Y83.014 E4.02689
G1 X95.057 Y82.952 E4.03764
G1 X95.923 Y82.907 E4.05236
G1 X96.789 Y82.942 E4.06707
G1 X97.282 Y82.998 E4.07549
G1 X97.839 Y83.076 E4.08504
G1 X98.691 Y83.236 E4.09976
G1 X99.242 Y83.393 E4.10948
G1 X99.571 Y83.363 E4.11509
G1 X100.438 Y83.365 E4.12981
G1 X100.729 Y83.393 E4.13478
G1 X101.556 Y83.181 E4.14927
G1 X102.161 Y83.076 E4.15969
G1 X102.718 Y82.998 E4.16924
G1 X103.582 Y82.917 E4.18397
G1 X104.449 Y82.917 E4.19869
G1 X104.956 Y82.954 E4.20732
G1 X105.587 Y83.017 E4.21809
G1 X106.445 Y83.142 E4.23281
G1 X107.287 Y83.347 E4.24752
G1 X108.107 Y83.628 E4.26223
G1 X108.898 Y83.983 E4.27695
G1 X109.653 Y84.41 E4.29168
G1 X110.618 Y85.105 E4.31187
G1 X111.825 Y86.096 E4.33838
G1 X112.604 Y86.813 E4.35635
G1 X113.375 Y87.607 E4.37514
G1 X113.949 Y88.256 E4.38985
G1 X114.462 Y88.955 E4.40457
G1 X114.908 Y89.699 E4.4193
G1 X115.025 Y89.933 E4.42374
G1 X115.36 Y89.703 E4.43064
G1 X116.117 Y89.279 E4.44537
G1 X116.91 Y88.928 E4.46009
G1 X117.731 Y88.651 E4.4748
G1 X118.575 Y88.451 E4.48952
G1 X119.433 Y88.329 E4.50423
G1 X120.321 Y88.287 E4.51933
G1 X121.21 Y88.287 E4.53442
G1 X122.076 Y88.327 E4.54914
G1 X122.935 Y88.447 E4.56386
G1 X123.779 Y88.645 E4.57858
G1 X124.601 Y88.92 E4.59329
G1 X125.394 Y89.27 E4.60801
G1 X126.152 Y89.691 E4.62273
G1 X126.867 Y90.18 E4.63743
G1 X127.535 Y90.733 E4.65216
G1 X127.693 Y90.891 E4.65595
G1 X127.889 Y90.972 E4.65955
G1 X128.656 Y91.377 E4.67427
G1 X129.382 Y91.85 E4.68898
G1 X130.171 Y92.486 E4.70619
G1 X133.777 Y95.725 E4.78848
G1 X134.395 Y96.333 E4.80319
G1 X134.954 Y96.996 E4.81792
G1 X135.621 Y97.992 E4.83826
G1 X137.491 Y101.207 E4.90141
G1 X137.892 Y101.976 E4.91613
G1 X138.221 Y102.778 E4.93085
G1 X138.414 Y103.386 E4.94167
G1 X139.336 Y106.662 E4.99945
G1 X139.533 Y107.507 E5.01418
G1 X139.676 Y108.741 E5.03527
G1 X139.821 Y111.652 E5.08475
G1 X139.825 Y112.519 E5.09947
G1 X139.748 Y113.383 E5.11419
G1 X139.592 Y114.236 E5.12892
G1 X139.358 Y115.07 E5.14362
G1 X139.036 Y115.908 E5.15886
G1 X138.977 Y116.042 E5.16135
G1 X138.591 Y116.818 E5.17606
G1 X138.136 Y117.556 E5.19078
G1 X137.614 Y118.249 E5.20551
G1 X137.031 Y118.89 E5.22022
G1 X136.392 Y119.475 E5.23492
G1 X135.701 Y119.999 E5.24965
G1 X134.965 Y120.457 E5.26436
G1 X134.487 Y120.706 E5.27351
G1 X133.776 Y121.052 E5.28694
G1 X132.98 Y121.395 E5.30165
G1 X132.156 Y121.663 E5.31636
G1 X131.31 Y121.855 E5.33109
G1 X131.001 Y121.895 E5.33638
G1 X130.263 Y122.071 E5.34926
G1 X129.405 Y122.194 E5.36397
G1 X128.539 Y122.237 E5.37869
G1 X128.247 Y122.225 E5.38365
G1 X127.695 Y122.25 E5.39303
G1 X126.829 Y122.21 E5.40775
G1 X126.791 Y122.205 E5.4084
G1 X126.773 Y122.206 E5.40871
G1 X125.906 Y122.191 E5.42343
G1 X125.35 Y122.13 E5.43292
G1 X124.95 Y122.166 E5.43974
G1 X124.083 Y122.164 E5.45446
G1 X123.22 Y122.081 E5.46918
G1 X123.067 Y122.052 E5.47182
G1 X121.04 Y122.052 E5.50623
G1 X120.174 Y122.012 E5.52095
G1 X119.315 Y121.892 E5.53568
G1 X118.471 Y121.694 E5.55039
G1 X117.649 Y121.419 E5.56511
G1 X116.856 Y121.069 E5.57982
G1 X116.098 Y120.648 E5.59454
G1 X115.383 Y120.159 E5.60925
G1 X115.37 Y120.148 E5.60954
G1 X115.019 Y119.909 E5.61675
G1 X114.558 Y119.528 E5.6269
G1 X113.78 Y119.887 E5.64145
G1 X112.963 Y120.176 E5.65616
G1 X112.122 Y120.388 E5.67088
G1 X111.266 Y120.522 E5.68559
G1 X110.242 Y120.578 E5.703
G1 X103.877 Y120.578 E5.81106
G1 X103.011 Y120.538 E5.82577
G1 X102.152 Y120.418 E5.8405
G1 X101.308 Y120.22 E5.85522
G1 X100.486 Y119.945 E5.86993
G1 X100.096 Y119.773 E5.87717
G1 X99.905 Y119.773 E5.88041
G1 X99.432 Y119.976 E5.88915
G1 X98.607 Y120.244 E5.90387
G1 X97.762 Y120.434 E5.91858
G1 X96.902 Y120.546 E5.9333
G1 X96.123 Y120.578 E5.94654
G1 X89.759 Y120.578 E6.05457
G1 X88.893 Y120.538 E6.06929
G1 X88.034 Y120.418 E6.08402
G1 X87.19 Y120.22 E6.09873
G1 X86.368 Y119.945 E6.11345
G1 X85.575 Y119.595 E6.12816
G1 X85.454 Y119.528 E6.13051
G1 X84.911 Y119.967 E6.14237
G1 X84.391 Y120.314 E6.15298
G1 X83.919 Y120.638 E6.1627
G1 X83.162 Y121.06 E6.17741
G1 X82.369 Y121.412 E6.19214
G1 X81.548 Y121.689 E6.20685
G1 X80.704 Y121.889 E6.22157
G1 X79.846 Y122.01 E6.23628
G1 X78.96 Y122.052 E6.25134
G1 X76.907 Y122.052 E6.2862
G1 X76.602 Y122.104 E6.29145
G1 X75.738 Y122.17 E6.30616
G1 X74.871 Y122.157 E6.32088
G1 X74.637 Y122.132 E6.32487
G1 X74.321 Y122.174 E6.33029
G1 X73.454 Y122.21 E6.34502
G1 X73.25 Y122.2 E6.34848
G1 X72.524 Y122.25 E6.36084
G1 X72.189 Y122.243 E6.36653
G1 X71.344 Y122.27 E6.38088
G1 X70.478 Y122.218 E6.39561
G1 X69.621 Y122.086 E6.41033
G1 X68.78 Y121.876 E6.42504
G1 X68.738 Y121.86 E6.42581
G1 X68.349 Y121.794 E6.43251
G1 X67.511 Y121.571 E6.44723
G1 X66.697 Y121.271 E6.46195
G1 X66.254 Y121.07 E6.47021
G1 X65.523 Y120.716 E6.484
G1 X64.761 Y120.303 E6.49872
G1 X64.04 Y119.821 E6.51344
G1 X63.367 Y119.275 E6.52815
G1 X62.747 Y118.669 E6.54287
G1 X62.185 Y118.008 E6.5576
G1 X61.687 Y117.299 E6.57231
G1 X61.069 Y116.16 E6.59431
G1 X61.006 Y116.022 E6.59688
G1 X60.683 Y115.217 E6.61161
G1 X60.435 Y114.387 E6.62631
G1 X60.265 Y113.536 E6.64104
G1 X60.173 Y112.674 E6.65576
G1 X60.168 Y111.671 E6.67279
G1 X60.305 Y108.794 E6.72169
G1 X60.386 Y107.931 E6.7364
G1 X60.647 Y106.687 E6.75798
G1 X61.583 Y103.371 E6.81647
G1 X61.857 Y102.549 E6.83118
G1 X62.206 Y101.755 E6.84591
G1 X62.513 Y101.184 E6.85691
G1 X64.394 Y97.964 E6.92022
G1 X64.866 Y97.236 E6.93495
G1 X65.402 Y96.555 E6.94966
G1 X66.233 Y95.708 E6.96981
G1 X69.542 Y92.739 E7.04528
G1 X70.214 Y92.191 E7.06
G0 F2700 X70.467 Y92.501
G1 F1800 X71.172 Y92.029 E7.0744
G1 X71.918 Y91.626 E7.0888
G1 X72.287 Y91.469 E7.09561
G1 X72.84 Y90.934 E7.10867
G1 X73.502 Y90.404 E7.12306
G1 X74.211 Y89.938 E7.13747
G1 X74.961 Y89.542 E7.15187
G1 X75.745 Y89.217 E7.16627
G1 X76.556 Y88.968 E7.18068
G1 X77.387 Y88.797 E7.19508
G1 X78.23 Y88.704 E7.20948
G1 X78.789 Y88.687 E7.21897
G1 X79.679 Y88.687 E7.23408
G1 X80.526 Y88.727 E7.24848
G1 X81.366 Y88.847 E7.26288
G1 X82.191 Y89.045 E7.27728
G1 X82.994 Y89.32 E7.29169
G1 X83.767 Y89.669 E7.30609
G1 X84.503 Y90.089 E7.32048
G1 X85.131 Y90.531 E7.33352
G1 X85.203 Y90.375 E7.33643
G1 X85.595 Y89.622 E7.35084
G1 X86.056 Y88.91 E7.36524
G1 X86.582 Y88.245 E7.37964
G1 X86.914 Y87.884 E7.38796
G1 X87.682 Y87.093 E7.40668
G1 X88.427 Y86.407 E7.42387
G1 X89.636 Y85.414 E7.45043
G1 X90.316 Y84.907 E7.46483
G1 X91.041 Y84.467 E7.47923
G1 X91.804 Y84.096 E7.49363
G1 X92.599 Y83.799 E7.50804
G1 X93.418 Y83.578 E7.52244
G1 X94.467 Y83.412 E7.54047
G1 X95.097 Y83.35 E7.55122
G1 X95.944 Y83.307 E7.56562
G1 X96.791 Y83.344 E7.58001
G1 X97.226 Y83.394 E7.58744
G1 X97.783 Y83.472 E7.59699
G1 X98.617 Y83.629 E7.6114
G1 X99.203 Y83.798 E7.62175
G1 X99.625 Y83.761 E7.62894
G1 X100.473 Y83.767 E7.64334
G1 X100.779 Y83.798 E7.64856
G1 X100.85 Y83.773 E7.64984
G1 X101.673 Y83.565 E7.66425
G1 X102.217 Y83.472 E7.67362
G1 X102.774 Y83.394 E7.68317
G1 X103.619 Y83.316 E7.69757
G1 X104.467 Y83.318 E7.71197
G1 X104.916 Y83.352 E7.71961
G1 X105.547 Y83.415 E7.73038
G1 X106.386 Y83.538 E7.74477
G1 X107.21 Y83.741 E7.75918
G1 X108.011 Y84.02 E7.77358
G1 X108.782 Y84.373 E7.78798
G1 X109.517 Y84.798 E7.80239
G1 X110.364 Y85.414 E7.82017
G1 X111.571 Y86.405 E7.84668
G1 X112.317 Y87.091 E7.86389
G1 X113.088 Y87.885 E7.88268
G1 X113.649 Y88.521 E7.89707
G1 X114.149 Y89.207 E7.91148
G1 X114.581 Y89.937 E7.92588
G1 X114.797 Y90.371 E7.93411
G1 X114.872 Y90.533 E7.93715
G1 X115.034 Y90.404 E7.94066
G1 X115.743 Y89.938 E7.95506
G1 X116.493 Y89.542 E7.96946
G1 X117.277 Y89.217 E7.98387
G1 X118.088 Y88.968 E7.99827
G1 X118.919 Y88.797 E8.01268
G1 X119.762 Y88.704 E8.02707
G1 X120.321 Y88.687 E8.03657
G1 X121.21 Y88.687 E8.05166
G1 X122.057 Y88.727 E8.06606
G1 X122.897 Y88.847 E8.08046
G1 X123.722 Y89.045 E8.09486
G1 X124.525 Y89.32 E8.10927
G1 X125.298 Y89.669 E8.12367
G1 X126.034 Y90.089 E8.13806
G1 X126.728 Y90.577 E8.15246
G1 X127.373 Y91.128 E8.16686
G1 X127.476 Y91.235 E8.16938
G1 X127.769 Y91.358 E8.17478
G1 X128.516 Y91.759 E8.18917
G1 X129.222 Y92.229 E8.20357
G1 X129.904 Y92.783 E8.21849
G1 X133.51 Y96.022 E8.30077
G1 X134.114 Y96.618 E8.31518
G1 X134.659 Y97.269 E8.32959
G1 X135.276 Y98.193 E8.34845
G1 X137.146 Y101.408 E8.41159
G1 X137.537 Y102.161 E8.426
