;FLAVOR:RepRap
;TIME:551
;Generated with Cura_SteamEngine 2.3.1
M190 S60
M104 S210
M109 S210
G21 ;metric values
G90 ;absolute positioning
M82 ;set extruder to absolute mode
M107 ;start with the fan off
G28 X0 Y0 ;move X/Y to min endstops
G28 Z0 ;move Z to min endstops
G1 Z15.0 F9000 ;move the platform down 15mm
G92 E0 ;zero the extruded length
G1 F200 E3 ;extrude 3mm of feed stock
G92 E0 ;zero the extruded length again
G1 F9000
;Put printing message on LCD screen
M117 Printing...
;LAYER_COUNT:50
;LAYER:0
M107
G1 F1500 E-6.5
G0 F5400 X87.805 Y88.625 Z.3
G0 X88.038 Y88.404
;TYPE:SKIRT
G1 F1500 E0
G1 F1800 X89.498 Y87.128 E0.03292
G1 X89.55 Y87.083 E0.03409
G1 X90.709 Y86.105 E0.05983
G1 X91.166 Y85.772 E0.06943
G1 X91.665 Y85.506 E0.07903
G1 X92.107 Y85.341 E0.08704
G1 X92.553 Y85.203 E0.09496
G1 X93.103 Y85.074 E0.10455
G1 X93.866 Y85.026 E0.11753
G1 X98.073 Y85.164 E0.18899
G1 X106.265 Y85.031 E0.32808
G1 X106.829 Y85.061 E0.33767
G1 X107.384 Y85.171 E0.34728
G1 X107.813 Y85.315 E0.35496
G1 X108.259 Y85.493 E0.36311
G1 X108.768 Y85.739 E0.37271
G1 X109.393 Y86.183 E0.38572
G1 X111.954 Y88.398 E0.44321
G1 X112.53 Y89.013 E0.45751
G1 X117.956 Y96.203 E0.61043
G1 X118.264 Y96.678 E0.62004
G1 X118.502 Y97.191 E0.62964
G1 X118.663 Y97.724 E0.63909
G1 X118.793 Y98.294 E0.64902
G1 X118.879 Y98.852 E0.6586
G1 X118.886 Y99.418 E0.66821
G1 X118.813 Y99.978 E0.6778
G1 X118.662 Y100.523 E0.6874
G1 X118.539 Y100.829 E0.693
G1 X116.746 Y104.801 E0.76698
G1 X116.477 Y105.298 E0.77657
G1 X116.141 Y105.753 E0.78618
G1 X115.745 Y106.156 E0.79577
G1 X115.499 Y106.356 E0.80115
G1 X109.368 Y110.951 E0.93122
G1 X105.706 Y114.022 E1.01236
G1 X105.248 Y114.353 E1.02195
G1 X104.552 Y114.697 E1.03513
G1 X103.945 Y114.927 E1.04615
G1 X103.404 Y115.09 E1.05574
G1 X102.845 Y115.174 E1.06534
G1 X102.492 Y115.187 E1.07134
G1 X97.179 Y115.139 E1.16153
G1 X96.615 Y115.094 E1.17114
G1 X96.064 Y114.97 E1.18073
G1 X95.422 Y114.715 E1.19246
G1 X95.091 Y114.549 E1.19874
G1 X94.605 Y114.26 E1.20834
G1 X94.31 Y114.035 E1.21464
G1 X90.819 Y111.1 E1.29207
G1 X86.439 Y107.786 E1.38531
G1 X84.919 Y106.722 E1.41681
G1 X84.43 Y106.318 E1.42758
G1 X84.109 Y106.007 E1.43516
G1 X83.731 Y105.586 E1.44477
G1 X83.417 Y105.116 E1.45436
G1 X83.263 Y104.817 E1.46007
G1 X81.509 Y101.035 E1.53085
G1 X81.308 Y100.507 E1.54044
G1 X81.184 Y99.955 E1.55004
G1 X81.138 Y99.392 E1.55963
G1 X81.147 Y99.086 E1.56483
G1 X81.189 Y98.455 E1.57557
G1 X81.266 Y97.895 E1.58516
G1 X81.422 Y97.352 E1.59475
G1 X81.652 Y96.836 E1.60434
G1 X82.032 Y96.253 E1.61616
G1 X84.226 Y93.456 E1.67651
G1 X87.44 Y89.056 E1.76901
G1 X87.805 Y88.625 E1.7786
G1 X88.038 Y88.404 E1.78405
G0 F5400 X88.301 Y88.705
G1 F1800 X89.761 Y87.429 E1.81697
G1 X89.808 Y87.389 E1.81802
G1 X90.967 Y86.411 E1.84376
G1 X91.402 Y86.096 E1.85288
G1 X91.878 Y85.85 E1.86197
G1 X92.225 Y85.723 E1.86825
G1 X92.671 Y85.585 E1.87617
G1 X93.194 Y85.465 E1.88528
G1 X93.853 Y85.426 E1.89649
G1 X98.046 Y85.564 E1.96771
G1 X106.271 Y85.43 E2.10736
G1 X106.807 Y85.462 E2.11648
G1 X107.332 Y85.572 E2.12558
G1 X107.664 Y85.686 E2.13154
G1 X108.11 Y85.864 E2.13969
G1 X108.592 Y86.1 E2.1488
G1 X109.131 Y86.485 E2.16005
G1 X111.692 Y88.7 E2.21753
G1 X112.211 Y89.254 E2.23042
G1 X117.637 Y96.444 E2.38334
G1 X117.927 Y96.895 E2.39244
G1 X118.147 Y97.384 E2.40154
G1 X118.273 Y97.813 E2.40913
G1 X118.403 Y98.383 E2.41906
G1 X118.483 Y98.913 E2.42816
G1 X118.483 Y99.449 E2.43726
G1 X118.404 Y99.979 E2.44636
G1 X118.174 Y100.664 E2.45862
G1 X116.381 Y104.636 E2.5326
G1 X116.125 Y105.107 E2.54171
G1 X115.801 Y105.535 E2.55082
G1 X115.259 Y106.036 E2.56335
G1 X109.113 Y110.641 E2.69373
G1 X105.449 Y113.715 E2.77492
G1 X105.013 Y114.028 E2.78403
G1 X104.411 Y114.323 E2.79541
G1 X103.804 Y114.553 E2.80643
G1 X103.289 Y114.706 E2.81555
G1 X102.495 Y114.787 E2.8291
G1 X97.182 Y114.739 E2.9193
G1 X96.648 Y114.694 E2.9284
G1 X96.126 Y114.57 E2.93751
G1 X95.601 Y114.357 E2.94713
G1 X95.27 Y114.191 E2.95341
G1 X94.81 Y113.916 E2.96251
G1 X94.568 Y113.729 E2.9677
G1 X91.066 Y110.785 E3.04537
G1 X86.683 Y107.468 E3.13868
G1 X85.148 Y106.394 E3.17049
G1 X84.708 Y106.031 E3.18017
G1 X84.387 Y105.72 E3.18776
G1 X84.031 Y105.319 E3.19686
G1 X83.626 Y104.649 E3.21015
G1 X81.872 Y100.867 E3.28093
G1 X81.683 Y100.365 E3.29003
G1 X81.571 Y99.84 E3.29915
G1 X81.546 Y99.113 E3.3115
G1 X81.588 Y98.482 E3.32223
G1 X81.663 Y97.951 E3.33134
G1 X81.817 Y97.437 E3.34045
G1 X82.045 Y96.952 E3.34954
G1 X82.347 Y96.499 E3.35879
G1 X84.551 Y93.689 E3.41941
G1 X87.763 Y89.292 E3.51185
G1 X88.301 Y88.705 E3.52537
G0 F5400 X88.564 Y89.007
G1 F1800 X90.024 Y87.731 E3.55829
G1 X90.066 Y87.694 E3.55924
G1 X91.225 Y86.716 E3.58499
G1 X91.636 Y86.422 E3.59356
G1 X92.088 Y86.196 E3.60214
G1 X92.343 Y86.105 E3.60674
G1 X92.789 Y85.967 E3.61467
G1 X93.282 Y85.856 E3.62324
G1 X93.84 Y85.826 E3.63273
G1 X98.039 Y85.964 E3.70405
G1 X106.278 Y85.83 E3.84394
G1 X106.783 Y85.862 E3.85253
G1 X107.276 Y85.973 E3.86111
G1 X107.516 Y86.058 E3.86543
G1 X107.962 Y86.236 E3.87359
G1 X108.415 Y86.46 E3.88216
G1 X108.869 Y86.788 E3.89167
G1 X111.43 Y89.003 E3.94916
G1 X111.891 Y89.495 E3.9606
G1 X117.317 Y96.685 E4.11352
G1 X117.589 Y97.112 E4.12211
G1 X117.79 Y97.576 E4.1307
G1 X117.883 Y97.901 E4.13644
G1 X118.013 Y98.471 E4.14636
G1 X118.086 Y98.972 E4.15496
G1 X118.079 Y99.477 E4.16353
G1 X117.993 Y99.975 E4.17211
G1 X117.81 Y100.5 E4.18155
G1 X116.017 Y104.472 E4.25553
G1 X115.773 Y104.915 E4.26412
G1 X115.462 Y105.314 E4.27271
G1 X115.019 Y105.716 E4.28286
G1 X108.871 Y110.323 E4.41329
G1 X105.192 Y113.409 E4.49481
G1 X104.78 Y113.702 E4.50339
G1 X104.269 Y113.949 E4.51302
G1 X103.662 Y114.179 E4.52404
G1 X103.176 Y114.321 E4.53264
G1 X102.499 Y114.387 E4.54419
G1 X97.186 Y114.339 E4.63439
G1 X96.682 Y114.294 E4.64298
G1 X96.192 Y114.171 E4.65155
G1 X95.78 Y113.999 E4.65913
G1 X95.449 Y113.833 E4.66542
G1 X94.825 Y113.423 E4.67809
G1 X91.312 Y110.471 E4.75599
G1 X86.901 Y107.132 E4.84991
G1 X85.378 Y106.066 E4.88147
G1 X84.986 Y105.743 E4.89009
G1 X84.665 Y105.432 E4.89768
G1 X84.331 Y105.053 E4.90626
G1 X83.989 Y104.48 E4.91759
G1 X82.235 Y100.698 E4.98836
G1 X82.059 Y100.224 E4.99694
G1 X81.96 Y99.729 E5.00551
G1 X81.945 Y99.139 E5.01553
G1 X81.987 Y98.508 E5.02627
G1 X82.06 Y98.008 E5.03485
G1 X82.212 Y97.526 E5.04343
G1 X82.437 Y97.073 E5.05201
G1 X82.662 Y96.746 E5.05875
G1 X84.865 Y93.936 E5.11937
G1 X88.086 Y89.528 E5.21205
G1 X88.564 Y89.007 E5.22406
G1 F1500 E-1.27594
G0 F5400 X93.664 Y88.347
G0 X94.111 Y88.374
G0 X99.189 Y89.962
;TYPE:SUPPORT
G1 F1500 E5.22406
G1 F1800 X99.085 Y89.586 E5.23068
G1 X99.238 Y89.529 E5.23345
G1 X99.444 Y89.468 E5.2371
G1 X99.711 Y89.433 E5.24167
G1 X99.79 Y89.398 E5.24314
G1 X100.008 Y89.367 E5.24687
G1 X100.26 Y89.41 E5.25121
G1 X100.287 Y89.42 E5.2517
G1 X100.499 Y89.458 E5.25536
G1 X100.816 Y89.543 E5.26093
G1 X100.897 Y89.576 E5.26242
G1 X100.823 Y89.828 E5.26687
G1 X100.823 Y90.559 E5.27928
G1 X99.993 Y90.623 E5.29342
G1 X99.211 Y90.559 E5.30674
G1 X99.189 Y89.962 E5.31688
G0 F5400 X99.828 Y89.6
G1 F1800 X100.183 Y89.6 E5.3229
G0 F5400 X99.69 Y98.076
G1 F1800 X99.787 Y98.025 E5.32476
G1 X99.999 Y97.981 E5.32844
G1 X100.211 Y98.024 E5.33211
G1 X100.342 Y98.083 E5.33455
G1 X100.446 Y98.107 E5.33636
G1 X100.895 Y98.397 E5.34544
G1 X100.719 Y98.835 E5.35345
G1 X100.002 Y98.67 E5.36594
G1 X99.284 Y98.838 E5.37846
G1 X99.116 Y98.391 E5.38657
G1 X99.555 Y98.107 E5.39544
G1 X99.69 Y98.076 E5.39779
G1 F1500 E-1.10221
G0 F5400 X97.646 Y95.164
G0 X96.859 Y94.124
G0 X96.809 Y94.081
G0 X96.821 Y94.181
;TYPE:WALL-INNER
G1 F1500 E5.39779
G1 F1800 X96.798 Y94.184 E5.39819
G1 X96.77 Y94.181 E5.39867
G1 X96.69 Y94.172 E5.40003
G1 X96.621 Y94.139 E5.40133
G1 X96.556 Y94.108 E5.40255
G1 X96.408 Y94.036 E5.40535
G0 X96.625 Y93.962
G0 X96.669 Y93.958
G0 X96.708 Y93.954
G0 X96.722 Y93.956
G0 X96.794 Y93.967
G0 X96.87 Y94.009
G1 X96.88 Y94.022 E5.40535
G0 X96.909 Y94.059
G1 X96.915 Y94.096 E5.40546
G1 X96.902 Y94.135 E5.40616
G1 X96.883 Y94.155 E5.40627
G1 X96.838 Y94.179 E5.40637
G0 X96.821 Y94.181
G1 F1500 E-1.09363
G0 F5400 X96.809 Y94.081
G0 X96.447 Y94.038
G0 X95.075 Y94.04
G0 X94.726 Y93.807
G0 X94.812 Y93.757
G1 F1500 E5.40637
G1 F1800 X95.016 Y93.955 E5.41119
G1 X95.067 Y94.004 E5.41239
G1 X95.113 Y94.049 E5.41349
G0 X94.988 Y94.085
G0 X94.884 Y94.106
G0 X94.867 Y94.11
G1 X94.611 Y94.143 E5.41787
G1 X94.367 Y94.245 E5.42236
G1 X94.22 Y94.38 E5.42575
G1 X93.888 Y94.806 E5.43491
G1 X93.848 Y94.868 E5.43617
G1 X93.781 Y94.974 E5.4383
G1 X93.697 Y95.139 E5.44144
G1 X93.649 Y95.231 E5.4432
G0 X93.571 Y95.107
G0 X93.541 Y95.059
G1 X93.484 Y94.947 E5.445
G1 X93.381 Y94.749 E5.44878
G1 X92.753 Y93.608 E5.47089
G1 X92.662 Y93.455 E5.47392
G1 X92.646 Y93.427 E5.47446
G1 X92.502 Y93.108 E5.48041
G1 X92.487 Y93.085 E5.48087
G1 X92.469 Y93.06 E5.48139
G0 X92.502 Y93.073
G0 X92.629 Y93.067
G1 X92.662 Y93.066 E5.48193
G1 X92.921 Y93.053 E5.48633
G1 X93.266 Y92.806 E5.49354
G1 X93.361 Y92.642 E5.49676
G0 X93.397 Y92.768
G1 X93.437 Y92.904 E5.49696
G1 X93.668 Y93.156 E5.50276
G1 X93.898 Y93.298 E5.50735
G1 X94.219 Y93.316 E5.51281
G1 X94.4 Y93.29 E5.51591
G1 X94.601 Y93.191 E5.51972
G1 X94.684 Y93.15 E5.52129
G1 X94.703 Y93.14 E5.52165
G1 X94.752 Y93.097 E5.52276
G0 X94.739 Y93.148
G0 X94.72 Y93.222
G0 X94.723 Y93.264
G1 X94.74 Y93.474 E5.52405
G1 X94.812 Y93.757 E5.52901
G1 F1500 E-0.97099
G0 F5400 X94.726 Y93.807
G0 X94.732 Y93.131
G0 X95.786 Y91.578
G0 X95.847 Y91.499
G0 X95.789 Y91.543
G1 F1500 E5.52901
G1 F1800 X95.832 Y91.357 E5.53225
G1 X95.871 Y91.266 E5.53393
G1 X95.882 Y91.242 E5.53438
G1 X95.898 Y91.217 E5.53489
G1 X95.916 Y91.191 E5.53542
G1 X95.941 Y91.166 E5.53602
G1 X95.991 Y91.118 E5.5372
G1 X96.016 Y91.106 E5.53767
G1 X96.077 Y91.074 E5.53884
G1 X96.093 Y91.066 E5.53914
G1 X96.163 Y91.066 E5.54033
G1 X96.192 Y91.066 E5.54082
G1 X96.24 Y91.094 E5.54177
G1 X96.271 Y91.141 E5.54272
G1 X96.28 Y91.19 E5.5435
G1 X96.268 Y91.257 E5.54411
G1 X96.255 Y91.278 E5.54413
G0 X96.215 Y91.344
G0 X96.163 Y91.393
G0 X96.138 Y91.405
G0 X96.049 Y91.451
G0 X96.002 Y91.475
G0 X95.916 Y91.519
G0 X95.817 Y91.57
G0 X95.762 Y91.609
G0 X95.783 Y91.557
G0 X95.789 Y91.543
G1 F1500 E-0.95587
G0 F5400 X95.847 Y91.499
G0 X95.869 Y91.369
G0 X94.039 Y90.023
G0 X93.746 Y90.461
G0 X93.699 Y90.494
G1 F1500 E5.54413
G1 F1800 X93.674 Y90.342 E5.54674
G1 X93.657 Y90.24 E5.5485
G1 X93.56 Y89.986 E5.55311
G1 X93.523 Y89.859 E5.55536
G1 X93.529 Y89.779 E5.55672
G1 X93.558 Y89.708 E5.55802
G1 X93.594 Y89.671 E5.5589
G1 X93.673 Y89.633 E5.56039
G1 X93.75 Y89.618 E5.56172
G1 X93.865 Y89.626 E5.56367
G1 X94.008 Y89.681 E5.56628
G1 X94.077 Y89.737 E5.56778
G1 X94.11 Y89.778 E5.56868
G1 X94.131 Y89.845 E5.56987
G1 X94.128 Y89.928 E5.57128
G1 X94.073 Y90.044 E5.57346
G1 X93.98 Y90.163 E5.57602
G1 X93.885 Y90.307 E5.57825
G0 X93.863 Y90.349
G0 X93.766 Y90.529
G1 X93.69 Y90.67 E5.57966
G0 X93.699 Y90.494
G1 F1500 E-0.92034
G0 F5400 X93.746 Y90.461
G0 X93.7 Y90.632
G0 X91.294 Y91.775
G0 X91.308 Y91.841
G0 X91.324 Y91.897
G1 F1500 E5.57966
G1 F1800 X91.265 Y91.86 E5.58084
G1 X91.216 Y91.829 E5.58183
G1 X91.191 Y91.813 E5.58233
G1 X91.175 Y91.79 E5.5828
G1 X91.162 Y91.772 E5.58318
G1 X91.155 Y91.762 E5.58339
G1 X91.176 Y91.734 E5.58398
G0 X91.22 Y91.71
G1 X91.243 Y91.697 E5.58443
G0 X91.271 Y91.693
G0 X91.294 Y91.705
G0 X91.312 Y91.731
G0 X91.329 Y91.757
G0 X91.375 Y91.877
G1 X91.406 Y91.957 E5.58469
G0 X91.324 Y91.897
G1 F1500 E-0.91531
G0 F5400 X91.308 Y91.841
G0 X91.382 Y91.926
G0 X92.499 Y93.085
G0 X92.807 Y93.159
G0 X92.784 Y92.659
;TYPE:WALL-OUTER
G1 F1500 E5.58469
G1 F1800 X92.963 Y92.531 E5.58842
G1 X93.069 Y92.348 E5.59201
G1 X93.139 Y92.13 E5.5959
G1 X93.186 Y91.876 E5.60029
G1 X93.257 Y91.303 E5.61009
G1 X93.297 Y90.516 E5.62347
G1 X93.269 Y90.345 E5.62641
G1 X93.181 Y90.114 E5.6306
G1 X93.129 Y89.935 E5.63377
G1 X93.122 Y89.865 E5.63496
G1 X93.133 Y89.709 E5.63762
G1 X93.145 Y89.661 E5.63846
G1 X93.207 Y89.512 E5.6412
G1 X93.235 Y89.468 E5.64208
G1 X93.334 Y89.365 E5.64451
G1 X93.384 Y89.328 E5.64556
G1 X93.547 Y89.25 E5.64863
G1 X93.721 Y89.216 E5.65164
G1 X93.944 Y89.23 E5.65543
G1 X94.139 Y89.296 E5.65893
G1 X94.23 Y89.347 E5.6607
G1 X94.363 Y89.453 E5.66359
G1 X94.453 Y89.567 E5.66605
G1 X94.506 Y89.684 E5.66823
G1 X94.532 Y89.809 E5.6704
G1 X94.527 Y89.991 E5.67349
G1 X94.517 Y90.037 E5.67429
G1 X94.445 Y90.203 E5.67736
G1 X94.405 Y90.268 E5.67866
G1 X94.305 Y90.396 E5.68142
G1 X94.229 Y90.512 E5.68377
G1 X94.055 Y90.833 E5.68997
G1 X93.994 Y90.967 E5.69247
G1 X93.914 Y91.189 E5.69647
G1 X93.749 Y91.875 E5.70845
G1 X93.711 Y92.189 E5.71382
G1 X93.724 Y92.459 E5.71841
G1 X93.795 Y92.703 E5.72272
G1 X93.925 Y92.845 E5.72599
G1 X94.021 Y92.904 E5.72791
G1 X94.202 Y92.914 E5.73098
G1 X94.281 Y92.903 E5.73234
G1 X94.477 Y92.806 E5.73605
G1 X94.691 Y92.615 E5.74092
G1 X94.899 Y92.36 E5.74651
G1 X95.061 Y92.124 E5.75137
G1 X95.309 Y91.657 E5.76034
G1 X95.407 Y91.421 E5.76468
G1 X95.45 Y91.232 E5.76797
G1 X95.53 Y91.05 E5.77135
G1 X95.607 Y90.933 E5.77372
G1 X95.754 Y90.79 E5.77721
G1 X95.961 Y90.684 E5.78115
G1 X96.015 Y90.668 E5.78211
G1 X96.14 Y90.663 E5.78423
G1 X96.281 Y90.671 E5.78663
G1 X96.337 Y90.689 E5.78763
G1 X96.477 Y90.768 E5.79036
G1 X96.521 Y90.804 E5.79132
G1 X96.563 Y90.856 E5.79246
G1 X96.651 Y90.992 E5.79521
G1 X96.681 Y91.162 E5.79814
G1 X96.679 Y91.228 E5.79926
G1 X96.656 Y91.367 E5.80165
G1 X96.637 Y91.421 E5.80262
G1 X96.529 Y91.596 E5.80611
G1 X96.44 Y91.685 E5.80825
G1 X96.381 Y91.729 E5.8095
G1 X96.265 Y91.795 E5.81177
G1 X96.021 Y91.915 E5.81638
G1 X95.927 Y91.981 E5.81833
G1 X95.78 Y92.116 E5.82172
G1 X95.656 Y92.285 E5.82528
G1 X95.473 Y92.509 E5.83019
G1 X95.302 Y92.768 E5.83546
G1 X95.182 Y93.026 E5.84029
G1 X95.124 Y93.256 E5.84432
G1 X95.136 Y93.408 E5.8469
G1 X95.172 Y93.549 E5.84938
G1 X95.331 Y93.704 E5.85314
G1 X95.557 Y93.766 E5.85712
G1 X95.774 Y93.765 E5.86081
G1 X95.992 Y93.734 E5.86455
G1 X96.256 Y93.666 E5.86917
G1 X96.541 Y93.568 E5.87429
G1 X96.723 Y93.552 E5.87739
G1 X96.894 Y93.577 E5.88033
G1 X96.948 Y93.595 E5.88129
G1 X97.136 Y93.698 E5.88493
G1 X97.264 Y93.864 E5.88849
G1 X97.294 Y93.934 E5.88978
G1 X97.321 Y94.102 E5.89267
G1 X97.317 Y94.153 E5.89354
G1 X97.256 Y94.336 E5.89681
G1 X97.239 Y94.362 E5.89734
G1 X97.148 Y94.457 E5.89957
G1 X97.097 Y94.495 E5.90065
G1 X96.98 Y94.556 E5.90289
G1 X96.925 Y94.571 E5.90386
G1 X96.802 Y94.587 E5.90597
G1 X96.593 Y94.564 E5.90954
G1 X96.451 Y94.505 E5.91215
G1 X96.206 Y94.383 E5.91679
G1 X96.1 Y94.358 E5.91864
G1 X95.909 Y94.334 E5.92191
G1 X95.448 Y94.357 E5.92975
G1 X95.282 Y94.416 E5.93274
G1 X95.085 Y94.473 E5.93622
G1 X94.929 Y94.506 E5.93893
G1 X94.715 Y94.533 E5.94259
G1 X94.586 Y94.587 E5.94496
G1 X94.515 Y94.652 E5.9466
G1 X94.215 Y95.037 E5.95488
G1 X94.127 Y95.175 E5.95766
G1 X94.037 Y95.346 E5.96094
G1 X93.961 Y95.51 E5.96401
G1 X93.935 Y95.581 E5.96529
G1 X93.925 Y95.609 E5.9658
G1 X93.908 Y95.687 E5.96715
G1 X93.859 Y95.738 E5.96835
G1 X93.844 Y95.753 E5.96871
G1 X93.805 Y95.816 E5.96997
G1 X93.722 Y95.888 E5.97184
G1 X93.704 Y95.884 E5.97215
G1 X93.653 Y95.848 E5.97321
G1 X93.632 Y95.827 E5.97371
G1 X93.49 Y95.683 E5.97715
G1 X93.476 Y95.667 E5.97751
G1 X93.372 Y95.542 E5.98027
G1 X93.194 Y95.259 E5.98595
G1 X93.028 Y94.937 E5.9921
G1 X92.406 Y93.806 E6.01401
G1 X92.29 Y93.61 E6.01787
G1 X92.152 Y93.304 E6.02357
G1 X91.98 Y93.052 E6.02875
G1 X91.757 Y92.79 E6.03459
G1 X91.458 Y92.491 E6.04177
G1 X91.101 Y92.229 E6.04929
G1 X90.951 Y92.137 E6.05228
G1 X90.893 Y92.083 E6.05362
G1 X90.818 Y91.981 E6.05577
G1 X90.776 Y91.9 E6.05732
G1 X90.75 Y91.809 E6.05893
G1 X90.751 Y91.725 E6.06035
G1 X90.761 Y91.661 E6.06145
G1 X90.789 Y91.594 E6.06269
G1 X90.851 Y91.491 E6.06473
G1 X90.939 Y91.407 E6.06679
G1 X91.087 Y91.326 E6.06966
G1 X91.16 Y91.304 E6.07095
G1 X91.268 Y91.29 E6.0728
G1 X91.358 Y91.296 E6.07433
G1 X91.398 Y91.308 E6.07504
G1 X91.549 Y91.389 E6.07795
G1 X91.604 Y91.45 E6.07934
G1 X91.685 Y91.569 E6.08179
G1 X91.801 Y91.87 E6.08726
G1 X91.913 Y92.089 E6.09144
G1 X92.053 Y92.294 E6.09565
G1 X92.21 Y92.466 E6.09961
G1 X92.38 Y92.594 E6.10322
G1 X92.569 Y92.669 E6.10667
